<?xml version="1.0" encoding="UTF-8"?>
<map version="1.10" tiledversion="1.11.2" orientation="orthogonal" renderorder="right-down" width="43" height="21" tilewidth="64" tileheight="64" infinite="0" nextlayerid="91" nextobjectid="1908">
 <tileset firstgid="1" name="tiles_cave" tilewidth="64" tileheight="64" tilecount="100" columns="10">
  <image source="../Props/tiles_cave.png" width="640" height="640"/>
 </tileset>
 <tileset firstgid="101" name="rocas1" tilewidth="64" tileheight="64" tilecount="480" columns="30">
  <image source="../Environment/rocas1.png" width="1920" height="1080"/>
 </tileset>
 <tileset firstgid="581" name="rocas2" tilewidth="64" tileheight="64" tilecount="480" columns="30">
  <image source="../Environment/rocas2.png" width="1920" height="1080"/>
 </tileset>
 <tileset firstgid="1061" name="rocas3" tilewidth="64" tileheight="64" tilecount="480" columns="30">
  <image source="../Environment/rocas3.png" width="1920" height="1080"/>
 </tileset>
 <tileset firstgid="1541" name="Fondo_cueva" tilewidth="64" tileheight="64" tilecount="480" columns="30">
  <image source="../Environment/Fondo_cueva.png" width="1920" height="1080"/>
 </tileset>
 <tileset firstgid="2021" name="niebla_fondo" tilewidth="64" tileheight="64" tilecount="480" columns="30">
  <image source="../Environment/niebla_fondo.png" width="1920" height="1080"/>
 </tileset>
 <tileset firstgid="2501" name="piedras_columnas0" tilewidth="64" tileheight="64" tilecount="480" columns="30">
  <image source="../Environment/piedras_columnas0.png" width="1920" height="1080"/>
 </tileset>
 <tileset firstgid="2981" name="piedras0" tilewidth="64" tileheight="64" tilecount="480" columns="30">
  <image source="../Environment/piedras0.png" width="1920" height="1080"/>
 </tileset>
 <tileset firstgid="3461" name="spike3" tilewidth="64" tileheight="64" tilecount="4" columns="2">
  <image source="../Props/spike3.png" width="128" height="128"/>
 </tileset>
 <tileset firstgid="3465" name="SecretCave_Background_Fog" tilewidth="64" tileheight="64" tilecount="480" columns="30">
  <image source="../Environment/SecretCave_Background_Fog.png" width="1920" height="1080"/>
 </tileset>
 <tileset firstgid="3945" name="SecretCave_Cristals" tilewidth="64" tileheight="64" tilecount="480" columns="30">
  <image source="../Environment/SecretCave_Cristals.png" width="1920" height="1080"/>
 </tileset>
 <tileset firstgid="4425" name="SecretCave_Fog1" tilewidth="64" tileheight="64" tilecount="480" columns="30">
  <image source="../Environment/SecretCave_Fog1.png" width="1920" height="1080"/>
 </tileset>
 <tileset firstgid="4905" name="SecretCave_Stones1" tilewidth="64" tileheight="64" tilecount="480" columns="30">
  <image source="../Environment/SecretCave_Stones1.png" width="1920" height="1080"/>
 </tileset>
 <tileset firstgid="5385" name="SecretCave_Stones2" tilewidth="64" tileheight="64" tilecount="480" columns="30">
  <image source="../Environment/SecretCave_Stones2.png" width="1920" height="1080"/>
 </tileset>
 <tileset firstgid="5865" name="SecretCave_Stones3" tilewidth="64" tileheight="64" tilecount="480" columns="30">
  <image source="../Environment/SecretCave_Stones3.png" width="1920" height="1080"/>
 </tileset>
 <tileset firstgid="6345" name="SecretCave_Stones4" tilewidth="64" tileheight="64" tilecount="480" columns="30">
  <image source="../Environment/SecretCave_Stones4.png" width="1920" height="1080"/>
 </tileset>
 <tileset firstgid="6825" name="SecretCave_Background1" tilewidth="64" tileheight="64" tilecount="480" columns="30">
  <image source="../Environment/SecretCave_Background1.png" width="1920" height="1080"/>
 </tileset>
 <tileset firstgid="7305" name="SecretCave_Fog2" tilewidth="64" tileheight="64" tilecount="480" columns="30">
  <image source="../Environment/SecretCave_Fog2.png" width="1920" height="1080"/>
 </tileset>
 <tileset firstgid="7785" name="MapMetadata" tilewidth="64" tileheight="64" tilecount="2" columns="2">
  <image source="MapMetadata.png" width="128" height="64"/>
 </tileset>
 <tileset firstgid="7787" name="Bolas(128x530)" tilewidth="64" tileheight="64" tilecount="16" columns="8">
  <image source="../Props/Bolas(128x530).png" width="512" height="128"/>
 </tileset>
 <tileset firstgid="7803" name="spike_puple" tilewidth="64" tileheight="64" tilecount="4" columns="2">
  <image source="../Props/spike_puple.png" width="128" height="128"/>
 </tileset>
 <tileset firstgid="7807" name="tiles_cave2" tilewidth="64" tileheight="64" tilecount="100" columns="10">
  <image source="../Props/tiles_cave2.png" trans="ff00ff" width="640" height="640"/>
 </tileset>
 <tileset firstgid="7907" name="Prueba_change" tilewidth="64" tileheight="64" tilecount="1140" columns="30">
  <image source="../Props/Prueba_change.png" trans="ff00ff" width="1920" height="2444"/>
 </tileset>
 <tileset firstgid="9047" name="gancho_araña" tilewidth="64" tileheight="64" tilecount="18" columns="9">
  <image source="../Props/gancho_araña.png" width="576" height="190"/>
 </tileset>
 <tileset firstgid="9065" name="lianas" tilewidth="64" tileheight="64" tilecount="225" columns="15">
  <image source="../Props/lianas.png" width="1000" height="1000"/>
 </tileset>
 <layer id="44" name="Background" width="43" height="21" parallaxx="0" parallaxy="0">
  <properties>
   <property name="Draw" type="bool" value="true"/>
  </properties>
  <data>
   <tile gid="6921"/>
   <tile gid="6922"/>
   <tile gid="6923"/>
   <tile gid="6924"/>
   <tile gid="6925"/>
   <tile gid="6926"/>
   <tile gid="6866"/>
   <tile gid="6866"/>
   <tile gid="6866"/>
   <tile gid="6866"/>
   <tile gid="6866"/>
   <tile gid="6866"/>
   <tile gid="6866"/>
   <tile gid="6866"/>
   <tile gid="6866"/>
   <tile gid="6866"/>
   <tile gid="6866"/>
   <tile gid="6866"/>
   <tile gid="6866"/>
   <tile gid="6866"/>
   <tile gid="6866"/>
   <tile gid="6866"/>
   <tile gid="6866"/>
   <tile gid="6866"/>
   <tile gid="6866"/>
   <tile gid="6866"/>
   <tile gid="6866"/>
   <tile gid="6866"/>
   <tile gid="6866"/>
   <tile gid="6866"/>
   <tile gid="6866"/>
   <tile gid="6866"/>
   <tile gid="6866"/>
   <tile gid="6866"/>
   <tile gid="6836"/>
   <tile gid="6836"/>
   <tile gid="6836"/>
   <tile gid="6836"/>
   <tile gid="6836"/>
   <tile gid="6836"/>
   <tile gid="6836"/>
   <tile gid="6836"/>
   <tile gid="6836"/>
   <tile gid="6951"/>
   <tile gid="6952"/>
   <tile gid="6953"/>
   <tile gid="6954"/>
   <tile gid="6955"/>
   <tile gid="6956"/>
   <tile gid="6896"/>
   <tile gid="6896"/>
   <tile gid="6896"/>
   <tile gid="6896"/>
   <tile gid="6896"/>
   <tile gid="6896"/>
   <tile gid="6896"/>
   <tile gid="6896"/>
   <tile gid="6896"/>
   <tile gid="6896"/>
   <tile gid="6896"/>
   <tile gid="6896"/>
   <tile gid="6896"/>
   <tile gid="6896"/>
   <tile gid="6896"/>
   <tile gid="6896"/>
   <tile gid="6896"/>
   <tile gid="6896"/>
   <tile gid="6896"/>
   <tile gid="6896"/>
   <tile gid="6896"/>
   <tile gid="6896"/>
   <tile gid="6896"/>
   <tile gid="6896"/>
   <tile gid="6896"/>
   <tile gid="6896"/>
   <tile gid="6896"/>
   <tile gid="6896"/>
   <tile gid="6866"/>
   <tile gid="6866"/>
   <tile gid="6866"/>
   <tile gid="6866"/>
   <tile gid="6866"/>
   <tile gid="6866"/>
   <tile gid="6866"/>
   <tile gid="6866"/>
   <tile gid="6866"/>
   <tile gid="6981"/>
   <tile gid="6982"/>
   <tile gid="6983"/>
   <tile gid="6984"/>
   <tile gid="6985"/>
   <tile gid="6986"/>
   <tile gid="6926"/>
   <tile gid="6926"/>
   <tile gid="6926"/>
   <tile gid="6926"/>
   <tile gid="6926"/>
   <tile gid="6926"/>
   <tile gid="6926"/>
   <tile gid="6926"/>
   <tile gid="6926"/>
   <tile gid="6926"/>
   <tile gid="6926"/>
   <tile gid="6926"/>
   <tile gid="6926"/>
   <tile gid="6926"/>
   <tile gid="6926"/>
   <tile gid="6926"/>
   <tile gid="6926"/>
   <tile gid="6926"/>
   <tile gid="6926"/>
   <tile gid="6926"/>
   <tile gid="6926"/>
   <tile gid="6926"/>
   <tile gid="6926"/>
   <tile gid="6926"/>
   <tile gid="6926"/>
   <tile gid="6926"/>
   <tile gid="6926"/>
   <tile gid="6926"/>
   <tile gid="6896"/>
   <tile gid="6896"/>
   <tile gid="6896"/>
   <tile gid="6896"/>
   <tile gid="6896"/>
   <tile gid="6896"/>
   <tile gid="6896"/>
   <tile gid="6896"/>
   <tile gid="6896"/>
   <tile gid="7011"/>
   <tile gid="7012"/>
   <tile gid="7013"/>
   <tile gid="7014"/>
   <tile gid="7015"/>
   <tile gid="7016"/>
   <tile gid="6956"/>
   <tile gid="6956"/>
   <tile gid="6956"/>
   <tile gid="6956"/>
   <tile gid="6956"/>
   <tile gid="6956"/>
   <tile gid="6956"/>
   <tile gid="6956"/>
   <tile gid="6956"/>
   <tile gid="6956"/>
   <tile gid="6956"/>
   <tile gid="6956"/>
   <tile gid="6956"/>
   <tile gid="6956"/>
   <tile gid="6956"/>
   <tile gid="6956"/>
   <tile gid="6956"/>
   <tile gid="6956"/>
   <tile gid="6956"/>
   <tile gid="6956"/>
   <tile gid="6956"/>
   <tile gid="6956"/>
   <tile gid="6956"/>
   <tile gid="6956"/>
   <tile gid="6956"/>
   <tile gid="6956"/>
   <tile gid="6956"/>
   <tile gid="6956"/>
   <tile gid="6926"/>
   <tile gid="6926"/>
   <tile gid="6926"/>
   <tile gid="6926"/>
   <tile gid="6926"/>
   <tile gid="6926"/>
   <tile gid="6926"/>
   <tile gid="6926"/>
   <tile gid="6926"/>
   <tile gid="7041"/>
   <tile gid="7042"/>
   <tile gid="7043"/>
   <tile gid="7044"/>
   <tile gid="7045"/>
   <tile gid="7046"/>
   <tile gid="6986"/>
   <tile gid="6986"/>
   <tile gid="6986"/>
   <tile gid="6986"/>
   <tile gid="6986"/>
   <tile gid="6986"/>
   <tile gid="6986"/>
   <tile gid="6986"/>
   <tile gid="6986"/>
   <tile gid="6986"/>
   <tile gid="6986"/>
   <tile gid="6986"/>
   <tile gid="6986"/>
   <tile gid="6986"/>
   <tile gid="6986"/>
   <tile gid="6986"/>
   <tile gid="6986"/>
   <tile gid="6986"/>
   <tile gid="6986"/>
   <tile gid="6986"/>
   <tile gid="6986"/>
   <tile gid="6986"/>
   <tile gid="6986"/>
   <tile gid="6986"/>
   <tile gid="6986"/>
   <tile gid="6986"/>
   <tile gid="6986"/>
   <tile gid="6986"/>
   <tile gid="6956"/>
   <tile gid="6956"/>
   <tile gid="6956"/>
   <tile gid="6956"/>
   <tile gid="6956"/>
   <tile gid="6956"/>
   <tile gid="6956"/>
   <tile gid="6956"/>
   <tile gid="6956"/>
   <tile gid="7071"/>
   <tile gid="7072"/>
   <tile gid="7073"/>
   <tile gid="7074"/>
   <tile gid="7075"/>
   <tile gid="7076"/>
   <tile gid="7016"/>
   <tile gid="7016"/>
   <tile gid="7016"/>
   <tile gid="7016"/>
   <tile gid="7016"/>
   <tile gid="7016"/>
   <tile gid="7016"/>
   <tile gid="7016"/>
   <tile gid="7016"/>
   <tile gid="7016"/>
   <tile gid="7016"/>
   <tile gid="7016"/>
   <tile gid="7016"/>
   <tile gid="7016"/>
   <tile gid="7016"/>
   <tile gid="7016"/>
   <tile gid="7016"/>
   <tile gid="7016"/>
   <tile gid="7016"/>
   <tile gid="7016"/>
   <tile gid="7016"/>
   <tile gid="7016"/>
   <tile gid="7016"/>
   <tile gid="7016"/>
   <tile gid="7016"/>
   <tile gid="7016"/>
   <tile gid="7016"/>
   <tile gid="7016"/>
   <tile gid="6986"/>
   <tile gid="6986"/>
   <tile gid="6986"/>
   <tile gid="6986"/>
   <tile gid="6986"/>
   <tile gid="6986"/>
   <tile gid="6986"/>
   <tile gid="6986"/>
   <tile gid="6986"/>
   <tile gid="7101"/>
   <tile gid="7102"/>
   <tile gid="7103"/>
   <tile gid="7104"/>
   <tile gid="7105"/>
   <tile gid="7106"/>
   <tile gid="7046"/>
   <tile gid="7046"/>
   <tile gid="7046"/>
   <tile gid="7046"/>
   <tile gid="7046"/>
   <tile gid="7046"/>
   <tile gid="7046"/>
   <tile gid="7046"/>
   <tile gid="7046"/>
   <tile gid="7046"/>
   <tile gid="7046"/>
   <tile gid="7046"/>
   <tile gid="7046"/>
   <tile gid="7046"/>
   <tile gid="7046"/>
   <tile gid="7046"/>
   <tile gid="7046"/>
   <tile gid="7046"/>
   <tile gid="7046"/>
   <tile gid="7046"/>
   <tile gid="7046"/>
   <tile gid="7046"/>
   <tile gid="7046"/>
   <tile gid="7046"/>
   <tile gid="7046"/>
   <tile gid="7046"/>
   <tile gid="7046"/>
   <tile gid="7046"/>
   <tile gid="7016"/>
   <tile gid="7016"/>
   <tile gid="7016"/>
   <tile gid="7016"/>
   <tile gid="7016"/>
   <tile gid="7016"/>
   <tile gid="7016"/>
   <tile gid="7016"/>
   <tile gid="7016"/>
   <tile gid="7131"/>
   <tile gid="7132"/>
   <tile gid="7133"/>
   <tile gid="7134"/>
   <tile gid="7135"/>
   <tile gid="7136"/>
   <tile gid="7076"/>
   <tile gid="7076"/>
   <tile gid="7076"/>
   <tile gid="7076"/>
   <tile gid="7076"/>
   <tile gid="7076"/>
   <tile gid="7076"/>
   <tile gid="7076"/>
   <tile gid="7076"/>
   <tile gid="7076"/>
   <tile gid="7076"/>
   <tile gid="7076"/>
   <tile gid="7076"/>
   <tile gid="7076"/>
   <tile gid="7076"/>
   <tile gid="7076"/>
   <tile gid="7076"/>
   <tile gid="7076"/>
   <tile gid="7076"/>
   <tile gid="7076"/>
   <tile gid="7076"/>
   <tile gid="7076"/>
   <tile gid="7076"/>
   <tile gid="7076"/>
   <tile gid="7076"/>
   <tile gid="7076"/>
   <tile gid="7076"/>
   <tile gid="7076"/>
   <tile gid="7046"/>
   <tile gid="7046"/>
   <tile gid="7046"/>
   <tile gid="7046"/>
   <tile gid="7046"/>
   <tile gid="7046"/>
   <tile gid="7046"/>
   <tile gid="7046"/>
   <tile gid="7046"/>
   <tile gid="7161"/>
   <tile gid="7162"/>
   <tile gid="7163"/>
   <tile gid="7164"/>
   <tile gid="7165"/>
   <tile gid="7166"/>
   <tile gid="7106"/>
   <tile gid="7106"/>
   <tile gid="7106"/>
   <tile gid="7106"/>
   <tile gid="7106"/>
   <tile gid="7106"/>
   <tile gid="7106"/>
   <tile gid="7106"/>
   <tile gid="7106"/>
   <tile gid="7106"/>
   <tile gid="7106"/>
   <tile gid="7106"/>
   <tile gid="7106"/>
   <tile gid="7106"/>
   <tile gid="7106"/>
   <tile gid="7106"/>
   <tile gid="7106"/>
   <tile gid="7106"/>
   <tile gid="7106"/>
   <tile gid="7106"/>
   <tile gid="7106"/>
   <tile gid="7106"/>
   <tile gid="7106"/>
   <tile gid="7106"/>
   <tile gid="7106"/>
   <tile gid="7106"/>
   <tile gid="7106"/>
   <tile gid="7106"/>
   <tile gid="7076"/>
   <tile gid="7076"/>
   <tile gid="7076"/>
   <tile gid="7076"/>
   <tile gid="7076"/>
   <tile gid="7076"/>
   <tile gid="7076"/>
   <tile gid="7076"/>
   <tile gid="7076"/>
   <tile gid="7191"/>
   <tile gid="7192"/>
   <tile gid="7193"/>
   <tile gid="7194"/>
   <tile gid="7195"/>
   <tile gid="7196"/>
   <tile gid="7136"/>
   <tile gid="7136"/>
   <tile gid="7136"/>
   <tile gid="7136"/>
   <tile gid="7136"/>
   <tile gid="7136"/>
   <tile gid="7136"/>
   <tile gid="7136"/>
   <tile gid="7136"/>
   <tile gid="7136"/>
   <tile gid="7136"/>
   <tile gid="7136"/>
   <tile gid="7136"/>
   <tile gid="7136"/>
   <tile gid="7136"/>
   <tile gid="7136"/>
   <tile gid="7136"/>
   <tile gid="7136"/>
   <tile gid="7136"/>
   <tile gid="7136"/>
   <tile gid="7136"/>
   <tile gid="7136"/>
   <tile gid="7136"/>
   <tile gid="7136"/>
   <tile gid="7136"/>
   <tile gid="7136"/>
   <tile gid="7136"/>
   <tile gid="7136"/>
   <tile gid="7106"/>
   <tile gid="7106"/>
   <tile gid="7106"/>
   <tile gid="7106"/>
   <tile gid="7106"/>
   <tile gid="7106"/>
   <tile gid="7106"/>
   <tile gid="7106"/>
   <tile gid="7106"/>
   <tile gid="7221"/>
   <tile gid="7222"/>
   <tile gid="7223"/>
   <tile gid="7224"/>
   <tile gid="7225"/>
   <tile gid="7226"/>
   <tile gid="7166"/>
   <tile gid="7166"/>
   <tile gid="7166"/>
   <tile gid="7166"/>
   <tile gid="7166"/>
   <tile gid="7166"/>
   <tile gid="7166"/>
   <tile gid="7166"/>
   <tile gid="7166"/>
   <tile gid="7166"/>
   <tile gid="7166"/>
   <tile gid="7166"/>
   <tile gid="7166"/>
   <tile gid="7166"/>
   <tile gid="7166"/>
   <tile gid="7166"/>
   <tile gid="7166"/>
   <tile gid="7166"/>
   <tile gid="7166"/>
   <tile gid="7166"/>
   <tile gid="7166"/>
   <tile gid="7166"/>
   <tile gid="7166"/>
   <tile gid="7166"/>
   <tile gid="7166"/>
   <tile gid="7166"/>
   <tile gid="7166"/>
   <tile gid="7166"/>
   <tile gid="7136"/>
   <tile gid="7136"/>
   <tile gid="7136"/>
   <tile gid="7136"/>
   <tile gid="7136"/>
   <tile gid="7136"/>
   <tile gid="7136"/>
   <tile gid="7136"/>
   <tile gid="7136"/>
   <tile gid="7251"/>
   <tile gid="7252"/>
   <tile gid="7253"/>
   <tile gid="7254"/>
   <tile gid="7255"/>
   <tile gid="7256"/>
   <tile gid="7196"/>
   <tile gid="7196"/>
   <tile gid="7196"/>
   <tile gid="7196"/>
   <tile gid="7196"/>
   <tile gid="7196"/>
   <tile gid="7196"/>
   <tile gid="7196"/>
   <tile gid="7196"/>
   <tile gid="7196"/>
   <tile gid="7196"/>
   <tile gid="7196"/>
   <tile gid="7196"/>
   <tile gid="7196"/>
   <tile gid="7196"/>
   <tile gid="7196"/>
   <tile gid="7196"/>
   <tile gid="7196"/>
   <tile gid="7196"/>
   <tile gid="7196"/>
   <tile gid="7196"/>
   <tile gid="7196"/>
   <tile gid="7196"/>
   <tile gid="7196"/>
   <tile gid="7196"/>
   <tile gid="7196"/>
   <tile gid="7196"/>
   <tile gid="7196"/>
   <tile gid="7166"/>
   <tile gid="7166"/>
   <tile gid="7166"/>
   <tile gid="7166"/>
   <tile gid="7166"/>
   <tile gid="7166"/>
   <tile gid="7166"/>
   <tile gid="7166"/>
   <tile gid="7166"/>
   <tile gid="7281"/>
   <tile gid="7282"/>
   <tile gid="7283"/>
   <tile gid="7284"/>
   <tile gid="7285"/>
   <tile gid="7286"/>
   <tile gid="7226"/>
   <tile gid="7226"/>
   <tile gid="7226"/>
   <tile gid="7226"/>
   <tile gid="7226"/>
   <tile gid="7226"/>
   <tile gid="7226"/>
   <tile gid="7226"/>
   <tile gid="7226"/>
   <tile gid="7226"/>
   <tile gid="7226"/>
   <tile gid="7226"/>
   <tile gid="7226"/>
   <tile gid="7226"/>
   <tile gid="7226"/>
   <tile gid="7226"/>
   <tile gid="7226"/>
   <tile gid="7226"/>
   <tile gid="7226"/>
   <tile gid="7226"/>
   <tile gid="7226"/>
   <tile gid="7226"/>
   <tile gid="7226"/>
   <tile gid="7226"/>
   <tile gid="7226"/>
   <tile gid="7226"/>
   <tile gid="7226"/>
   <tile gid="7226"/>
   <tile gid="7196"/>
   <tile gid="7196"/>
   <tile gid="7196"/>
   <tile gid="7196"/>
   <tile gid="7196"/>
   <tile gid="7196"/>
   <tile gid="7196"/>
   <tile gid="7196"/>
   <tile gid="7196"/>
   <tile gid="7286"/>
   <tile gid="7256"/>
   <tile gid="7256"/>
   <tile gid="7256"/>
   <tile gid="7256"/>
   <tile gid="7256"/>
   <tile gid="7256"/>
   <tile gid="7256"/>
   <tile gid="7256"/>
   <tile gid="7256"/>
   <tile gid="7256"/>
   <tile gid="7256"/>
   <tile gid="7256"/>
   <tile gid="7256"/>
   <tile gid="7256"/>
   <tile gid="7256"/>
   <tile gid="7256"/>
   <tile gid="7256"/>
   <tile gid="7256"/>
   <tile gid="7256"/>
   <tile gid="7256"/>
   <tile gid="7256"/>
   <tile gid="7256"/>
   <tile gid="7256"/>
   <tile gid="7256"/>
   <tile gid="7256"/>
   <tile gid="7256"/>
   <tile gid="7256"/>
   <tile gid="7256"/>
   <tile gid="7256"/>
   <tile gid="7256"/>
   <tile gid="7256"/>
   <tile gid="7256"/>
   <tile gid="7256"/>
   <tile gid="7226"/>
   <tile gid="7226"/>
   <tile gid="7226"/>
   <tile gid="7226"/>
   <tile gid="7226"/>
   <tile gid="7226"/>
   <tile gid="7226"/>
   <tile gid="7226"/>
   <tile gid="7226"/>
   <tile gid="7285"/>
   <tile gid="7286"/>
   <tile gid="7286"/>
   <tile gid="7286"/>
   <tile gid="7286"/>
   <tile gid="7286"/>
   <tile gid="7286"/>
   <tile gid="7286"/>
   <tile gid="7286"/>
   <tile gid="7286"/>
   <tile gid="7286"/>
   <tile gid="7286"/>
   <tile gid="7286"/>
   <tile gid="7286"/>
   <tile gid="7286"/>
   <tile gid="7286"/>
   <tile gid="7286"/>
   <tile gid="7286"/>
   <tile gid="7286"/>
   <tile gid="7286"/>
   <tile gid="7286"/>
   <tile gid="7286"/>
   <tile gid="7286"/>
   <tile gid="7286"/>
   <tile gid="7286"/>
   <tile gid="7286"/>
   <tile gid="7286"/>
   <tile gid="7286"/>
   <tile gid="7286"/>
   <tile gid="7286"/>
   <tile gid="7286"/>
   <tile gid="7286"/>
   <tile gid="7286"/>
   <tile gid="7286"/>
   <tile gid="7256"/>
   <tile gid="7256"/>
   <tile gid="7256"/>
   <tile gid="7256"/>
   <tile gid="7256"/>
   <tile gid="7256"/>
   <tile gid="7256"/>
   <tile gid="7256"/>
   <tile gid="7256"/>
   <tile gid="7215"/>
   <tile gid="7245"/>
   <tile gid="7245"/>
   <tile gid="7245"/>
   <tile gid="7245"/>
   <tile gid="7245"/>
   <tile gid="7245"/>
   <tile gid="7245"/>
   <tile gid="7275"/>
   <tile gid="7275"/>
   <tile gid="7275"/>
   <tile gid="7275"/>
   <tile gid="7275"/>
   <tile gid="7276"/>
   <tile gid="7277"/>
   <tile gid="7278"/>
   <tile gid="7279"/>
   <tile gid="7280"/>
   <tile gid="7281"/>
   <tile gid="7282"/>
   <tile gid="7283"/>
   <tile gid="7284"/>
   <tile gid="7285"/>
   <tile gid="7275"/>
   <tile gid="7276"/>
   <tile gid="7277"/>
   <tile gid="7278"/>
   <tile gid="7279"/>
   <tile gid="7280"/>
   <tile gid="7281"/>
   <tile gid="7282"/>
   <tile gid="7283"/>
   <tile gid="7284"/>
   <tile gid="7285"/>
   <tile gid="7286"/>
   <tile gid="7286"/>
   <tile gid="7286"/>
   <tile gid="7286"/>
   <tile gid="7286"/>
   <tile gid="7286"/>
   <tile gid="7286"/>
   <tile gid="7286"/>
   <tile gid="7286"/>
   <tile gid="7245"/>
   <tile gid="7275"/>
   <tile gid="7275"/>
   <tile gid="7275"/>
   <tile gid="7275"/>
   <tile gid="7275"/>
   <tile gid="7275"/>
   <tile gid="7275"/>
   <tile gid="7276"/>
   <tile gid="7277"/>
   <tile gid="7278"/>
   <tile gid="7279"/>
   <tile gid="7280"/>
   <tile gid="7281"/>
   <tile gid="7282"/>
   <tile gid="7283"/>
   <tile gid="7284"/>
   <tile gid="7285"/>
   <tile gid="7286"/>
   <tile gid="7016"/>
   <tile gid="7016"/>
   <tile gid="7016"/>
   <tile gid="7016"/>
   <tile gid="7016"/>
   <tile gid="7016"/>
   <tile gid="7016"/>
   <tile gid="7016"/>
   <tile gid="7016"/>
   <tile gid="7016"/>
   <tile gid="7016"/>
   <tile gid="7016"/>
   <tile gid="7016"/>
   <tile gid="7016"/>
   <tile gid="7016"/>
   <tile gid="7016"/>
   <tile gid="7016"/>
   <tile gid="7016"/>
   <tile gid="7016"/>
   <tile gid="7016"/>
   <tile gid="7016"/>
   <tile gid="7016"/>
   <tile gid="7016"/>
   <tile gid="7016"/>
   <tile gid="7275"/>
   <tile gid="7276"/>
   <tile gid="7277"/>
   <tile gid="7278"/>
   <tile gid="7279"/>
   <tile gid="7280"/>
   <tile gid="7281"/>
   <tile gid="7282"/>
   <tile gid="7283"/>
   <tile gid="7284"/>
   <tile gid="7285"/>
   <tile gid="7286"/>
   <tile gid="7076"/>
   <tile gid="7076"/>
   <tile gid="7076"/>
   <tile gid="7076"/>
   <tile gid="7046"/>
   <tile gid="7046"/>
   <tile gid="7046"/>
   <tile gid="7046"/>
   <tile gid="7046"/>
   <tile gid="7046"/>
   <tile gid="7046"/>
   <tile gid="7046"/>
   <tile gid="7046"/>
   <tile gid="7046"/>
   <tile gid="7046"/>
   <tile gid="7046"/>
   <tile gid="7046"/>
   <tile gid="7046"/>
   <tile gid="7046"/>
   <tile gid="7046"/>
   <tile gid="7046"/>
   <tile gid="7046"/>
   <tile gid="7046"/>
   <tile gid="7046"/>
   <tile gid="7046"/>
   <tile gid="7046"/>
   <tile gid="7046"/>
   <tile gid="7046"/>
   <tile gid="7046"/>
   <tile gid="7046"/>
   <tile gid="7046"/>
   <tile gid="7279"/>
   <tile gid="7280"/>
   <tile gid="7281"/>
   <tile gid="7282"/>
   <tile gid="7283"/>
   <tile gid="7284"/>
   <tile gid="7285"/>
   <tile gid="7286"/>
   <tile gid="7136"/>
   <tile gid="7106"/>
   <tile gid="7106"/>
   <tile gid="7106"/>
   <tile gid="7106"/>
   <tile gid="7106"/>
   <tile gid="7106"/>
   <tile gid="7106"/>
   <tile gid="7076"/>
   <tile gid="7076"/>
   <tile gid="7076"/>
   <tile gid="7076"/>
   <tile gid="7076"/>
   <tile gid="7076"/>
   <tile gid="7076"/>
   <tile gid="7076"/>
   <tile gid="7076"/>
   <tile gid="7076"/>
   <tile gid="7076"/>
   <tile gid="7076"/>
   <tile gid="7076"/>
   <tile gid="7076"/>
   <tile gid="7076"/>
   <tile gid="7076"/>
   <tile gid="7076"/>
   <tile gid="7076"/>
   <tile gid="7076"/>
   <tile gid="7076"/>
   <tile gid="7076"/>
   <tile gid="7076"/>
   <tile gid="7076"/>
   <tile gid="7076"/>
   <tile gid="7076"/>
   <tile gid="7076"/>
   <tile gid="7076"/>
   <tile gid="7285"/>
   <tile gid="7286"/>
   <tile gid="7226"/>
   <tile gid="7196"/>
   <tile gid="7196"/>
   <tile gid="7196"/>
   <tile gid="7196"/>
   <tile gid="7166"/>
   <tile gid="7166"/>
   <tile gid="7136"/>
   <tile gid="7136"/>
   <tile gid="7136"/>
   <tile gid="7136"/>
   <tile gid="7136"/>
   <tile gid="7136"/>
   <tile gid="7136"/>
   <tile gid="7106"/>
   <tile gid="7106"/>
   <tile gid="7106"/>
   <tile gid="7106"/>
   <tile gid="7106"/>
   <tile gid="7106"/>
   <tile gid="7106"/>
   <tile gid="7106"/>
   <tile gid="7106"/>
   <tile gid="7106"/>
   <tile gid="7106"/>
   <tile gid="7106"/>
   <tile gid="7106"/>
   <tile gid="7106"/>
   <tile gid="7106"/>
   <tile gid="7106"/>
   <tile gid="7106"/>
   <tile gid="7106"/>
   <tile gid="7106"/>
   <tile gid="7106"/>
   <tile gid="7106"/>
   <tile gid="7106"/>
   <tile gid="7106"/>
   <tile gid="7106"/>
   <tile gid="7106"/>
   <tile gid="7106"/>
   <tile gid="7106"/>
   <tile gid="7285"/>
   <tile gid="7286"/>
   <tile gid="7256"/>
   <tile gid="7226"/>
   <tile gid="7226"/>
   <tile gid="7226"/>
   <tile gid="7226"/>
   <tile gid="7196"/>
   <tile gid="7196"/>
   <tile gid="7166"/>
   <tile gid="7166"/>
   <tile gid="7166"/>
   <tile gid="7166"/>
   <tile gid="7166"/>
   <tile gid="7166"/>
   <tile gid="7166"/>
   <tile gid="7136"/>
   <tile gid="7136"/>
   <tile gid="7136"/>
   <tile gid="7136"/>
   <tile gid="7136"/>
   <tile gid="7136"/>
   <tile gid="7136"/>
   <tile gid="7136"/>
   <tile gid="7136"/>
   <tile gid="7136"/>
   <tile gid="7136"/>
   <tile gid="7136"/>
   <tile gid="7136"/>
   <tile gid="7136"/>
   <tile gid="7136"/>
   <tile gid="7136"/>
   <tile gid="7136"/>
   <tile gid="7136"/>
   <tile gid="7136"/>
   <tile gid="7136"/>
   <tile gid="7136"/>
   <tile gid="7136"/>
   <tile gid="7136"/>
   <tile gid="7136"/>
   <tile gid="7136"/>
   <tile gid="7136"/>
   <tile gid="7136"/>
  </data>
 </layer>
 <layer id="75" name="Background Fog" width="43" height="21">
  <properties>
   <property name="Draw" type="bool" value="true"/>
  </properties>
  <data>
   <tile/>
   <tile/>
   <tile/>
   <tile/>
   <tile/>
   <tile/>
   <tile/>
   <tile/>
   <tile/>
   <tile/>
   <tile/>
   <tile/>
   <tile/>
   <tile/>
   <tile/>
   <tile/>
   <tile/>
   <tile/>
   <tile/>
   <tile/>
   <tile/>
   <tile/>
   <tile/>
   <tile/>
   <tile/>
   <tile/>
   <tile/>
   <tile/>
   <tile/>
   <tile/>
   <tile/>
   <tile/>
   <tile/>
   <tile/>
   <tile/>
   <tile/>
   <tile/>
   <tile gid="3735"/>
   <tile gid="3736"/>
   <tile gid="3737"/>
   <tile gid="3738"/>
   <tile gid="3739"/>
   <tile gid="3740"/>
   <tile gid="3471"/>
   <tile gid="3472"/>
   <tile gid="3473"/>
   <tile gid="3474"/>
   <tile gid="3475"/>
   <tile gid="3476"/>
   <tile gid="3477"/>
   <tile gid="3478"/>
   <tile gid="3479"/>
   <tile gid="3480"/>
   <tile gid="3481"/>
   <tile gid="3482"/>
   <tile gid="3483"/>
   <tile gid="3484"/>
   <tile gid="3485"/>
   <tile gid="3486"/>
   <tile gid="3487"/>
   <tile gid="3488"/>
   <tile gid="3489"/>
   <tile gid="3490"/>
   <tile gid="3491"/>
   <tile gid="3492"/>
   <tile gid="3493"/>
   <tile gid="3494"/>
   <tile/>
   <tile/>
   <tile/>
   <tile/>
   <tile/>
   <tile/>
   <tile/>
   <tile/>
   <tile/>
   <tile/>
   <tile/>
   <tile/>
   <tile/>
   <tile gid="3765"/>
   <tile gid="3766"/>
   <tile gid="3767"/>
   <tile gid="3768"/>
   <tile gid="3769"/>
   <tile gid="3770"/>
   <tile gid="3501"/>
   <tile gid="3502"/>
   <tile gid="3503"/>
   <tile gid="3504"/>
   <tile gid="3505"/>
   <tile gid="3506"/>
   <tile gid="3507"/>
   <tile gid="3508"/>
   <tile gid="3509"/>
   <tile gid="3510"/>
   <tile gid="3511"/>
   <tile gid="3512"/>
   <tile gid="3513"/>
   <tile gid="3514"/>
   <tile gid="3515"/>
   <tile gid="3516"/>
   <tile gid="3517"/>
   <tile gid="3518"/>
   <tile gid="3519"/>
   <tile gid="3520"/>
   <tile gid="3521"/>
   <tile gid="3522"/>
   <tile gid="3523"/>
   <tile gid="3524"/>
   <tile/>
   <tile/>
   <tile/>
   <tile/>
   <tile/>
   <tile/>
   <tile/>
   <tile/>
   <tile/>
   <tile/>
   <tile/>
   <tile/>
   <tile/>
   <tile gid="3795"/>
   <tile gid="3796"/>
   <tile gid="3797"/>
   <tile gid="3798"/>
   <tile gid="3799"/>
   <tile gid="3800"/>
   <tile gid="3531"/>
   <tile gid="3532"/>
   <tile gid="3533"/>
   <tile gid="3534"/>
   <tile gid="3535"/>
   <tile gid="3536"/>
   <tile gid="3537"/>
   <tile gid="3538"/>
   <tile gid="3539"/>
   <tile gid="3540"/>
   <tile gid="3541"/>
   <tile gid="3542"/>
   <tile gid="3543"/>
   <tile gid="3544"/>
   <tile gid="3545"/>
   <tile gid="3546"/>
   <tile gid="3547"/>
   <tile gid="3548"/>
   <tile gid="3549"/>
   <tile gid="3550"/>
   <tile gid="3551"/>
   <tile gid="3552"/>
   <tile gid="3553"/>
   <tile gid="3554"/>
   <tile/>
   <tile/>
   <tile/>
   <tile/>
   <tile/>
   <tile/>
   <tile/>
   <tile/>
   <tile/>
   <tile/>
   <tile/>
   <tile/>
   <tile/>
   <tile gid="3825"/>
   <tile gid="3826"/>
   <tile gid="3827"/>
   <tile gid="3828"/>
   <tile gid="3829"/>
   <tile gid="3830"/>
   <tile gid="3561"/>
   <tile gid="3562"/>
   <tile gid="3563"/>
   <tile gid="3564"/>
   <tile gid="3565"/>
   <tile gid="3566"/>
   <tile gid="3567"/>
   <tile gid="3568"/>
   <tile gid="3569"/>
   <tile gid="3570"/>
   <tile gid="3571"/>
   <tile gid="3572"/>
   <tile gid="3573"/>
   <tile gid="3574"/>
   <tile gid="3575"/>
   <tile gid="3576"/>
   <tile gid="3577"/>
   <tile gid="3578"/>
   <tile gid="3579"/>
   <tile gid="3580"/>
   <tile gid="3581"/>
   <tile gid="3582"/>
   <tile gid="3583"/>
   <tile gid="3584"/>
   <tile/>
   <tile/>
   <tile/>
   <tile/>
   <tile/>
   <tile/>
   <tile/>
   <tile/>
   <tile/>
   <tile/>
   <tile/>
   <tile/>
   <tile/>
   <tile gid="3855"/>
   <tile gid="3856"/>
   <tile gid="3857"/>
   <tile gid="3858"/>
   <tile gid="3859"/>
   <tile gid="3860"/>
   <tile gid="3591"/>
   <tile gid="3592"/>
   <tile gid="3593"/>
   <tile gid="3594"/>
   <tile gid="3595"/>
   <tile gid="3596"/>
   <tile gid="3597"/>
   <tile gid="3598"/>
   <tile gid="3599"/>
   <tile gid="3600"/>
   <tile gid="3601"/>
   <tile gid="3602"/>
   <tile gid="3603"/>
   <tile gid="3604"/>
   <tile gid="3605"/>
   <tile gid="3606"/>
   <tile gid="3607"/>
   <tile gid="3608"/>
   <tile gid="3609"/>
   <tile gid="3610"/>
   <tile gid="3611"/>
   <tile gid="3612"/>
   <tile gid="3613"/>
   <tile gid="3614"/>
   <tile/>
   <tile/>
   <tile/>
   <tile/>
   <tile/>
   <tile/>
   <tile/>
   <tile/>
   <tile/>
   <tile/>
   <tile/>
   <tile/>
   <tile/>
   <tile gid="3885"/>
   <tile gid="3886"/>
   <tile gid="3887"/>
   <tile gid="3888"/>
   <tile gid="3889"/>
   <tile gid="3890"/>
   <tile gid="3621"/>
   <tile gid="3622"/>
   <tile gid="3623"/>
   <tile gid="3624"/>
   <tile gid="3625"/>
   <tile gid="3626"/>
   <tile gid="3627"/>
   <tile gid="3628"/>
   <tile gid="3629"/>
   <tile gid="3630"/>
   <tile gid="3631"/>
   <tile gid="3632"/>
   <tile gid="3633"/>
   <tile gid="3634"/>
   <tile gid="3635"/>
   <tile gid="3636"/>
   <tile gid="3637"/>
   <tile gid="3638"/>
   <tile gid="3639"/>
   <tile gid="3640"/>
   <tile gid="3641"/>
   <tile gid="3642"/>
   <tile gid="3643"/>
   <tile gid="3644"/>
   <tile/>
   <tile/>
   <tile/>
   <tile/>
   <tile/>
   <tile/>
   <tile/>
   <tile/>
   <tile/>
   <tile/>
   <tile/>
   <tile/>
   <tile/>
   <tile gid="3915"/>
   <tile gid="3916"/>
   <tile gid="3917"/>
   <tile gid="3918"/>
   <tile gid="3919"/>
   <tile gid="3920"/>
   <tile gid="3651"/>
   <tile gid="3652"/>
   <tile gid="3653"/>
   <tile gid="3654"/>
   <tile gid="3655"/>
   <tile gid="3656"/>
   <tile gid="3657"/>
   <tile gid="3658"/>
   <tile gid="3659"/>
   <tile gid="3660"/>
   <tile gid="3661"/>
   <tile gid="3662"/>
   <tile gid="3663"/>
   <tile gid="3664"/>
   <tile gid="3665"/>
   <tile gid="3666"/>
   <tile gid="3667"/>
   <tile gid="3668"/>
   <tile gid="3669"/>
   <tile gid="3670"/>
   <tile gid="3671"/>
   <tile gid="3672"/>
   <tile gid="3673"/>
   <tile gid="3674"/>
   <tile/>
   <tile/>
   <tile/>
   <tile/>
   <tile/>
   <tile/>
   <tile/>
   <tile/>
   <tile/>
   <tile/>
   <tile/>
   <tile/>
   <tile/>
   <tile/>
   <tile/>
   <tile/>
   <tile/>
   <tile/>
   <tile/>
   <tile gid="3681"/>
   <tile gid="3682"/>
   <tile gid="3683"/>
   <tile gid="3684"/>
   <tile gid="3685"/>
   <tile gid="3686"/>
   <tile gid="3687"/>
   <tile gid="3688"/>
   <tile gid="3689"/>
   <tile gid="3690"/>
   <tile gid="3691"/>
   <tile gid="3692"/>
   <tile gid="3693"/>
   <tile gid="3694"/>
   <tile gid="3695"/>
   <tile gid="3696"/>
   <tile gid="3697"/>
   <tile gid="3698"/>
   <tile gid="3699"/>
   <tile gid="3700"/>
   <tile gid="3701"/>
   <tile gid="3702"/>
   <tile gid="3703"/>
   <tile gid="3704"/>
   <tile/>
   <tile/>
   <tile/>
   <tile/>
   <tile/>
   <tile/>
   <tile/>
   <tile/>
   <tile/>
   <tile/>
   <tile/>
   <tile/>
   <tile/>
   <tile/>
   <tile/>
   <tile/>
   <tile/>
   <tile/>
   <tile/>
   <tile/>
   <tile/>
   <tile/>
   <tile/>
   <tile/>
   <tile/>
   <tile/>
   <tile/>
   <tile/>
   <tile/>
   <tile/>
   <tile/>
   <tile/>
   <tile/>
   <tile/>
   <tile/>
   <tile/>
   <tile/>
   <tile/>
   <tile/>
   <tile/>
   <tile/>
   <tile/>
   <tile/>
   <tile/>
   <tile/>
   <tile/>
   <tile/>
   <tile/>
   <tile/>
   <tile/>
   <tile/>
   <tile/>
   <tile/>
   <tile/>
   <tile/>
   <tile/>
   <tile/>
   <tile/>
   <tile/>
   <tile/>
   <tile/>
   <tile/>
   <tile/>
   <tile/>
   <tile/>
   <tile/>
   <tile/>
   <tile/>
   <tile/>
   <tile/>
   <tile/>
   <tile/>
   <tile/>
   <tile/>
   <tile/>
   <tile/>
   <tile/>
   <tile/>
   <tile/>
   <tile/>
   <tile/>
   <tile/>
   <tile/>
   <tile/>
   <tile/>
   <tile/>
   <tile/>
   <tile/>
   <tile/>
   <tile/>
   <tile/>
   <tile/>
   <tile/>
   <tile/>
   <tile/>
   <tile/>
   <tile/>
   <tile/>
   <tile/>
   <tile/>
   <tile/>
   <tile/>
   <tile/>
   <tile/>
   <tile/>
   <tile/>
   <tile/>
   <tile/>
   <tile/>
   <tile/>
   <tile/>
   <tile/>
   <tile/>
   <tile/>
   <tile/>
   <tile/>
   <tile/>
   <tile/>
   <tile/>
   <tile/>
   <tile gid="3735"/>
   <tile gid="3736"/>
   <tile gid="3737"/>
   <tile gid="3738"/>
   <tile gid="3739"/>
   <tile gid="3740"/>
   <tile gid="3741"/>
   <tile gid="3742"/>
   <tile gid="3743"/>
   <tile gid="3744"/>
   <tile gid="3745"/>
   <tile gid="3746"/>
   <tile gid="3747"/>
   <tile gid="3748"/>
   <tile gid="3749"/>
   <tile gid="3750"/>
   <tile gid="3751"/>
   <tile gid="3752"/>
   <tile gid="3753"/>
   <tile gid="3754"/>
   <tile gid="3755"/>
   <tile gid="3756"/>
   <tile gid="3757"/>
   <tile gid="3758"/>
   <tile gid="3759"/>
   <tile gid="3760"/>
   <tile gid="3761"/>
   <tile gid="3762"/>
   <tile/>
   <tile/>
   <tile/>
   <tile/>
   <tile/>
   <tile/>
   <tile/>
   <tile/>
   <tile/>
   <tile/>
   <tile/>
   <tile/>
   <tile/>
   <tile/>
   <tile/>
   <tile gid="3765"/>
   <tile gid="3766"/>
   <tile gid="3767"/>
   <tile gid="3768"/>
   <tile gid="3769"/>
   <tile gid="3770"/>
   <tile gid="3771"/>
   <tile gid="3772"/>
   <tile gid="3773"/>
   <tile gid="3774"/>
   <tile gid="3775"/>
   <tile gid="3776"/>
   <tile gid="3777"/>
   <tile gid="3778"/>
   <tile gid="3779"/>
   <tile gid="3780"/>
   <tile gid="3781"/>
   <tile gid="3782"/>
   <tile gid="3783"/>
   <tile gid="3784"/>
   <tile gid="3785"/>
   <tile gid="3786"/>
   <tile gid="3787"/>
   <tile gid="3788"/>
   <tile gid="3789"/>
   <tile gid="3790"/>
   <tile gid="3791"/>
   <tile gid="3792"/>
   <tile/>
   <tile/>
   <tile/>
   <tile/>
   <tile gid="3548"/>
   <tile gid="3549"/>
   <tile gid="3550"/>
   <tile gid="3551"/>
   <tile gid="3552"/>
   <tile gid="3553"/>
   <tile/>
   <tile/>
   <tile/>
   <tile/>
   <tile/>
   <tile gid="3795"/>
   <tile gid="3796"/>
   <tile gid="3797"/>
   <tile gid="3798"/>
   <tile gid="3799"/>
   <tile gid="3800"/>
   <tile gid="3801"/>
   <tile gid="3802"/>
   <tile gid="3803"/>
   <tile gid="3804"/>
   <tile gid="3805"/>
   <tile gid="3806"/>
   <tile gid="3807"/>
   <tile gid="3808"/>
   <tile gid="3809"/>
   <tile gid="3810"/>
   <tile gid="3811"/>
   <tile gid="3812"/>
   <tile gid="3813"/>
   <tile gid="3814"/>
   <tile gid="3815"/>
   <tile gid="3816"/>
   <tile gid="3817"/>
   <tile gid="3818"/>
   <tile gid="3819"/>
   <tile gid="3820"/>
   <tile gid="3821"/>
   <tile gid="3822"/>
   <tile/>
   <tile/>
   <tile/>
   <tile/>
   <tile gid="3578"/>
   <tile gid="3579"/>
   <tile gid="3580"/>
   <tile gid="3581"/>
   <tile gid="3582"/>
   <tile gid="3583"/>
   <tile/>
   <tile/>
   <tile/>
   <tile/>
   <tile/>
   <tile gid="3825"/>
   <tile gid="3826"/>
   <tile gid="3827"/>
   <tile gid="3828"/>
   <tile gid="3829"/>
   <tile gid="3830"/>
   <tile gid="3831"/>
   <tile gid="3832"/>
   <tile gid="3833"/>
   <tile gid="3834"/>
   <tile gid="3835"/>
   <tile gid="3836"/>
   <tile gid="3837"/>
   <tile gid="3838"/>
   <tile gid="3839"/>
   <tile gid="3840"/>
   <tile gid="3841"/>
   <tile gid="3842"/>
   <tile gid="3843"/>
   <tile gid="3844"/>
   <tile gid="3845"/>
   <tile gid="3846"/>
   <tile gid="3847"/>
   <tile gid="3848"/>
   <tile gid="3849"/>
   <tile gid="3850"/>
   <tile gid="3851"/>
   <tile gid="3852"/>
   <tile/>
   <tile/>
   <tile/>
   <tile/>
   <tile gid="3608"/>
   <tile gid="3609"/>
   <tile gid="3610"/>
   <tile gid="3611"/>
   <tile gid="3612"/>
   <tile gid="3613"/>
   <tile/>
   <tile/>
   <tile/>
   <tile/>
   <tile/>
   <tile gid="3855"/>
   <tile gid="3856"/>
   <tile gid="3857"/>
   <tile gid="3858"/>
   <tile gid="3859"/>
   <tile gid="3860"/>
   <tile gid="3861"/>
   <tile gid="3862"/>
   <tile gid="3863"/>
   <tile gid="3864"/>
   <tile gid="3865"/>
   <tile gid="3866"/>
   <tile gid="3867"/>
   <tile gid="3868"/>
   <tile gid="3869"/>
   <tile gid="3870"/>
   <tile gid="3871"/>
   <tile gid="3872"/>
   <tile gid="3873"/>
   <tile gid="3874"/>
   <tile gid="3875"/>
   <tile gid="3876"/>
   <tile gid="3877"/>
   <tile gid="3878"/>
   <tile gid="3879"/>
   <tile gid="3880"/>
   <tile gid="3881"/>
   <tile gid="3882"/>
   <tile/>
   <tile/>
   <tile/>
   <tile/>
   <tile gid="3638"/>
   <tile gid="3639"/>
   <tile gid="3640"/>
   <tile gid="3641"/>
   <tile gid="3642"/>
   <tile gid="3643"/>
   <tile/>
   <tile/>
   <tile/>
   <tile/>
   <tile/>
   <tile gid="3885"/>
   <tile gid="3886"/>
   <tile gid="3887"/>
   <tile gid="3888"/>
   <tile gid="3889"/>
   <tile gid="3890"/>
   <tile gid="3891"/>
   <tile gid="3892"/>
   <tile gid="3893"/>
   <tile gid="3894"/>
   <tile gid="3895"/>
   <tile gid="3896"/>
   <tile gid="3897"/>
   <tile gid="3898"/>
   <tile gid="3899"/>
   <tile gid="3900"/>
   <tile gid="3901"/>
   <tile gid="3902"/>
   <tile gid="3903"/>
   <tile gid="3904"/>
   <tile gid="3905"/>
   <tile gid="3906"/>
   <tile gid="3907"/>
   <tile gid="3908"/>
   <tile gid="3909"/>
   <tile gid="3910"/>
   <tile gid="3911"/>
   <tile gid="3912"/>
   <tile/>
   <tile/>
   <tile/>
   <tile/>
   <tile gid="3668"/>
   <tile gid="3669"/>
   <tile gid="3670"/>
   <tile gid="3671"/>
   <tile gid="3672"/>
   <tile gid="3673"/>
   <tile/>
   <tile/>
   <tile/>
   <tile/>
   <tile/>
   <tile gid="3915"/>
   <tile gid="3916"/>
   <tile gid="3917"/>
   <tile gid="3918"/>
   <tile gid="3919"/>
   <tile gid="3920"/>
   <tile gid="3921"/>
   <tile gid="3922"/>
   <tile gid="3923"/>
   <tile gid="3924"/>
   <tile gid="3925"/>
   <tile gid="3926"/>
   <tile gid="3927"/>
   <tile gid="3928"/>
   <tile gid="3929"/>
   <tile gid="3930"/>
   <tile gid="3931"/>
   <tile gid="3932"/>
   <tile gid="3933"/>
   <tile gid="3934"/>
   <tile gid="3935"/>
   <tile gid="3936"/>
   <tile gid="3937"/>
   <tile gid="3938"/>
   <tile gid="3939"/>
   <tile gid="3940"/>
   <tile gid="3941"/>
   <tile gid="3942"/>
   <tile/>
   <tile/>
   <tile/>
   <tile/>
   <tile gid="3698"/>
   <tile gid="3699"/>
   <tile gid="3700"/>
   <tile gid="3701"/>
   <tile gid="3702"/>
   <tile gid="3703"/>
   <tile/>
   <tile/>
   <tile/>
   <tile/>
   <tile/>
   <tile/>
   <tile/>
   <tile/>
   <tile/>
   <tile/>
   <tile/>
   <tile/>
   <tile/>
   <tile/>
   <tile/>
   <tile/>
   <tile/>
   <tile/>
   <tile/>
   <tile/>
   <tile/>
   <tile/>
   <tile/>
   <tile/>
   <tile/>
   <tile/>
   <tile/>
   <tile/>
   <tile/>
   <tile/>
   <tile/>
   <tile/>
   <tile/>
   <tile/>
   <tile/>
   <tile/>
   <tile/>
   <tile gid="3698"/>
   <tile gid="3699"/>
   <tile gid="3700"/>
   <tile gid="3701"/>
   <tile gid="3702"/>
   <tile/>
   <tile/>
   <tile/>
   <tile/>
   <tile/>
   <tile/>
   <tile/>
   <tile/>
   <tile/>
   <tile/>
   <tile/>
   <tile/>
   <tile/>
   <tile/>
   <tile/>
   <tile/>
   <tile/>
   <tile/>
   <tile/>
   <tile/>
   <tile/>
   <tile/>
   <tile/>
   <tile/>
   <tile/>
   <tile/>
   <tile/>
   <tile/>
   <tile/>
   <tile/>
   <tile/>
   <tile/>
   <tile/>
   <tile/>
   <tile/>
   <tile/>
   <tile/>
   <tile/>
   <tile/>
   <tile/>
   <tile/>
   <tile/>
   <tile/>
   <tile/>
   <tile/>
   <tile/>
   <tile/>
   <tile/>
   <tile/>
   <tile/>
   <tile/>
   <tile/>
   <tile/>
   <tile/>
   <tile/>
   <tile/>
   <tile/>
   <tile/>
   <tile/>
   <tile/>
   <tile/>
   <tile/>
   <tile/>
   <tile/>
   <tile/>
   <tile/>
   <tile/>
   <tile/>
   <tile/>
   <tile/>
   <tile/>
   <tile/>
   <tile/>
   <tile/>
   <tile/>
   <tile/>
   <tile/>
  </data>
 </layer>
 <layer id="76" name="Fourth Layer" width="43" height="21">
  <properties>
   <property name="Draw" type="bool" value="true"/>
  </properties>
  <data>
   <tile/>
   <tile/>
   <tile/>
   <tile/>
   <tile/>
   <tile/>
   <tile/>
   <tile/>
   <tile/>
   <tile/>
   <tile/>
   <tile/>
   <tile/>
   <tile/>
   <tile/>
   <tile/>
   <tile/>
   <tile/>
   <tile/>
   <tile/>
   <tile/>
   <tile/>
   <tile/>
   <tile/>
   <tile/>
   <tile/>
   <tile/>
   <tile/>
   <tile/>
   <tile/>
   <tile/>
   <tile/>
   <tile/>
   <tile/>
   <tile/>
   <tile/>
   <tile/>
   <tile/>
   <tile/>
   <tile/>
   <tile/>
   <tile/>
   <tile/>
   <tile/>
   <tile/>
   <tile/>
   <tile/>
   <tile/>
   <tile/>
   <tile/>
   <tile/>
   <tile/>
   <tile/>
   <tile/>
   <tile/>
   <tile/>
   <tile/>
   <tile/>
   <tile/>
   <tile/>
   <tile/>
   <tile/>
   <tile/>
   <tile/>
   <tile/>
   <tile/>
   <tile/>
   <tile/>
   <tile/>
   <tile/>
   <tile/>
   <tile/>
   <tile/>
   <tile/>
   <tile/>
   <tile/>
   <tile/>
   <tile/>
   <tile/>
   <tile/>
   <tile/>
   <tile/>
   <tile/>
   <tile/>
   <tile/>
   <tile/>
   <tile/>
   <tile/>
   <tile/>
   <tile/>
   <tile/>
   <tile/>
   <tile/>
   <tile/>
   <tile gid="3221232038"/>
   <tile gid="3221232037"/>
   <tile gid="3221232036"/>
   <tile gid="3221232035"/>
   <tile gid="3221232034"/>
   <tile/>
   <tile gid="3221232296"/>
   <tile gid="3221232295"/>
   <tile gid="3221232294"/>
   <tile gid="3221232293"/>
   <tile gid="3221232292"/>
   <tile gid="3221232291"/>
   <tile/>
   <tile/>
   <tile/>
   <tile/>
   <tile/>
   <tile/>
   <tile/>
   <tile/>
   <tile/>
   <tile/>
   <tile/>
   <tile/>
   <tile/>
   <tile/>
   <tile/>
   <tile/>
   <tile/>
   <tile gid="1610619165"/>
   <tile gid="1610619195"/>
   <tile gid="1610619225"/>
   <tile gid="1610619255"/>
   <tile gid="1610619285"/>
   <tile gid="1610619315"/>
   <tile/>
   <tile/>
   <tile/>
   <tile/>
   <tile/>
   <tile/>
   <tile/>
   <tile/>
   <tile gid="3221232008"/>
   <tile gid="3221232007"/>
   <tile gid="3221232006"/>
   <tile gid="3221232005"/>
   <tile gid="3221232004"/>
   <tile/>
   <tile gid="3221232266"/>
   <tile gid="3221232265"/>
   <tile gid="3221232264"/>
   <tile gid="3221232263"/>
   <tile gid="3221232262"/>
   <tile gid="3221232261"/>
   <tile/>
   <tile/>
   <tile/>
   <tile/>
   <tile/>
   <tile/>
   <tile/>
   <tile/>
   <tile/>
   <tile/>
   <tile/>
   <tile/>
   <tile/>
   <tile/>
   <tile/>
   <tile/>
   <tile/>
   <tile gid="1610619164"/>
   <tile gid="1610619194"/>
   <tile gid="1610619224"/>
   <tile gid="1610619254"/>
   <tile gid="1610619284"/>
   <tile gid="1610619314"/>
   <tile/>
   <tile/>
   <tile/>
   <tile/>
   <tile/>
   <tile/>
   <tile/>
   <tile/>
   <tile gid="3221231978"/>
   <tile gid="3221231977"/>
   <tile gid="3221231976"/>
   <tile gid="3221231975"/>
   <tile gid="3221231974"/>
   <tile/>
   <tile gid="3221232236"/>
   <tile gid="3221232235"/>
   <tile gid="3221232234"/>
   <tile gid="3221232233"/>
   <tile gid="3221232232"/>
   <tile gid="3221232231"/>
   <tile/>
   <tile/>
   <tile/>
   <tile/>
   <tile/>
   <tile/>
   <tile/>
   <tile/>
   <tile/>
   <tile/>
   <tile/>
   <tile/>
   <tile/>
   <tile/>
   <tile/>
   <tile/>
   <tile/>
   <tile gid="1610619163"/>
   <tile gid="1610619193"/>
   <tile gid="1610619223"/>
   <tile gid="1610619253"/>
   <tile gid="1610619283"/>
   <tile gid="1610619313"/>
   <tile/>
   <tile/>
   <tile/>
   <tile/>
   <tile/>
   <tile/>
   <tile/>
   <tile/>
   <tile gid="3221231948"/>
   <tile gid="3221231947"/>
   <tile gid="3221231946"/>
   <tile gid="3221231945"/>
   <tile gid="3221231944"/>
   <tile/>
   <tile gid="3221232206"/>
   <tile gid="3221232205"/>
   <tile gid="3221232204"/>
   <tile gid="3221232203"/>
   <tile gid="3221232202"/>
   <tile gid="3221232201"/>
   <tile/>
   <tile/>
   <tile/>
   <tile/>
   <tile/>
   <tile/>
   <tile/>
   <tile/>
   <tile/>
   <tile/>
   <tile/>
   <tile/>
   <tile/>
   <tile/>
   <tile/>
   <tile/>
   <tile/>
   <tile gid="1610619162"/>
   <tile gid="1610619192"/>
   <tile gid="1610619222"/>
   <tile gid="1610619252"/>
   <tile gid="1610619282"/>
   <tile gid="1610619312"/>
   <tile/>
   <tile/>
   <tile/>
   <tile/>
   <tile/>
   <tile/>
   <tile/>
   <tile/>
   <tile gid="3221231918"/>
   <tile gid="3221231917"/>
   <tile gid="3221231916"/>
   <tile gid="3221231915"/>
   <tile gid="3221231914"/>
   <tile/>
   <tile gid="3221232176"/>
   <tile gid="3221232175"/>
   <tile gid="3221232174"/>
   <tile gid="3221232173"/>
   <tile gid="3221232172"/>
   <tile gid="3221232171"/>
   <tile/>
   <tile/>
   <tile/>
   <tile/>
   <tile/>
   <tile/>
   <tile/>
   <tile/>
   <tile/>
   <tile/>
   <tile/>
   <tile/>
   <tile/>
   <tile/>
   <tile/>
   <tile/>
   <tile/>
   <tile/>
   <tile/>
   <tile/>
   <tile/>
   <tile/>
   <tile/>
   <tile/>
   <tile/>
   <tile/>
   <tile/>
   <tile/>
   <tile/>
   <tile/>
   <tile/>
   <tile gid="3221231888"/>
   <tile gid="3221231887"/>
   <tile gid="3221231886"/>
   <tile gid="3221231885"/>
   <tile gid="3221231884"/>
   <tile/>
   <tile/>
   <tile/>
   <tile/>
   <tile/>
   <tile/>
   <tile/>
   <tile/>
   <tile/>
   <tile/>
   <tile/>
   <tile/>
   <tile/>
   <tile/>
   <tile/>
   <tile/>
   <tile/>
   <tile/>
   <tile/>
   <tile/>
   <tile/>
   <tile/>
   <tile/>
   <tile/>
   <tile/>
   <tile/>
   <tile/>
   <tile/>
   <tile/>
   <tile/>
   <tile/>
   <tile/>
   <tile/>
   <tile/>
   <tile/>
   <tile/>
   <tile/>
   <tile/>
   <tile gid="3221231858"/>
   <tile gid="3221231857"/>
   <tile gid="3221231856"/>
   <tile gid="3221231855"/>
   <tile gid="3221231854"/>
   <tile/>
   <tile/>
   <tile/>
   <tile/>
   <tile/>
   <tile/>
   <tile/>
   <tile/>
   <tile/>
   <tile/>
   <tile/>
   <tile/>
   <tile/>
   <tile/>
   <tile/>
   <tile/>
   <tile/>
   <tile/>
   <tile/>
   <tile/>
   <tile/>
   <tile/>
   <tile/>
   <tile/>
   <tile/>
   <tile/>
   <tile/>
   <tile/>
   <tile/>
   <tile/>
   <tile/>
   <tile/>
   <tile/>
   <tile/>
   <tile/>
   <tile/>
   <tile/>
   <tile/>
   <tile/>
   <tile/>
   <tile/>
   <tile/>
   <tile/>
   <tile/>
   <tile/>
   <tile/>
   <tile/>
   <tile/>
   <tile/>
   <tile/>
   <tile/>
   <tile/>
   <tile/>
   <tile/>
   <tile/>
   <tile/>
   <tile/>
   <tile/>
   <tile/>
   <tile/>
   <tile/>
   <tile/>
   <tile/>
   <tile/>
   <tile/>
   <tile/>
   <tile/>
   <tile/>
   <tile/>
   <tile/>
   <tile/>
   <tile/>
   <tile/>
   <tile/>
   <tile/>
   <tile/>
   <tile/>
   <tile/>
   <tile/>
   <tile/>
   <tile/>
   <tile/>
   <tile/>
   <tile/>
   <tile/>
   <tile/>
   <tile/>
   <tile/>
   <tile/>
   <tile/>
   <tile/>
   <tile/>
   <tile/>
   <tile/>
   <tile/>
   <tile/>
   <tile/>
   <tile/>
   <tile/>
   <tile/>
   <tile/>
   <tile/>
   <tile/>
   <tile/>
   <tile/>
   <tile/>
   <tile/>
   <tile/>
   <tile/>
   <tile/>
   <tile/>
   <tile/>
   <tile/>
   <tile/>
   <tile/>
   <tile/>
   <tile/>
   <tile/>
   <tile/>
   <tile/>
   <tile/>
   <tile/>
   <tile/>
   <tile/>
   <tile/>
   <tile/>
   <tile/>
   <tile/>
   <tile/>
   <tile/>
   <tile/>
   <tile/>
   <tile/>
   <tile/>
   <tile/>
   <tile/>
   <tile/>
   <tile/>
   <tile/>
   <tile/>
   <tile/>
   <tile/>
   <tile/>
   <tile/>
   <tile/>
   <tile/>
   <tile/>
   <tile/>
   <tile/>
   <tile/>
   <tile/>
   <tile/>
   <tile/>
   <tile/>
   <tile/>
   <tile/>
   <tile/>
   <tile/>
   <tile/>
   <tile/>
   <tile/>
   <tile/>
   <tile/>
   <tile gid="6382"/>
   <tile gid="6383"/>
   <tile gid="6384"/>
   <tile gid="6385"/>
   <tile gid="6386"/>
   <tile/>
   <tile/>
   <tile/>
   <tile/>
   <tile/>
   <tile/>
   <tile/>
   <tile/>
   <tile/>
   <tile/>
   <tile/>
   <tile/>
   <tile/>
   <tile/>
   <tile/>
   <tile/>
   <tile/>
   <tile/>
   <tile/>
   <tile/>
   <tile/>
   <tile/>
   <tile/>
   <tile/>
   <tile/>
   <tile/>
   <tile/>
   <tile/>
   <tile/>
   <tile/>
   <tile/>
   <tile/>
   <tile/>
   <tile/>
   <tile/>
   <tile/>
   <tile/>
   <tile/>
   <tile gid="6412"/>
   <tile gid="6413"/>
   <tile gid="6414"/>
   <tile gid="6415"/>
   <tile gid="6416"/>
   <tile/>
   <tile/>
   <tile/>
   <tile/>
   <tile/>
   <tile/>
   <tile/>
   <tile/>
   <tile/>
   <tile/>
   <tile/>
   <tile/>
   <tile/>
   <tile/>
   <tile/>
   <tile/>
   <tile/>
   <tile/>
   <tile/>
   <tile/>
   <tile/>
   <tile/>
   <tile/>
   <tile/>
   <tile/>
   <tile/>
   <tile/>
   <tile/>
   <tile/>
   <tile/>
   <tile/>
   <tile/>
   <tile/>
   <tile/>
   <tile/>
   <tile/>
   <tile/>
   <tile/>
   <tile gid="6442"/>
   <tile gid="6443"/>
   <tile gid="6444"/>
   <tile gid="6445"/>
   <tile gid="6446"/>
   <tile/>
   <tile/>
   <tile/>
   <tile/>
   <tile/>
   <tile/>
   <tile/>
   <tile/>
   <tile/>
   <tile/>
   <tile/>
   <tile/>
   <tile/>
   <tile/>
   <tile/>
   <tile/>
   <tile/>
   <tile/>
   <tile/>
   <tile/>
   <tile/>
   <tile/>
   <tile/>
   <tile/>
   <tile/>
   <tile/>
   <tile/>
   <tile gid="6447"/>
   <tile gid="6448"/>
   <tile gid="6449"/>
   <tile gid="6450"/>
   <tile gid="6451"/>
   <tile gid="6452"/>
   <tile gid="6453"/>
   <tile/>
   <tile/>
   <tile/>
   <tile/>
   <tile gid="6472"/>
   <tile gid="6473"/>
   <tile gid="6474"/>
   <tile gid="6475"/>
   <tile gid="6476"/>
   <tile/>
   <tile/>
   <tile/>
   <tile/>
   <tile/>
   <tile/>
   <tile/>
   <tile/>
   <tile/>
   <tile/>
   <tile/>
   <tile/>
   <tile/>
   <tile/>
   <tile/>
   <tile/>
   <tile/>
   <tile/>
   <tile/>
   <tile/>
   <tile/>
   <tile/>
   <tile/>
   <tile/>
   <tile/>
   <tile/>
   <tile/>
   <tile gid="6477"/>
   <tile gid="6478"/>
   <tile gid="6479"/>
   <tile gid="6480"/>
   <tile gid="6481"/>
   <tile gid="6482"/>
   <tile gid="6483"/>
   <tile/>
   <tile/>
   <tile/>
   <tile/>
   <tile gid="6502"/>
   <tile gid="6503"/>
   <tile gid="6504"/>
   <tile gid="6505"/>
   <tile gid="6506"/>
   <tile/>
   <tile/>
   <tile/>
   <tile/>
   <tile/>
   <tile/>
   <tile/>
   <tile/>
   <tile/>
   <tile/>
   <tile/>
   <tile/>
   <tile/>
   <tile/>
   <tile/>
   <tile/>
   <tile/>
   <tile/>
   <tile/>
   <tile/>
   <tile/>
   <tile/>
   <tile/>
   <tile/>
   <tile/>
   <tile/>
   <tile/>
   <tile gid="6507"/>
   <tile gid="6508"/>
   <tile gid="6509"/>
   <tile gid="6510"/>
   <tile gid="6511"/>
   <tile gid="6512"/>
   <tile gid="6513"/>
   <tile/>
   <tile/>
   <tile/>
   <tile/>
   <tile gid="6532"/>
   <tile gid="6533"/>
   <tile gid="6534"/>
   <tile gid="6535"/>
   <tile gid="6536"/>
   <tile/>
   <tile/>
   <tile/>
   <tile/>
   <tile/>
   <tile/>
   <tile/>
   <tile/>
   <tile/>
   <tile/>
   <tile/>
   <tile/>
   <tile/>
   <tile/>
   <tile/>
   <tile/>
   <tile/>
   <tile/>
   <tile/>
   <tile/>
   <tile/>
   <tile/>
   <tile/>
   <tile/>
   <tile/>
   <tile/>
   <tile/>
   <tile gid="6537"/>
   <tile gid="6538"/>
   <tile gid="6539"/>
   <tile gid="6540"/>
   <tile gid="6541"/>
   <tile gid="6542"/>
   <tile gid="6543"/>
   <tile/>
   <tile/>
   <tile/>
   <tile/>
   <tile gid="6562"/>
   <tile gid="6563"/>
   <tile gid="6564"/>
   <tile gid="6565"/>
   <tile gid="6566"/>
   <tile/>
   <tile/>
   <tile/>
   <tile/>
   <tile/>
   <tile/>
   <tile/>
   <tile/>
   <tile/>
   <tile/>
   <tile/>
   <tile/>
   <tile/>
   <tile/>
   <tile/>
   <tile/>
   <tile/>
   <tile/>
   <tile/>
   <tile/>
   <tile/>
   <tile/>
   <tile/>
   <tile/>
   <tile/>
   <tile/>
   <tile/>
   <tile gid="6567"/>
   <tile gid="6568"/>
   <tile gid="6569"/>
   <tile gid="6570"/>
   <tile gid="6571"/>
   <tile gid="6572"/>
   <tile gid="6573"/>
   <tile/>
   <tile/>
   <tile/>
   <tile/>
   <tile/>
   <tile/>
   <tile/>
   <tile/>
   <tile/>
   <tile/>
   <tile/>
   <tile/>
   <tile/>
   <tile/>
   <tile/>
   <tile/>
   <tile/>
   <tile/>
   <tile/>
   <tile/>
   <tile/>
   <tile/>
   <tile/>
   <tile/>
   <tile/>
   <tile/>
   <tile/>
   <tile/>
   <tile/>
   <tile/>
   <tile/>
   <tile/>
   <tile/>
   <tile/>
   <tile/>
   <tile/>
   <tile/>
   <tile/>
   <tile/>
   <tile/>
   <tile/>
   <tile/>
   <tile/>
   <tile/>
   <tile/>
   <tile/>
   <tile/>
   <tile/>
   <tile/>
   <tile/>
   <tile/>
   <tile/>
   <tile/>
   <tile/>
   <tile/>
   <tile/>
   <tile/>
   <tile/>
   <tile/>
   <tile/>
   <tile/>
   <tile/>
   <tile/>
   <tile/>
   <tile/>
   <tile/>
   <tile/>
   <tile/>
   <tile/>
   <tile/>
   <tile/>
   <tile/>
   <tile/>
   <tile/>
   <tile/>
   <tile/>
   <tile/>
   <tile/>
   <tile/>
   <tile/>
   <tile/>
   <tile/>
   <tile/>
   <tile/>
   <tile/>
   <tile/>
  </data>
 </layer>
 <layer id="48" name="Rocks Third Layer" width="43" height="21" parallaxx="0" parallaxy="0">
  <properties>
   <property name="Draw" type="bool" value="true"/>
  </properties>
  <data>
   <tile/>
   <tile/>
   <tile/>
   <tile/>
   <tile/>
   <tile/>
   <tile/>
   <tile/>
   <tile/>
   <tile/>
   <tile/>
   <tile/>
   <tile/>
   <tile/>
   <tile/>
   <tile/>
   <tile/>
   <tile/>
   <tile/>
   <tile/>
   <tile/>
   <tile/>
   <tile/>
   <tile/>
   <tile/>
   <tile/>
   <tile/>
   <tile/>
   <tile/>
   <tile/>
   <tile/>
   <tile/>
   <tile/>
   <tile/>
   <tile/>
   <tile/>
   <tile/>
   <tile/>
   <tile/>
   <tile/>
   <tile/>
   <tile/>
   <tile/>
   <tile/>
   <tile/>
   <tile/>
   <tile/>
   <tile/>
   <tile/>
   <tile/>
   <tile/>
   <tile/>
   <tile/>
   <tile/>
   <tile/>
   <tile/>
   <tile/>
   <tile/>
   <tile/>
   <tile/>
   <tile/>
   <tile/>
   <tile/>
   <tile/>
   <tile/>
   <tile/>
   <tile/>
   <tile/>
   <tile/>
   <tile/>
   <tile/>
   <tile/>
   <tile/>
   <tile/>
   <tile/>
   <tile/>
   <tile/>
   <tile/>
   <tile/>
   <tile/>
   <tile/>
   <tile/>
   <tile/>
   <tile/>
   <tile/>
   <tile/>
   <tile/>
   <tile/>
   <tile/>
   <tile/>
   <tile/>
   <tile/>
   <tile/>
   <tile/>
   <tile/>
   <tile/>
   <tile/>
   <tile/>
   <tile/>
   <tile/>
   <tile/>
   <tile/>
   <tile/>
   <tile/>
   <tile/>
   <tile/>
   <tile/>
   <tile/>
   <tile/>
   <tile/>
   <tile/>
   <tile/>
   <tile/>
   <tile/>
   <tile/>
   <tile/>
   <tile/>
   <tile/>
   <tile/>
   <tile/>
   <tile/>
   <tile/>
   <tile/>
   <tile/>
   <tile/>
   <tile/>
   <tile/>
   <tile/>
   <tile/>
   <tile/>
   <tile/>
   <tile gid="3221231516"/>
   <tile gid="3221231515"/>
   <tile gid="3221231514"/>
   <tile gid="3221231513"/>
   <tile gid="3221231512"/>
   <tile gid="3221231511"/>
   <tile gid="3221231510"/>
   <tile gid="3221231509"/>
   <tile gid="6080"/>
   <tile gid="6081"/>
   <tile gid="6082"/>
   <tile gid="6083"/>
   <tile gid="6084"/>
   <tile gid="6085"/>
   <tile gid="6086"/>
   <tile/>
   <tile/>
   <tile/>
   <tile/>
   <tile/>
   <tile/>
   <tile/>
   <tile/>
   <tile/>
   <tile/>
   <tile/>
   <tile/>
   <tile gid="3221231498"/>
   <tile gid="3221231497"/>
   <tile gid="3221231496"/>
   <tile gid="3221231495"/>
   <tile gid="3221231494"/>
   <tile gid="3221231493"/>
   <tile gid="3221231492"/>
   <tile gid="3221231491"/>
   <tile gid="3221231490"/>
   <tile gid="3221231489"/>
   <tile gid="3221231488"/>
   <tile gid="3221231487"/>
   <tile/>
   <tile/>
   <tile/>
   <tile/>
   <tile gid="3221231486"/>
   <tile gid="3221231485"/>
   <tile gid="3221231484"/>
   <tile gid="3221231483"/>
   <tile gid="3221231482"/>
   <tile gid="3221231481"/>
   <tile gid="3221231480"/>
   <tile gid="3221231479"/>
   <tile gid="6110"/>
   <tile gid="6111"/>
   <tile gid="6112"/>
   <tile gid="6113"/>
   <tile gid="6114"/>
   <tile gid="6115"/>
   <tile gid="6116"/>
   <tile/>
   <tile/>
   <tile/>
   <tile/>
   <tile/>
   <tile/>
   <tile/>
   <tile/>
   <tile/>
   <tile/>
   <tile/>
   <tile/>
   <tile gid="3221231468"/>
   <tile gid="3221231467"/>
   <tile gid="3221231466"/>
   <tile gid="3221231465"/>
   <tile gid="3221231464"/>
   <tile gid="3221231463"/>
   <tile gid="3221231462"/>
   <tile gid="3221231461"/>
   <tile gid="3221231460"/>
   <tile gid="3221231459"/>
   <tile gid="3221231458"/>
   <tile gid="3221231457"/>
   <tile/>
   <tile/>
   <tile/>
   <tile/>
   <tile gid="3221231456"/>
   <tile gid="3221231455"/>
   <tile gid="3221231454"/>
   <tile gid="3221231453"/>
   <tile gid="3221231452"/>
   <tile gid="3221231451"/>
   <tile gid="3221231450"/>
   <tile gid="3221231449"/>
   <tile gid="6140"/>
   <tile gid="6141"/>
   <tile gid="6142"/>
   <tile gid="6143"/>
   <tile gid="6144"/>
   <tile gid="6145"/>
   <tile gid="6146"/>
   <tile/>
   <tile/>
   <tile/>
   <tile/>
   <tile/>
   <tile/>
   <tile/>
   <tile/>
   <tile/>
   <tile/>
   <tile/>
   <tile/>
   <tile gid="3221231438"/>
   <tile gid="3221231437"/>
   <tile gid="3221231436"/>
   <tile gid="3221231435"/>
   <tile gid="3221231434"/>
   <tile gid="3221231433"/>
   <tile gid="3221231432"/>
   <tile gid="3221231431"/>
   <tile gid="3221231430"/>
   <tile gid="3221231429"/>
   <tile gid="3221231428"/>
   <tile gid="3221231427"/>
   <tile/>
   <tile/>
   <tile/>
   <tile/>
   <tile gid="3221231426"/>
   <tile gid="3221231425"/>
   <tile gid="3221231424"/>
   <tile gid="3221231423"/>
   <tile gid="3221231422"/>
   <tile gid="3221231421"/>
   <tile gid="3221231420"/>
   <tile gid="3221231419"/>
   <tile gid="6170"/>
   <tile gid="6171"/>
   <tile gid="6172"/>
   <tile gid="6173"/>
   <tile gid="6174"/>
   <tile gid="6175"/>
   <tile gid="6176"/>
   <tile/>
   <tile/>
   <tile/>
   <tile/>
   <tile/>
   <tile/>
   <tile/>
   <tile/>
   <tile/>
   <tile/>
   <tile/>
   <tile/>
   <tile gid="3221231408"/>
   <tile gid="3221231407"/>
   <tile gid="3221231406"/>
   <tile gid="3221231405"/>
   <tile gid="3221231404"/>
   <tile gid="3221231403"/>
   <tile gid="3221231402"/>
   <tile gid="3221231401"/>
   <tile gid="3221231400"/>
   <tile gid="3221231399"/>
   <tile gid="3221231398"/>
   <tile gid="3221231397"/>
   <tile/>
   <tile/>
   <tile/>
   <tile/>
   <tile gid="3221231396"/>
   <tile gid="3221231395"/>
   <tile gid="3221231394"/>
   <tile gid="3221231393"/>
   <tile gid="3221231392"/>
   <tile gid="3221231391"/>
   <tile gid="3221231390"/>
   <tile gid="3221231389"/>
   <tile gid="6200"/>
   <tile gid="6201"/>
   <tile gid="6202"/>
   <tile gid="6203"/>
   <tile gid="6204"/>
   <tile gid="6205"/>
   <tile gid="6206"/>
   <tile/>
   <tile/>
   <tile/>
   <tile/>
   <tile/>
   <tile/>
   <tile/>
   <tile/>
   <tile/>
   <tile/>
   <tile/>
   <tile/>
   <tile gid="3221231378"/>
   <tile gid="3221231377"/>
   <tile gid="3221231376"/>
   <tile gid="3221231375"/>
   <tile gid="3221231374"/>
   <tile gid="3221231373"/>
   <tile gid="3221231372"/>
   <tile gid="3221231371"/>
   <tile gid="3221231370"/>
   <tile gid="3221231369"/>
   <tile gid="3221231368"/>
   <tile gid="3221231367"/>
   <tile/>
   <tile/>
   <tile/>
   <tile/>
   <tile/>
   <tile/>
   <tile/>
   <tile/>
   <tile/>
   <tile/>
   <tile/>
   <tile/>
   <tile/>
   <tile/>
   <tile/>
   <tile/>
   <tile/>
   <tile/>
   <tile/>
   <tile/>
   <tile/>
   <tile/>
   <tile/>
   <tile/>
   <tile/>
   <tile/>
   <tile/>
   <tile/>
   <tile/>
   <tile/>
   <tile/>
   <tile/>
   <tile/>
   <tile/>
   <tile/>
   <tile/>
   <tile/>
   <tile/>
   <tile/>
   <tile/>
   <tile gid="2684360773"/>
   <tile gid="2684360743"/>
   <tile gid="2684360713"/>
   <tile gid="2684360683"/>
   <tile gid="2684360653"/>
   <tile/>
   <tile/>
   <tile/>
   <tile/>
   <tile/>
   <tile/>
   <tile/>
   <tile/>
   <tile/>
   <tile/>
   <tile/>
   <tile/>
   <tile/>
   <tile/>
   <tile/>
   <tile/>
   <tile/>
   <tile/>
   <tile/>
   <tile/>
   <tile/>
   <tile/>
   <tile/>
   <tile/>
   <tile/>
   <tile/>
   <tile/>
   <tile/>
   <tile/>
   <tile/>
   <tile/>
   <tile/>
   <tile/>
   <tile/>
   <tile/>
   <tile/>
   <tile/>
   <tile/>
   <tile gid="2684360774"/>
   <tile gid="2684360744"/>
   <tile gid="2684360714"/>
   <tile gid="2684360684"/>
   <tile gid="2684360654"/>
   <tile/>
   <tile/>
   <tile/>
   <tile/>
   <tile/>
   <tile/>
   <tile/>
   <tile/>
   <tile/>
   <tile/>
   <tile/>
   <tile/>
   <tile/>
   <tile/>
   <tile/>
   <tile/>
   <tile/>
   <tile/>
   <tile/>
   <tile/>
   <tile/>
   <tile/>
   <tile/>
   <tile/>
   <tile/>
   <tile/>
   <tile/>
   <tile/>
   <tile/>
   <tile/>
   <tile/>
   <tile/>
   <tile/>
   <tile/>
   <tile/>
   <tile/>
   <tile/>
   <tile/>
   <tile gid="2684360775"/>
   <tile gid="2684360745"/>
   <tile gid="2684360715"/>
   <tile gid="2684360685"/>
   <tile gid="2684360655"/>
   <tile/>
   <tile/>
   <tile/>
   <tile/>
   <tile/>
   <tile/>
   <tile/>
   <tile/>
   <tile/>
   <tile/>
   <tile/>
   <tile/>
   <tile/>
   <tile/>
   <tile/>
   <tile/>
   <tile/>
   <tile/>
   <tile/>
   <tile/>
   <tile/>
   <tile/>
   <tile/>
   <tile/>
   <tile/>
   <tile/>
   <tile/>
   <tile/>
   <tile/>
   <tile/>
   <tile/>
   <tile/>
   <tile/>
   <tile/>
   <tile/>
   <tile/>
   <tile/>
   <tile/>
   <tile gid="2684360776"/>
   <tile gid="2684360746"/>
   <tile gid="2684360716"/>
   <tile gid="2684360686"/>
   <tile gid="2684360656"/>
   <tile/>
   <tile/>
   <tile/>
   <tile/>
   <tile/>
   <tile/>
   <tile/>
   <tile/>
   <tile/>
   <tile/>
   <tile/>
   <tile/>
   <tile/>
   <tile/>
   <tile/>
   <tile/>
   <tile/>
   <tile/>
   <tile/>
   <tile/>
   <tile/>
   <tile/>
   <tile/>
   <tile/>
   <tile/>
   <tile/>
   <tile/>
   <tile/>
   <tile/>
   <tile/>
   <tile/>
   <tile/>
   <tile/>
   <tile/>
   <tile/>
   <tile/>
   <tile/>
   <tile/>
   <tile gid="2684360777"/>
   <tile gid="2684360747"/>
   <tile gid="2684360717"/>
   <tile gid="2684360687"/>
   <tile gid="2684360657"/>
   <tile/>
   <tile/>
   <tile/>
   <tile/>
   <tile/>
   <tile/>
   <tile/>
   <tile/>
   <tile/>
   <tile/>
   <tile/>
   <tile/>
   <tile/>
   <tile/>
   <tile/>
   <tile/>
   <tile/>
   <tile/>
   <tile/>
   <tile/>
   <tile/>
   <tile/>
   <tile/>
   <tile/>
   <tile/>
   <tile/>
   <tile/>
   <tile/>
   <tile/>
   <tile/>
   <tile/>
   <tile/>
   <tile/>
   <tile/>
   <tile/>
   <tile/>
   <tile/>
   <tile/>
   <tile gid="2684360778"/>
   <tile gid="2684360748"/>
   <tile gid="2684360718"/>
   <tile gid="2684360688"/>
   <tile gid="2684360658"/>
   <tile/>
   <tile/>
   <tile/>
   <tile/>
   <tile/>
   <tile/>
   <tile/>
   <tile/>
   <tile/>
   <tile/>
   <tile/>
   <tile/>
   <tile/>
   <tile/>
   <tile/>
   <tile/>
   <tile/>
   <tile/>
   <tile gid="5895"/>
   <tile gid="5896"/>
   <tile gid="5897"/>
   <tile gid="5898"/>
   <tile gid="5899"/>
   <tile gid="5900"/>
   <tile gid="5901"/>
   <tile gid="5902"/>
   <tile gid="5903"/>
   <tile gid="5904"/>
   <tile gid="5905"/>
   <tile gid="5906"/>
   <tile/>
   <tile/>
   <tile/>
   <tile/>
   <tile/>
   <tile/>
   <tile/>
   <tile/>
   <tile gid="2684360779"/>
   <tile gid="2684360749"/>
   <tile gid="2684360719"/>
   <tile gid="2684360689"/>
   <tile gid="2684360659"/>
   <tile/>
   <tile/>
   <tile/>
   <tile/>
   <tile/>
   <tile/>
   <tile/>
   <tile/>
   <tile/>
   <tile/>
   <tile/>
   <tile/>
   <tile/>
   <tile/>
   <tile/>
   <tile/>
   <tile/>
   <tile/>
   <tile gid="5925"/>
   <tile gid="5926"/>
   <tile gid="5927"/>
   <tile gid="5928"/>
   <tile gid="5929"/>
   <tile gid="5930"/>
   <tile gid="5931"/>
   <tile gid="5932"/>
   <tile gid="5933"/>
   <tile gid="5934"/>
   <tile gid="5935"/>
   <tile gid="5936"/>
   <tile/>
   <tile/>
   <tile/>
   <tile/>
   <tile/>
   <tile/>
   <tile/>
   <tile/>
   <tile/>
   <tile/>
   <tile/>
   <tile/>
   <tile/>
   <tile/>
   <tile/>
   <tile/>
   <tile/>
   <tile/>
   <tile/>
   <tile/>
   <tile/>
   <tile/>
   <tile/>
   <tile/>
   <tile/>
   <tile/>
   <tile/>
   <tile/>
   <tile/>
   <tile/>
   <tile/>
   <tile gid="5955"/>
   <tile gid="5956"/>
   <tile gid="5957"/>
   <tile gid="5958"/>
   <tile gid="5959"/>
   <tile gid="5960"/>
   <tile gid="5961"/>
   <tile gid="5962"/>
   <tile gid="5963"/>
   <tile gid="5964"/>
   <tile gid="5965"/>
   <tile gid="5966"/>
   <tile/>
   <tile/>
   <tile/>
   <tile/>
   <tile/>
   <tile/>
   <tile/>
   <tile/>
   <tile/>
   <tile/>
   <tile/>
   <tile/>
   <tile/>
   <tile/>
   <tile/>
   <tile/>
   <tile/>
   <tile/>
   <tile/>
   <tile/>
   <tile/>
   <tile/>
   <tile/>
   <tile/>
   <tile/>
   <tile/>
   <tile/>
   <tile/>
   <tile/>
   <tile/>
   <tile/>
   <tile gid="5985"/>
   <tile gid="5986"/>
   <tile gid="5987"/>
   <tile gid="5988"/>
   <tile gid="5989"/>
   <tile gid="5990"/>
   <tile gid="5991"/>
   <tile gid="5992"/>
   <tile gid="5993"/>
   <tile gid="5994"/>
   <tile gid="5995"/>
   <tile gid="5996"/>
   <tile/>
   <tile/>
   <tile/>
   <tile/>
   <tile/>
   <tile/>
   <tile/>
   <tile/>
   <tile/>
   <tile/>
   <tile/>
   <tile/>
   <tile/>
   <tile/>
   <tile/>
   <tile/>
   <tile/>
   <tile/>
   <tile/>
   <tile/>
   <tile/>
   <tile/>
   <tile/>
   <tile/>
   <tile/>
   <tile/>
   <tile/>
   <tile/>
   <tile/>
   <tile/>
   <tile/>
   <tile gid="6015"/>
   <tile gid="6016"/>
   <tile gid="6017"/>
   <tile gid="6018"/>
   <tile gid="6019"/>
   <tile gid="6020"/>
   <tile gid="6021"/>
   <tile gid="6022"/>
   <tile gid="6023"/>
   <tile gid="6024"/>
   <tile gid="6025"/>
   <tile gid="6026"/>
   <tile/>
   <tile/>
   <tile/>
   <tile/>
   <tile/>
   <tile/>
   <tile/>
   <tile/>
   <tile/>
   <tile/>
   <tile/>
   <tile/>
   <tile/>
   <tile/>
   <tile/>
   <tile/>
   <tile/>
   <tile/>
   <tile/>
   <tile/>
   <tile/>
   <tile/>
   <tile/>
   <tile/>
   <tile/>
   <tile/>
   <tile/>
   <tile/>
   <tile/>
   <tile/>
   <tile/>
   <tile/>
   <tile/>
   <tile/>
   <tile/>
   <tile/>
   <tile/>
   <tile/>
   <tile/>
   <tile/>
   <tile/>
   <tile/>
   <tile/>
   <tile/>
   <tile/>
   <tile/>
   <tile/>
   <tile/>
   <tile/>
   <tile/>
   <tile/>
   <tile/>
   <tile/>
   <tile/>
   <tile/>
   <tile/>
   <tile/>
   <tile/>
   <tile/>
   <tile/>
   <tile/>
   <tile/>
   <tile/>
   <tile/>
   <tile/>
   <tile/>
   <tile/>
   <tile/>
   <tile/>
   <tile/>
   <tile/>
   <tile/>
   <tile/>
   <tile/>
   <tile/>
   <tile/>
   <tile/>
   <tile/>
   <tile/>
   <tile/>
   <tile/>
   <tile/>
   <tile/>
   <tile/>
   <tile/>
   <tile/>
   <tile/>
   <tile/>
   <tile/>
   <tile/>
   <tile/>
   <tile/>
   <tile/>
   <tile/>
   <tile/>
   <tile/>
   <tile/>
   <tile/>
   <tile/>
  </data>
 </layer>
 <layer id="47" name="Rocks Second Layer" width="43" height="21" parallaxx="0" parallaxy="0">
  <properties>
   <property name="Draw" type="bool" value="true"/>
  </properties>
  <data>
   <tile/>
   <tile/>
   <tile/>
   <tile/>
   <tile/>
   <tile/>
   <tile/>
   <tile/>
   <tile/>
   <tile/>
   <tile/>
   <tile/>
   <tile/>
   <tile/>
   <tile/>
   <tile/>
   <tile/>
   <tile/>
   <tile/>
   <tile/>
   <tile/>
   <tile/>
   <tile/>
   <tile/>
   <tile/>
   <tile/>
   <tile/>
   <tile/>
   <tile/>
   <tile/>
   <tile/>
   <tile/>
   <tile/>
   <tile/>
   <tile/>
   <tile/>
   <tile/>
   <tile/>
   <tile/>
   <tile/>
   <tile/>
   <tile/>
   <tile/>
   <tile/>
   <tile/>
   <tile/>
   <tile/>
   <tile/>
   <tile/>
   <tile/>
   <tile/>
   <tile/>
   <tile/>
   <tile/>
   <tile/>
   <tile/>
   <tile/>
   <tile/>
   <tile/>
   <tile/>
   <tile/>
   <tile/>
   <tile/>
   <tile/>
   <tile/>
   <tile/>
   <tile/>
   <tile/>
   <tile/>
   <tile/>
   <tile/>
   <tile/>
   <tile/>
   <tile/>
   <tile/>
   <tile/>
   <tile/>
   <tile/>
   <tile/>
   <tile/>
   <tile/>
   <tile/>
   <tile/>
   <tile/>
   <tile/>
   <tile/>
   <tile/>
   <tile/>
   <tile/>
   <tile/>
   <tile/>
   <tile/>
   <tile/>
   <tile/>
   <tile/>
   <tile/>
   <tile/>
   <tile/>
   <tile/>
   <tile/>
   <tile/>
   <tile/>
   <tile/>
   <tile/>
   <tile/>
   <tile/>
   <tile/>
   <tile/>
   <tile/>
   <tile/>
   <tile/>
   <tile/>
   <tile/>
   <tile/>
   <tile/>
   <tile/>
   <tile/>
   <tile/>
   <tile/>
   <tile/>
   <tile/>
   <tile/>
   <tile/>
   <tile/>
   <tile/>
   <tile/>
   <tile/>
   <tile/>
   <tile/>
   <tile/>
   <tile/>
   <tile/>
   <tile/>
   <tile gid="2684360246"/>
   <tile gid="2684360216"/>
   <tile gid="2684360186"/>
   <tile gid="2684360156"/>
   <tile/>
   <tile/>
   <tile/>
   <tile/>
   <tile/>
   <tile/>
   <tile/>
   <tile/>
   <tile/>
   <tile/>
   <tile/>
   <tile/>
   <tile/>
   <tile/>
   <tile/>
   <tile/>
   <tile/>
   <tile/>
   <tile/>
   <tile gid="3221231335"/>
   <tile gid="3221231334"/>
   <tile gid="3221231333"/>
   <tile gid="3221231332"/>
   <tile gid="3221231331"/>
   <tile/>
   <tile/>
   <tile/>
   <tile/>
   <tile/>
   <tile/>
   <tile/>
   <tile/>
   <tile/>
   <tile/>
   <tile/>
   <tile/>
   <tile/>
   <tile/>
   <tile/>
   <tile gid="2684360247"/>
   <tile gid="2684360217"/>
   <tile gid="2684360187"/>
   <tile gid="2684360157"/>
   <tile/>
   <tile/>
   <tile/>
   <tile/>
   <tile/>
   <tile/>
   <tile/>
   <tile/>
   <tile/>
   <tile/>
   <tile/>
   <tile/>
   <tile/>
   <tile/>
   <tile/>
   <tile/>
   <tile/>
   <tile/>
   <tile/>
   <tile gid="3221231305"/>
   <tile gid="3221231304"/>
   <tile gid="3221231303"/>
   <tile gid="3221231302"/>
   <tile gid="3221231301"/>
   <tile/>
   <tile/>
   <tile/>
   <tile/>
   <tile/>
   <tile/>
   <tile/>
   <tile/>
   <tile/>
   <tile/>
   <tile/>
   <tile/>
   <tile/>
   <tile/>
   <tile/>
   <tile gid="2684360248"/>
   <tile gid="2684360218"/>
   <tile gid="2684360188"/>
   <tile gid="2684360158"/>
   <tile/>
   <tile/>
   <tile/>
   <tile/>
   <tile/>
   <tile/>
   <tile/>
   <tile/>
   <tile/>
   <tile/>
   <tile/>
   <tile/>
   <tile/>
   <tile/>
   <tile/>
   <tile/>
   <tile/>
   <tile/>
   <tile/>
   <tile/>
   <tile/>
   <tile/>
   <tile/>
   <tile/>
   <tile/>
   <tile/>
   <tile/>
   <tile/>
   <tile/>
   <tile/>
   <tile/>
   <tile/>
   <tile/>
   <tile/>
   <tile/>
   <tile/>
   <tile/>
   <tile/>
   <tile/>
   <tile gid="2684360249"/>
   <tile gid="2684360219"/>
   <tile gid="2684360189"/>
   <tile gid="2684360159"/>
   <tile/>
   <tile/>
   <tile/>
   <tile/>
   <tile/>
   <tile/>
   <tile/>
   <tile/>
   <tile/>
   <tile/>
   <tile/>
   <tile/>
   <tile/>
   <tile/>
   <tile/>
   <tile/>
   <tile/>
   <tile/>
   <tile/>
   <tile/>
   <tile/>
   <tile/>
   <tile/>
   <tile/>
   <tile/>
   <tile/>
   <tile/>
   <tile/>
   <tile/>
   <tile/>
   <tile/>
   <tile/>
   <tile/>
   <tile/>
   <tile/>
   <tile/>
   <tile/>
   <tile/>
   <tile/>
   <tile gid="2684360250"/>
   <tile gid="2684360220"/>
   <tile gid="2684360190"/>
   <tile gid="2684360160"/>
   <tile/>
   <tile/>
   <tile/>
   <tile/>
   <tile/>
   <tile/>
   <tile/>
   <tile/>
   <tile/>
   <tile/>
   <tile/>
   <tile/>
   <tile/>
   <tile/>
   <tile/>
   <tile/>
   <tile/>
   <tile/>
   <tile/>
   <tile/>
   <tile/>
   <tile/>
   <tile/>
   <tile/>
   <tile gid="2684359698"/>
   <tile gid="2684359668"/>
   <tile gid="2684359638"/>
   <tile/>
   <tile/>
   <tile/>
   <tile/>
   <tile/>
   <tile/>
   <tile/>
   <tile/>
   <tile/>
   <tile/>
   <tile/>
   <tile/>
   <tile gid="2684360251"/>
   <tile gid="2684360221"/>
   <tile gid="2684360191"/>
   <tile gid="2684360161"/>
   <tile/>
   <tile/>
   <tile/>
   <tile/>
   <tile/>
   <tile/>
   <tile/>
   <tile/>
   <tile/>
   <tile gid="5615"/>
   <tile gid="5616"/>
   <tile gid="5617"/>
   <tile gid="5618"/>
   <tile gid="5619"/>
   <tile gid="5620"/>
   <tile gid="5621"/>
   <tile gid="5622"/>
   <tile gid="5620"/>
   <tile gid="5621"/>
   <tile gid="5622"/>
   <tile/>
   <tile/>
   <tile/>
   <tile gid="2684360065"/>
   <tile gid="2684360035"/>
   <tile gid="2684360005"/>
   <tile gid="2684359639"/>
   <tile/>
   <tile/>
   <tile/>
   <tile/>
   <tile/>
   <tile/>
   <tile/>
   <tile/>
   <tile/>
   <tile/>
   <tile/>
   <tile/>
   <tile gid="2684360252"/>
   <tile gid="2684360222"/>
   <tile gid="2684360192"/>
   <tile gid="2684360162"/>
   <tile/>
   <tile/>
   <tile/>
   <tile/>
   <tile/>
   <tile/>
   <tile/>
   <tile/>
   <tile/>
   <tile gid="5645"/>
   <tile gid="5646"/>
   <tile gid="5647"/>
   <tile gid="5648"/>
   <tile gid="5649"/>
   <tile gid="5650"/>
   <tile gid="5651"/>
   <tile gid="5652"/>
   <tile gid="5650"/>
   <tile gid="5651"/>
   <tile gid="5652"/>
   <tile/>
   <tile/>
   <tile/>
   <tile gid="2684360066"/>
   <tile gid="2684360036"/>
   <tile gid="2684360006"/>
   <tile/>
   <tile/>
   <tile/>
   <tile/>
   <tile/>
   <tile/>
   <tile/>
   <tile/>
   <tile/>
   <tile/>
   <tile/>
   <tile/>
   <tile/>
   <tile gid="2684360253"/>
   <tile gid="2684360223"/>
   <tile gid="2684360193"/>
   <tile gid="2684360163"/>
   <tile/>
   <tile/>
   <tile/>
   <tile/>
   <tile/>
   <tile/>
   <tile/>
   <tile/>
   <tile/>
   <tile gid="5675"/>
   <tile gid="5676"/>
   <tile gid="5677"/>
   <tile gid="5678"/>
   <tile gid="5679"/>
   <tile gid="5680"/>
   <tile gid="5681"/>
   <tile gid="5682"/>
   <tile gid="5680"/>
   <tile gid="5681"/>
   <tile gid="5682"/>
   <tile/>
   <tile/>
   <tile/>
   <tile gid="2684360067"/>
   <tile gid="2684360037"/>
   <tile gid="2684360007"/>
   <tile gid="2684359641"/>
   <tile/>
   <tile/>
   <tile/>
   <tile/>
   <tile/>
   <tile/>
   <tile/>
   <tile/>
   <tile/>
   <tile/>
   <tile/>
   <tile/>
   <tile gid="2684360254"/>
   <tile gid="2684360224"/>
   <tile gid="2684360194"/>
   <tile gid="2684360164"/>
   <tile/>
   <tile/>
   <tile/>
   <tile/>
   <tile/>
   <tile/>
   <tile/>
   <tile/>
   <tile/>
   <tile gid="5705"/>
   <tile gid="5706"/>
   <tile gid="5707"/>
   <tile gid="5708"/>
   <tile gid="5709"/>
   <tile gid="5710"/>
   <tile gid="5711"/>
   <tile gid="5712"/>
   <tile gid="5710"/>
   <tile gid="5711"/>
   <tile gid="5712"/>
   <tile/>
   <tile/>
   <tile/>
   <tile gid="2684360068"/>
   <tile gid="2684360038"/>
   <tile gid="2684360008"/>
   <tile gid="2684359642"/>
   <tile/>
   <tile/>
   <tile/>
   <tile/>
   <tile/>
   <tile/>
   <tile/>
   <tile/>
   <tile/>
   <tile/>
   <tile/>
   <tile/>
   <tile gid="2684360255"/>
   <tile gid="2684360225"/>
   <tile gid="2684360195"/>
   <tile gid="2684360165"/>
   <tile/>
   <tile/>
   <tile/>
   <tile/>
   <tile/>
   <tile/>
   <tile/>
   <tile/>
   <tile/>
   <tile/>
   <tile/>
   <tile/>
   <tile/>
   <tile/>
   <tile/>
   <tile/>
   <tile/>
   <tile/>
   <tile/>
   <tile/>
   <tile/>
   <tile/>
   <tile/>
   <tile gid="2684360069"/>
   <tile gid="2684360039"/>
   <tile gid="2684360009"/>
   <tile gid="2684359643"/>
   <tile/>
   <tile/>
   <tile/>
   <tile/>
   <tile/>
   <tile/>
   <tile/>
   <tile/>
   <tile/>
   <tile/>
   <tile/>
   <tile/>
   <tile/>
   <tile/>
   <tile/>
   <tile/>
   <tile/>
   <tile/>
   <tile/>
   <tile/>
   <tile/>
   <tile/>
   <tile/>
   <tile/>
   <tile/>
   <tile/>
   <tile/>
   <tile/>
   <tile/>
   <tile/>
   <tile/>
   <tile/>
   <tile/>
   <tile/>
   <tile/>
   <tile/>
   <tile/>
   <tile/>
   <tile/>
   <tile gid="2684360070"/>
   <tile gid="2684360040"/>
   <tile gid="2684360010"/>
   <tile gid="2684359644"/>
   <tile/>
   <tile/>
   <tile/>
   <tile/>
   <tile/>
   <tile/>
   <tile/>
   <tile/>
   <tile/>
   <tile/>
   <tile/>
   <tile/>
   <tile/>
   <tile/>
   <tile/>
   <tile/>
   <tile/>
   <tile/>
   <tile/>
   <tile/>
   <tile/>
   <tile/>
   <tile/>
   <tile/>
   <tile/>
   <tile/>
   <tile/>
   <tile/>
   <tile/>
   <tile/>
   <tile/>
   <tile/>
   <tile/>
   <tile/>
   <tile/>
   <tile/>
   <tile/>
   <tile/>
   <tile/>
   <tile/>
   <tile/>
   <tile/>
   <tile/>
   <tile/>
   <tile/>
   <tile/>
   <tile/>
   <tile/>
   <tile/>
   <tile/>
   <tile/>
   <tile/>
   <tile/>
   <tile/>
   <tile/>
   <tile/>
   <tile/>
   <tile/>
   <tile gid="5615"/>
   <tile gid="5616"/>
   <tile gid="5617"/>
   <tile gid="5618"/>
   <tile gid="5619"/>
   <tile gid="5620"/>
   <tile gid="5621"/>
   <tile gid="5622"/>
   <tile gid="5623"/>
   <tile gid="5624"/>
   <tile/>
   <tile/>
   <tile/>
   <tile/>
   <tile/>
   <tile/>
   <tile/>
   <tile/>
   <tile/>
   <tile/>
   <tile/>
   <tile/>
   <tile/>
   <tile/>
   <tile/>
   <tile/>
   <tile/>
   <tile/>
   <tile/>
   <tile/>
   <tile/>
   <tile/>
   <tile/>
   <tile/>
   <tile/>
   <tile/>
   <tile/>
   <tile/>
   <tile/>
   <tile/>
   <tile/>
   <tile/>
   <tile/>
   <tile gid="5645"/>
   <tile gid="5646"/>
   <tile gid="5647"/>
   <tile gid="5648"/>
   <tile gid="5649"/>
   <tile gid="5650"/>
   <tile gid="5651"/>
   <tile gid="5652"/>
   <tile gid="5653"/>
   <tile gid="5654"/>
   <tile/>
   <tile/>
   <tile/>
   <tile/>
   <tile/>
   <tile/>
   <tile/>
   <tile/>
   <tile/>
   <tile/>
   <tile gid="5596"/>
   <tile gid="5597"/>
   <tile gid="5598"/>
   <tile gid="5599"/>
   <tile gid="5600"/>
   <tile gid="5601"/>
   <tile gid="5602"/>
   <tile gid="5603"/>
   <tile gid="5604"/>
   <tile gid="5605"/>
   <tile/>
   <tile/>
   <tile/>
   <tile/>
   <tile/>
   <tile/>
   <tile/>
   <tile/>
   <tile/>
   <tile/>
   <tile/>
   <tile/>
   <tile/>
   <tile gid="5675"/>
   <tile gid="5676"/>
   <tile gid="5677"/>
   <tile gid="5678"/>
   <tile gid="5679"/>
   <tile gid="5680"/>
   <tile gid="5681"/>
   <tile gid="5682"/>
   <tile gid="5683"/>
   <tile gid="5684"/>
   <tile/>
   <tile/>
   <tile/>
   <tile/>
   <tile/>
   <tile/>
   <tile/>
   <tile/>
   <tile/>
   <tile/>
   <tile gid="5626"/>
   <tile gid="5627"/>
   <tile gid="5628"/>
   <tile gid="5629"/>
   <tile gid="5630"/>
   <tile gid="5631"/>
   <tile gid="5632"/>
   <tile gid="5633"/>
   <tile gid="5634"/>
   <tile gid="5635"/>
   <tile/>
   <tile/>
   <tile/>
   <tile/>
   <tile/>
   <tile/>
   <tile/>
   <tile/>
   <tile/>
   <tile/>
   <tile/>
   <tile/>
   <tile/>
   <tile gid="5705"/>
   <tile gid="5706"/>
   <tile gid="5707"/>
   <tile gid="5708"/>
   <tile gid="5709"/>
   <tile gid="5710"/>
   <tile gid="5711"/>
   <tile gid="5712"/>
   <tile gid="5713"/>
   <tile gid="5714"/>
   <tile/>
   <tile/>
   <tile/>
   <tile/>
   <tile/>
   <tile/>
   <tile/>
   <tile/>
   <tile/>
   <tile/>
   <tile gid="5656"/>
   <tile gid="5657"/>
   <tile gid="5658"/>
   <tile gid="5659"/>
   <tile gid="5660"/>
   <tile gid="5661"/>
   <tile gid="5662"/>
   <tile gid="5663"/>
   <tile gid="5664"/>
   <tile gid="5665"/>
   <tile/>
   <tile/>
   <tile/>
   <tile/>
   <tile/>
   <tile/>
   <tile/>
   <tile/>
   <tile/>
   <tile/>
   <tile/>
   <tile/>
   <tile/>
   <tile/>
   <tile/>
   <tile/>
   <tile/>
   <tile/>
   <tile/>
   <tile/>
   <tile/>
   <tile/>
   <tile/>
   <tile/>
   <tile/>
   <tile/>
   <tile/>
   <tile/>
   <tile/>
   <tile/>
   <tile/>
   <tile/>
   <tile/>
   <tile gid="5686"/>
   <tile gid="5687"/>
   <tile gid="5688"/>
   <tile gid="5689"/>
   <tile gid="5690"/>
   <tile gid="5691"/>
   <tile gid="5692"/>
   <tile gid="5693"/>
   <tile gid="5694"/>
   <tile gid="5695"/>
   <tile/>
   <tile/>
   <tile/>
   <tile/>
   <tile/>
   <tile/>
   <tile/>
   <tile/>
   <tile/>
   <tile/>
   <tile/>
   <tile/>
   <tile/>
   <tile/>
   <tile/>
   <tile/>
   <tile/>
   <tile/>
   <tile/>
   <tile/>
   <tile/>
   <tile/>
   <tile/>
   <tile/>
   <tile/>
   <tile/>
   <tile/>
   <tile/>
   <tile/>
   <tile/>
   <tile/>
   <tile/>
   <tile/>
   <tile/>
   <tile/>
   <tile/>
   <tile/>
   <tile/>
   <tile/>
   <tile/>
   <tile/>
   <tile/>
   <tile/>
   <tile/>
   <tile/>
   <tile/>
   <tile/>
   <tile/>
   <tile/>
  </data>
 </layer>
 <layer id="69" name="Lights" width="43" height="21">
  <properties>
   <property name="Draw" type="bool" value="true"/>
  </properties>
  <data>
   <tile/>
   <tile/>
   <tile/>
   <tile/>
   <tile/>
   <tile/>
   <tile/>
   <tile/>
   <tile/>
   <tile/>
   <tile/>
   <tile/>
   <tile/>
   <tile/>
   <tile/>
   <tile/>
   <tile/>
   <tile/>
   <tile/>
   <tile/>
   <tile/>
   <tile/>
   <tile/>
   <tile/>
   <tile/>
   <tile/>
   <tile/>
   <tile/>
   <tile/>
   <tile/>
   <tile/>
   <tile/>
   <tile/>
   <tile/>
   <tile/>
   <tile/>
   <tile/>
   <tile/>
   <tile/>
   <tile/>
   <tile/>
   <tile/>
   <tile/>
   <tile/>
   <tile/>
   <tile/>
   <tile/>
   <tile/>
   <tile/>
   <tile/>
   <tile/>
   <tile/>
   <tile/>
   <tile/>
   <tile/>
   <tile/>
   <tile/>
   <tile/>
   <tile/>
   <tile/>
   <tile/>
   <tile/>
   <tile/>
   <tile/>
   <tile/>
   <tile/>
   <tile/>
   <tile/>
   <tile/>
   <tile/>
   <tile/>
   <tile/>
   <tile/>
   <tile/>
   <tile/>
   <tile/>
   <tile/>
   <tile/>
   <tile/>
   <tile/>
   <tile/>
   <tile/>
   <tile/>
   <tile/>
   <tile/>
   <tile/>
   <tile/>
   <tile/>
   <tile/>
   <tile/>
   <tile/>
   <tile/>
   <tile/>
   <tile/>
   <tile/>
   <tile/>
   <tile/>
   <tile/>
   <tile/>
   <tile/>
   <tile/>
   <tile/>
   <tile/>
   <tile/>
   <tile/>
   <tile/>
   <tile/>
   <tile/>
   <tile/>
   <tile/>
   <tile/>
   <tile/>
   <tile/>
   <tile/>
   <tile/>
   <tile/>
   <tile/>
   <tile/>
   <tile/>
   <tile/>
   <tile/>
   <tile/>
   <tile/>
   <tile/>
   <tile/>
   <tile/>
   <tile/>
   <tile/>
   <tile/>
   <tile/>
   <tile/>
   <tile/>
   <tile/>
   <tile/>
   <tile/>
   <tile/>
   <tile/>
   <tile gid="3221229873"/>
   <tile gid="3221229872"/>
   <tile gid="3221229871"/>
   <tile gid="3221229870"/>
   <tile gid="3221229869"/>
   <tile/>
   <tile/>
   <tile/>
   <tile/>
   <tile gid="3221229698"/>
   <tile gid="3221229697"/>
   <tile gid="3221229696"/>
   <tile/>
   <tile/>
   <tile/>
   <tile gid="3221229698"/>
   <tile gid="3221229697"/>
   <tile gid="3221229696"/>
   <tile/>
   <tile gid="3221229888"/>
   <tile gid="3221229887"/>
   <tile gid="3221229886"/>
   <tile/>
   <tile/>
   <tile/>
   <tile/>
   <tile/>
   <tile/>
   <tile/>
   <tile/>
   <tile/>
   <tile/>
   <tile/>
   <tile/>
   <tile/>
   <tile/>
   <tile/>
   <tile/>
   <tile/>
   <tile/>
   <tile/>
   <tile/>
   <tile/>
   <tile gid="3221229843"/>
   <tile gid="3221229842"/>
   <tile gid="3221229841"/>
   <tile gid="3221229840"/>
   <tile gid="3221229839"/>
   <tile/>
   <tile/>
   <tile/>
   <tile/>
   <tile gid="3221229668"/>
   <tile gid="3221229667"/>
   <tile gid="3221229666"/>
   <tile/>
   <tile/>
   <tile/>
   <tile gid="3221229668"/>
   <tile gid="3221229667"/>
   <tile gid="3221229666"/>
   <tile/>
   <tile gid="3221229858"/>
   <tile gid="3221229857"/>
   <tile gid="3221229856"/>
   <tile/>
   <tile/>
   <tile/>
   <tile/>
   <tile gid="3221229593"/>
   <tile gid="3221229592"/>
   <tile/>
   <tile/>
   <tile/>
   <tile/>
   <tile/>
   <tile/>
   <tile/>
   <tile/>
   <tile/>
   <tile/>
   <tile/>
   <tile/>
   <tile/>
   <tile/>
   <tile/>
   <tile gid="3221229813"/>
   <tile gid="3221229812"/>
   <tile gid="3221229811"/>
   <tile gid="3221229810"/>
   <tile gid="3221229809"/>
   <tile/>
   <tile/>
   <tile/>
   <tile/>
   <tile/>
   <tile/>
   <tile/>
   <tile/>
   <tile/>
   <tile/>
   <tile/>
   <tile/>
   <tile/>
   <tile/>
   <tile/>
   <tile/>
   <tile/>
   <tile/>
   <tile/>
   <tile gid="1073746229"/>
   <tile gid="1073746230"/>
   <tile gid="3221229563"/>
   <tile gid="3221229562"/>
   <tile/>
   <tile/>
   <tile/>
   <tile/>
   <tile/>
   <tile/>
   <tile/>
   <tile/>
   <tile/>
   <tile/>
   <tile/>
   <tile/>
   <tile/>
   <tile/>
   <tile/>
   <tile gid="3221229783"/>
   <tile gid="3221229782"/>
   <tile gid="3221229781"/>
   <tile gid="3221229780"/>
   <tile gid="3221229779"/>
   <tile/>
   <tile/>
   <tile/>
   <tile/>
   <tile/>
   <tile/>
   <tile/>
   <tile/>
   <tile/>
   <tile/>
   <tile/>
   <tile/>
   <tile/>
   <tile/>
   <tile/>
   <tile/>
   <tile/>
   <tile/>
   <tile/>
   <tile gid="1073746199"/>
   <tile gid="1073746200"/>
   <tile gid="3221229533"/>
   <tile gid="3221229532"/>
   <tile/>
   <tile/>
   <tile/>
   <tile/>
   <tile/>
   <tile/>
   <tile/>
   <tile/>
   <tile/>
   <tile/>
   <tile gid="3758100486"/>
   <tile gid="3758100456"/>
   <tile gid="3758100426"/>
   <tile gid="3758100396"/>
   <tile gid="3758100366"/>
   <tile/>
   <tile/>
   <tile/>
   <tile/>
   <tile/>
   <tile/>
   <tile/>
   <tile/>
   <tile/>
   <tile/>
   <tile/>
   <tile/>
   <tile/>
   <tile/>
   <tile/>
   <tile/>
   <tile/>
   <tile/>
   <tile/>
   <tile/>
   <tile/>
   <tile/>
   <tile/>
   <tile/>
   <tile/>
   <tile/>
   <tile gid="3221229503"/>
   <tile gid="3221229502"/>
   <tile/>
   <tile/>
   <tile/>
   <tile/>
   <tile/>
   <tile/>
   <tile/>
   <tile/>
   <tile/>
   <tile/>
   <tile gid="3758100485"/>
   <tile gid="3758100455"/>
   <tile gid="3758100425"/>
   <tile gid="3758100395"/>
   <tile gid="3758100365"/>
   <tile/>
   <tile/>
   <tile/>
   <tile/>
   <tile/>
   <tile/>
   <tile/>
   <tile/>
   <tile/>
   <tile/>
   <tile/>
   <tile/>
   <tile/>
   <tile/>
   <tile/>
   <tile/>
   <tile/>
   <tile/>
   <tile/>
   <tile/>
   <tile/>
   <tile/>
   <tile/>
   <tile/>
   <tile/>
   <tile/>
   <tile/>
   <tile/>
   <tile/>
   <tile/>
   <tile/>
   <tile/>
   <tile/>
   <tile/>
   <tile/>
   <tile/>
   <tile/>
   <tile/>
   <tile gid="3758100484"/>
   <tile gid="3758100454"/>
   <tile gid="3758100424"/>
   <tile gid="3758100394"/>
   <tile gid="3758100364"/>
   <tile/>
   <tile/>
   <tile/>
   <tile/>
   <tile/>
   <tile/>
   <tile/>
   <tile/>
   <tile/>
   <tile/>
   <tile/>
   <tile/>
   <tile/>
   <tile/>
   <tile/>
   <tile/>
   <tile/>
   <tile/>
   <tile/>
   <tile gid="4044"/>
   <tile gid="4045"/>
   <tile gid="4045"/>
   <tile/>
   <tile/>
   <tile/>
   <tile/>
   <tile/>
   <tile/>
   <tile/>
   <tile/>
   <tile/>
   <tile/>
   <tile/>
   <tile/>
   <tile/>
   <tile/>
   <tile/>
   <tile/>
   <tile/>
   <tile/>
   <tile/>
   <tile/>
   <tile/>
   <tile/>
   <tile/>
   <tile/>
   <tile/>
   <tile/>
   <tile/>
   <tile/>
   <tile/>
   <tile gid="4207"/>
   <tile gid="4208"/>
   <tile gid="4209"/>
   <tile/>
   <tile/>
   <tile/>
   <tile/>
   <tile/>
   <tile/>
   <tile/>
   <tile/>
   <tile gid="4074"/>
   <tile gid="4075"/>
   <tile gid="4075"/>
   <tile/>
   <tile/>
   <tile/>
   <tile/>
   <tile/>
   <tile/>
   <tile/>
   <tile/>
   <tile/>
   <tile/>
   <tile/>
   <tile/>
   <tile/>
   <tile/>
   <tile/>
   <tile/>
   <tile/>
   <tile/>
   <tile/>
   <tile/>
   <tile/>
   <tile/>
   <tile/>
   <tile/>
   <tile/>
   <tile/>
   <tile/>
   <tile/>
   <tile/>
   <tile gid="4237"/>
   <tile gid="4238"/>
   <tile gid="4239"/>
   <tile/>
   <tile/>
   <tile/>
   <tile/>
   <tile/>
   <tile/>
   <tile/>
   <tile/>
   <tile gid="4104"/>
   <tile gid="4105"/>
   <tile gid="4105"/>
   <tile/>
   <tile/>
   <tile/>
   <tile/>
   <tile/>
   <tile/>
   <tile/>
   <tile/>
   <tile/>
   <tile/>
   <tile/>
   <tile/>
   <tile/>
   <tile/>
   <tile/>
   <tile/>
   <tile/>
   <tile/>
   <tile/>
   <tile/>
   <tile/>
   <tile/>
   <tile/>
   <tile/>
   <tile/>
   <tile/>
   <tile/>
   <tile/>
   <tile/>
   <tile/>
   <tile/>
   <tile/>
   <tile/>
   <tile/>
   <tile/>
   <tile/>
   <tile/>
   <tile/>
   <tile/>
   <tile/>
   <tile/>
   <tile/>
   <tile/>
   <tile/>
   <tile/>
   <tile/>
   <tile/>
   <tile/>
   <tile/>
   <tile/>
   <tile gid="1610616718"/>
   <tile gid="1610616748"/>
   <tile gid="1610616778"/>
   <tile gid="1610616808"/>
   <tile gid="1610616838"/>
   <tile/>
   <tile/>
   <tile/>
   <tile/>
   <tile/>
   <tile/>
   <tile/>
   <tile/>
   <tile/>
   <tile/>
   <tile/>
   <tile/>
   <tile/>
   <tile/>
   <tile/>
   <tile/>
   <tile/>
   <tile/>
   <tile/>
   <tile/>
   <tile/>
   <tile/>
   <tile/>
   <tile/>
   <tile/>
   <tile/>
   <tile/>
   <tile/>
   <tile/>
   <tile/>
   <tile/>
   <tile/>
   <tile/>
   <tile/>
   <tile/>
   <tile/>
   <tile/>
   <tile/>
   <tile gid="1610616717"/>
   <tile gid="1610616747"/>
   <tile gid="1610616777"/>
   <tile gid="1610616807"/>
   <tile gid="1610616837"/>
   <tile/>
   <tile/>
   <tile/>
   <tile/>
   <tile/>
   <tile gid="4024"/>
   <tile gid="4025"/>
   <tile gid="4026"/>
   <tile gid="4027"/>
   <tile/>
   <tile/>
   <tile/>
   <tile/>
   <tile/>
   <tile/>
   <tile/>
   <tile/>
   <tile/>
   <tile/>
   <tile/>
   <tile/>
   <tile/>
   <tile/>
   <tile gid="3221229883"/>
   <tile gid="3221229882"/>
   <tile gid="3221229881"/>
   <tile gid="3221229880"/>
   <tile/>
   <tile/>
   <tile/>
   <tile/>
   <tile/>
   <tile/>
   <tile/>
   <tile/>
   <tile/>
   <tile/>
   <tile/>
   <tile gid="1610616716"/>
   <tile gid="1610616746"/>
   <tile gid="1610616776"/>
   <tile gid="1610616806"/>
   <tile gid="1610616836"/>
   <tile/>
   <tile/>
   <tile/>
   <tile/>
   <tile/>
   <tile gid="4054"/>
   <tile gid="4055"/>
   <tile gid="4056"/>
   <tile gid="4057"/>
   <tile/>
   <tile/>
   <tile gid="4308"/>
   <tile gid="4309"/>
   <tile gid="4310"/>
   <tile gid="4311"/>
   <tile gid="3988"/>
   <tile gid="3989"/>
   <tile gid="3990"/>
   <tile/>
   <tile/>
   <tile gid="4308"/>
   <tile gid="4309"/>
   <tile gid="4310"/>
   <tile gid="4311"/>
   <tile gid="3221229852"/>
   <tile gid="3221229851"/>
   <tile gid="3221229850"/>
   <tile/>
   <tile gid="3976"/>
   <tile gid="3977"/>
   <tile/>
   <tile/>
   <tile/>
   <tile/>
   <tile/>
   <tile/>
   <tile/>
   <tile/>
   <tile gid="1610616715"/>
   <tile gid="1610616745"/>
   <tile gid="1610616775"/>
   <tile gid="1610616805"/>
   <tile gid="1610616835"/>
   <tile/>
   <tile/>
   <tile/>
   <tile/>
   <tile/>
   <tile gid="4084"/>
   <tile gid="4085"/>
   <tile gid="4086"/>
   <tile gid="4087"/>
   <tile/>
   <tile/>
   <tile gid="4338"/>
   <tile gid="4339"/>
   <tile gid="4340"/>
   <tile gid="4341"/>
   <tile gid="4018"/>
   <tile gid="4019"/>
   <tile gid="4020"/>
   <tile/>
   <tile/>
   <tile gid="4338"/>
   <tile gid="4339"/>
   <tile gid="4340"/>
   <tile gid="4341"/>
   <tile gid="3221229822"/>
   <tile gid="3221229821"/>
   <tile gid="3221229820"/>
   <tile/>
   <tile gid="4006"/>
   <tile gid="4007"/>
   <tile/>
   <tile/>
   <tile/>
   <tile/>
   <tile/>
   <tile/>
   <tile/>
   <tile/>
   <tile/>
   <tile/>
   <tile/>
   <tile/>
   <tile/>
   <tile/>
   <tile/>
   <tile/>
   <tile/>
   <tile/>
   <tile gid="4114"/>
   <tile gid="4115"/>
   <tile gid="4116"/>
   <tile gid="4117"/>
   <tile/>
   <tile/>
   <tile gid="4368"/>
   <tile gid="4369"/>
   <tile gid="4370"/>
   <tile gid="4371"/>
   <tile gid="4048"/>
   <tile gid="4049"/>
   <tile gid="4050"/>
   <tile/>
   <tile/>
   <tile gid="4368"/>
   <tile gid="4369"/>
   <tile gid="4370"/>
   <tile gid="4371"/>
   <tile/>
   <tile/>
   <tile/>
   <tile/>
   <tile gid="4036"/>
   <tile gid="4037"/>
   <tile/>
   <tile/>
   <tile/>
   <tile/>
   <tile/>
   <tile/>
   <tile/>
   <tile gid="4232"/>
   <tile gid="4233"/>
   <tile gid="4234"/>
   <tile gid="4235"/>
   <tile/>
   <tile/>
   <tile/>
   <tile/>
   <tile/>
   <tile/>
   <tile/>
   <tile gid="4144"/>
   <tile gid="4145"/>
   <tile gid="4146"/>
   <tile gid="4147"/>
   <tile/>
   <tile/>
   <tile gid="4398"/>
   <tile gid="4399"/>
   <tile gid="4400"/>
   <tile gid="4401"/>
   <tile gid="4078"/>
   <tile gid="4079"/>
   <tile gid="4080"/>
   <tile/>
   <tile/>
   <tile gid="4398"/>
   <tile gid="4399"/>
   <tile gid="4400"/>
   <tile gid="4401"/>
   <tile/>
   <tile/>
   <tile/>
   <tile/>
   <tile gid="4066"/>
   <tile gid="4067"/>
   <tile/>
   <tile/>
   <tile/>
   <tile/>
   <tile/>
   <tile/>
   <tile/>
   <tile gid="4262"/>
   <tile gid="4263"/>
   <tile gid="4264"/>
   <tile gid="4265"/>
   <tile/>
   <tile/>
   <tile/>
   <tile/>
   <tile/>
   <tile/>
   <tile/>
   <tile/>
   <tile/>
   <tile/>
   <tile/>
   <tile/>
   <tile/>
   <tile/>
   <tile/>
   <tile/>
   <tile/>
   <tile gid="4108"/>
   <tile gid="4109"/>
   <tile gid="4110"/>
   <tile/>
   <tile/>
   <tile/>
   <tile/>
   <tile/>
   <tile/>
   <tile/>
   <tile/>
   <tile/>
   <tile/>
   <tile gid="4096"/>
   <tile gid="4097"/>
   <tile/>
   <tile/>
   <tile/>
   <tile/>
   <tile/>
   <tile/>
   <tile/>
   <tile/>
   <tile/>
   <tile/>
   <tile/>
   <tile/>
   <tile/>
   <tile/>
   <tile/>
   <tile/>
   <tile/>
   <tile/>
   <tile/>
   <tile/>
   <tile/>
   <tile/>
   <tile/>
   <tile/>
   <tile/>
   <tile/>
   <tile/>
   <tile/>
   <tile/>
   <tile/>
   <tile/>
   <tile/>
   <tile/>
   <tile/>
   <tile/>
   <tile/>
   <tile/>
   <tile/>
   <tile/>
   <tile/>
   <tile/>
   <tile/>
   <tile/>
   <tile/>
   <tile/>
   <tile/>
   <tile/>
   <tile/>
   <tile/>
   <tile/>
   <tile/>
   <tile/>
   <tile/>
   <tile/>
   <tile/>
   <tile/>
   <tile/>
  </data>
 </layer>
 <layer id="45" name="Rocks First Layer" width="43" height="21" parallaxx="0" parallaxy="0">
  <properties>
   <property name="Draw" type="bool" value="true"/>
  </properties>
  <data>
   <tile/>
   <tile/>
   <tile/>
   <tile/>
   <tile/>
   <tile/>
   <tile/>
   <tile/>
   <tile/>
   <tile/>
   <tile/>
   <tile/>
   <tile/>
   <tile/>
   <tile/>
   <tile/>
   <tile/>
   <tile/>
   <tile/>
   <tile/>
   <tile/>
   <tile/>
   <tile/>
   <tile/>
   <tile/>
   <tile/>
   <tile/>
   <tile/>
   <tile/>
   <tile/>
   <tile/>
   <tile/>
   <tile/>
   <tile/>
   <tile/>
   <tile/>
   <tile/>
   <tile/>
   <tile/>
   <tile/>
   <tile/>
   <tile/>
   <tile/>
   <tile/>
   <tile/>
   <tile/>
   <tile/>
   <tile/>
   <tile/>
   <tile/>
   <tile/>
   <tile/>
   <tile/>
   <tile/>
   <tile/>
   <tile/>
   <tile/>
   <tile/>
   <tile/>
   <tile/>
   <tile/>
   <tile/>
   <tile/>
   <tile/>
   <tile/>
   <tile/>
   <tile/>
   <tile/>
   <tile/>
   <tile/>
   <tile/>
   <tile/>
   <tile/>
   <tile/>
   <tile/>
   <tile/>
   <tile/>
   <tile/>
   <tile/>
   <tile/>
   <tile/>
   <tile/>
   <tile/>
   <tile/>
   <tile/>
   <tile/>
   <tile/>
   <tile/>
   <tile/>
   <tile/>
   <tile/>
   <tile/>
   <tile/>
   <tile/>
   <tile/>
   <tile/>
   <tile/>
   <tile/>
   <tile/>
   <tile/>
   <tile/>
   <tile/>
   <tile/>
   <tile/>
   <tile/>
   <tile/>
   <tile gid="3221230526"/>
   <tile gid="3221230525"/>
   <tile gid="3221230524"/>
   <tile gid="3221230523"/>
   <tile gid="3221230522"/>
   <tile gid="3221230521"/>
   <tile gid="3221230520"/>
   <tile gid="3221230519"/>
   <tile gid="3221230518"/>
   <tile gid="3221230517"/>
   <tile/>
   <tile/>
   <tile/>
   <tile/>
   <tile/>
   <tile/>
   <tile/>
   <tile/>
   <tile/>
   <tile/>
   <tile/>
   <tile/>
   <tile/>
   <tile/>
   <tile/>
   <tile/>
   <tile/>
   <tile/>
   <tile gid="3221230639"/>
   <tile gid="3221230638"/>
   <tile gid="3221230637"/>
   <tile gid="3221230636"/>
   <tile gid="3221230635"/>
   <tile gid="3221230634"/>
   <tile gid="3221230633"/>
   <tile/>
   <tile/>
   <tile/>
   <tile/>
   <tile/>
   <tile/>
   <tile/>
   <tile/>
   <tile gid="3221230496"/>
   <tile gid="3221230495"/>
   <tile gid="3221230494"/>
   <tile gid="3221230493"/>
   <tile gid="3221230492"/>
   <tile gid="3221230491"/>
   <tile gid="3221230490"/>
   <tile gid="3221230489"/>
   <tile gid="3221230488"/>
   <tile gid="3221230487"/>
   <tile/>
   <tile gid="3221230639"/>
   <tile gid="3221230638"/>
   <tile gid="3221230637"/>
   <tile gid="3221230636"/>
   <tile gid="3221230635"/>
   <tile gid="3221230634"/>
   <tile gid="3221230633"/>
   <tile/>
   <tile/>
   <tile/>
   <tile/>
   <tile/>
   <tile/>
   <tile/>
   <tile/>
   <tile/>
   <tile/>
   <tile gid="3221230609"/>
   <tile gid="3221230608"/>
   <tile gid="3221230607"/>
   <tile gid="3221230606"/>
   <tile gid="3221230605"/>
   <tile gid="3221230604"/>
   <tile gid="3221230603"/>
   <tile/>
   <tile/>
   <tile/>
   <tile/>
   <tile/>
   <tile/>
   <tile/>
   <tile/>
   <tile gid="3221230466"/>
   <tile gid="3221230465"/>
   <tile gid="3221230464"/>
   <tile gid="3221230463"/>
   <tile gid="3221230462"/>
   <tile gid="3221230461"/>
   <tile gid="3221230460"/>
   <tile gid="3221230459"/>
   <tile gid="3221230458"/>
   <tile gid="3221230457"/>
   <tile/>
   <tile gid="3221230609"/>
   <tile gid="3221230608"/>
   <tile gid="3221230607"/>
   <tile gid="3221230606"/>
   <tile gid="3221230605"/>
   <tile gid="3221230604"/>
   <tile gid="3221230603"/>
   <tile/>
   <tile gid="1610617970"/>
   <tile gid="1610618000"/>
   <tile gid="1610618030"/>
   <tile gid="1610618060"/>
   <tile/>
   <tile/>
   <tile/>
   <tile/>
   <tile/>
   <tile gid="3221230579"/>
   <tile gid="3221230578"/>
   <tile gid="3221230577"/>
   <tile gid="3221230576"/>
   <tile gid="3221230575"/>
   <tile gid="3221230574"/>
   <tile gid="3221230573"/>
   <tile/>
   <tile/>
   <tile/>
   <tile/>
   <tile/>
   <tile/>
   <tile/>
   <tile/>
   <tile gid="3221230436"/>
   <tile gid="3221230435"/>
   <tile gid="3221230434"/>
   <tile gid="3221230433"/>
   <tile gid="3221230432"/>
   <tile gid="3221230431"/>
   <tile gid="3221230430"/>
   <tile gid="3221230429"/>
   <tile gid="3221230428"/>
   <tile gid="3221230427"/>
   <tile/>
   <tile gid="3221230579"/>
   <tile gid="3221230578"/>
   <tile gid="3221230577"/>
   <tile gid="3221230576"/>
   <tile gid="3221230575"/>
   <tile gid="3221230574"/>
   <tile gid="3221230573"/>
   <tile/>
   <tile gid="1610617969"/>
   <tile gid="1610617999"/>
   <tile gid="1610618029"/>
   <tile gid="1610618059"/>
   <tile/>
   <tile/>
   <tile/>
   <tile/>
   <tile/>
   <tile gid="3221230549"/>
   <tile gid="3221230548"/>
   <tile gid="3221230547"/>
   <tile gid="3221230546"/>
   <tile gid="3221230545"/>
   <tile gid="3221230544"/>
   <tile gid="3221230543"/>
   <tile/>
   <tile/>
   <tile/>
   <tile/>
   <tile/>
   <tile/>
   <tile/>
   <tile/>
   <tile/>
   <tile/>
   <tile/>
   <tile/>
   <tile/>
   <tile/>
   <tile/>
   <tile/>
   <tile/>
   <tile/>
   <tile/>
   <tile gid="3221230549"/>
   <tile gid="3221230548"/>
   <tile gid="3221230547"/>
   <tile gid="3221230546"/>
   <tile gid="3221230545"/>
   <tile gid="3221230544"/>
   <tile gid="3221230543"/>
   <tile/>
   <tile gid="1610617968"/>
   <tile gid="1610617998"/>
   <tile gid="1610618028"/>
   <tile gid="1610618058"/>
   <tile/>
   <tile/>
   <tile/>
   <tile/>
   <tile/>
   <tile/>
   <tile/>
   <tile/>
   <tile/>
   <tile/>
   <tile/>
   <tile/>
   <tile/>
   <tile/>
   <tile/>
   <tile/>
   <tile/>
   <tile/>
   <tile/>
   <tile/>
   <tile/>
   <tile/>
   <tile/>
   <tile/>
   <tile/>
   <tile/>
   <tile/>
   <tile/>
   <tile/>
   <tile/>
   <tile/>
   <tile/>
   <tile gid="2684359698"/>
   <tile gid="2684359668"/>
   <tile gid="2684359638"/>
   <tile/>
   <tile/>
   <tile/>
   <tile/>
   <tile gid="1610617967"/>
   <tile gid="1610617997"/>
   <tile gid="1610618027"/>
   <tile gid="1610618057"/>
   <tile/>
   <tile/>
   <tile/>
   <tile/>
   <tile/>
   <tile/>
   <tile/>
   <tile/>
   <tile/>
   <tile/>
   <tile/>
   <tile/>
   <tile/>
   <tile/>
   <tile/>
   <tile/>
   <tile/>
   <tile/>
   <tile/>
   <tile/>
   <tile/>
   <tile gid="5615"/>
   <tile gid="5616"/>
   <tile gid="5617"/>
   <tile gid="5618"/>
   <tile gid="5619"/>
   <tile gid="5620"/>
   <tile gid="5621"/>
   <tile gid="5622"/>
   <tile/>
   <tile/>
   <tile gid="2684359729"/>
   <tile gid="2684359699"/>
   <tile gid="2684359669"/>
   <tile gid="2684359639"/>
   <tile/>
   <tile/>
   <tile/>
   <tile/>
   <tile gid="1610617966"/>
   <tile gid="1610617996"/>
   <tile gid="1610618026"/>
   <tile gid="1610618056"/>
   <tile/>
   <tile/>
   <tile/>
   <tile/>
   <tile/>
   <tile/>
   <tile/>
   <tile/>
   <tile/>
   <tile/>
   <tile/>
   <tile/>
   <tile/>
   <tile/>
   <tile/>
   <tile/>
   <tile/>
   <tile/>
   <tile/>
   <tile/>
   <tile/>
   <tile gid="5645"/>
   <tile gid="5646"/>
   <tile gid="5647"/>
   <tile gid="5648"/>
   <tile gid="5649"/>
   <tile gid="5650"/>
   <tile gid="5651"/>
   <tile gid="5652"/>
   <tile/>
   <tile/>
   <tile gid="2684359730"/>
   <tile gid="2684359700"/>
   <tile gid="2684359670"/>
   <tile gid="2684359640"/>
   <tile/>
   <tile/>
   <tile/>
   <tile/>
   <tile gid="1610617965"/>
   <tile gid="1610617995"/>
   <tile gid="1610618025"/>
   <tile gid="1610618055"/>
   <tile/>
   <tile/>
   <tile/>
   <tile/>
   <tile/>
   <tile/>
   <tile/>
   <tile/>
   <tile/>
   <tile/>
   <tile/>
   <tile/>
   <tile/>
   <tile/>
   <tile/>
   <tile/>
   <tile/>
   <tile/>
   <tile/>
   <tile/>
   <tile/>
   <tile gid="5675"/>
   <tile gid="5676"/>
   <tile gid="5677"/>
   <tile gid="5678"/>
   <tile gid="5679"/>
   <tile gid="5680"/>
   <tile gid="5681"/>
   <tile gid="5682"/>
   <tile/>
   <tile/>
   <tile gid="2684359731"/>
   <tile gid="2684359701"/>
   <tile gid="2684359671"/>
   <tile gid="2684359641"/>
   <tile/>
   <tile/>
   <tile/>
   <tile/>
   <tile gid="1610617964"/>
   <tile gid="1610617994"/>
   <tile gid="1610618024"/>
   <tile gid="1610618054"/>
   <tile/>
   <tile/>
   <tile/>
   <tile/>
   <tile/>
   <tile/>
   <tile/>
   <tile/>
   <tile/>
   <tile/>
   <tile/>
   <tile/>
   <tile/>
   <tile/>
   <tile/>
   <tile/>
   <tile/>
   <tile/>
   <tile/>
   <tile/>
   <tile/>
   <tile gid="5705"/>
   <tile gid="5706"/>
   <tile gid="5707"/>
   <tile gid="5708"/>
   <tile gid="5709"/>
   <tile gid="5710"/>
   <tile gid="5711"/>
   <tile gid="5712"/>
   <tile/>
   <tile/>
   <tile gid="2684359732"/>
   <tile gid="2684359702"/>
   <tile gid="2684359672"/>
   <tile gid="2684359642"/>
   <tile/>
   <tile/>
   <tile/>
   <tile/>
   <tile gid="1610617963"/>
   <tile gid="1610617993"/>
   <tile gid="1610618023"/>
   <tile gid="1610618053"/>
   <tile/>
   <tile/>
   <tile/>
   <tile/>
   <tile/>
   <tile/>
   <tile/>
   <tile/>
   <tile/>
   <tile/>
   <tile/>
   <tile/>
   <tile/>
   <tile/>
   <tile/>
   <tile/>
   <tile/>
   <tile/>
   <tile/>
   <tile/>
   <tile/>
   <tile/>
   <tile/>
   <tile/>
   <tile/>
   <tile/>
   <tile/>
   <tile/>
   <tile/>
   <tile/>
   <tile/>
   <tile gid="2684359733"/>
   <tile gid="2684359703"/>
   <tile gid="2684359673"/>
   <tile gid="2684359643"/>
   <tile/>
   <tile/>
   <tile/>
   <tile/>
   <tile gid="1610617962"/>
   <tile gid="1610617992"/>
   <tile gid="1610618022"/>
   <tile gid="1610618052"/>
   <tile/>
   <tile/>
   <tile/>
   <tile/>
   <tile/>
   <tile/>
   <tile/>
   <tile/>
   <tile/>
   <tile/>
   <tile/>
   <tile/>
   <tile/>
   <tile/>
   <tile/>
   <tile/>
   <tile/>
   <tile/>
   <tile/>
   <tile/>
   <tile/>
   <tile/>
   <tile/>
   <tile/>
   <tile/>
   <tile/>
   <tile/>
   <tile/>
   <tile/>
   <tile/>
   <tile/>
   <tile gid="2684359734"/>
   <tile gid="2684359704"/>
   <tile gid="2684359674"/>
   <tile gid="2684359644"/>
   <tile/>
   <tile/>
   <tile/>
   <tile/>
   <tile gid="1610617961"/>
   <tile gid="1610617991"/>
   <tile gid="1610618021"/>
   <tile gid="1610618051"/>
   <tile/>
   <tile/>
   <tile/>
   <tile/>
   <tile/>
   <tile/>
   <tile/>
   <tile/>
   <tile/>
   <tile/>
   <tile/>
   <tile/>
   <tile/>
   <tile/>
   <tile/>
   <tile/>
   <tile/>
   <tile/>
   <tile/>
   <tile/>
   <tile/>
   <tile/>
   <tile/>
   <tile/>
   <tile/>
   <tile/>
   <tile/>
   <tile/>
   <tile/>
   <tile/>
   <tile/>
   <tile/>
   <tile/>
   <tile/>
   <tile/>
   <tile/>
   <tile/>
   <tile/>
   <tile/>
   <tile/>
   <tile/>
   <tile/>
   <tile/>
   <tile/>
   <tile/>
   <tile/>
   <tile/>
   <tile/>
   <tile/>
   <tile/>
   <tile/>
   <tile/>
   <tile/>
   <tile/>
   <tile/>
   <tile/>
   <tile/>
   <tile/>
   <tile/>
   <tile/>
   <tile/>
   <tile/>
   <tile/>
   <tile/>
   <tile/>
   <tile/>
   <tile/>
   <tile/>
   <tile/>
   <tile/>
   <tile/>
   <tile/>
   <tile/>
   <tile/>
   <tile/>
   <tile/>
   <tile/>
   <tile/>
   <tile/>
   <tile/>
   <tile/>
   <tile/>
   <tile/>
   <tile/>
   <tile/>
   <tile/>
   <tile/>
   <tile/>
   <tile/>
   <tile/>
   <tile/>
   <tile/>
   <tile/>
   <tile/>
   <tile/>
   <tile/>
   <tile/>
   <tile gid="5225"/>
   <tile gid="5226"/>
   <tile gid="5227"/>
   <tile gid="5228"/>
   <tile gid="5229"/>
   <tile gid="5230"/>
   <tile gid="5231"/>
   <tile gid="5232"/>
   <tile gid="5233"/>
   <tile gid="5234"/>
   <tile/>
   <tile/>
   <tile/>
   <tile/>
   <tile/>
   <tile/>
   <tile/>
   <tile/>
   <tile/>
   <tile/>
   <tile/>
   <tile/>
   <tile/>
   <tile/>
   <tile/>
   <tile/>
   <tile/>
   <tile/>
   <tile/>
   <tile/>
   <tile/>
   <tile/>
   <tile/>
   <tile/>
   <tile/>
   <tile/>
   <tile/>
   <tile/>
   <tile/>
   <tile/>
   <tile/>
   <tile/>
   <tile/>
   <tile gid="5255"/>
   <tile gid="5256"/>
   <tile gid="5257"/>
   <tile gid="5258"/>
   <tile gid="5259"/>
   <tile gid="5260"/>
   <tile gid="5261"/>
   <tile gid="5262"/>
   <tile gid="5263"/>
   <tile gid="5264"/>
   <tile/>
   <tile/>
   <tile/>
   <tile/>
   <tile/>
   <tile/>
   <tile/>
   <tile/>
   <tile/>
   <tile/>
   <tile/>
   <tile/>
   <tile/>
   <tile/>
   <tile/>
   <tile/>
   <tile/>
   <tile/>
   <tile/>
   <tile/>
   <tile/>
   <tile/>
   <tile/>
   <tile/>
   <tile/>
   <tile/>
   <tile/>
   <tile/>
   <tile/>
   <tile/>
   <tile/>
   <tile/>
   <tile/>
   <tile gid="5285"/>
   <tile gid="5286"/>
   <tile gid="5287"/>
   <tile gid="5288"/>
   <tile gid="5289"/>
   <tile gid="5290"/>
   <tile gid="5291"/>
   <tile gid="5292"/>
   <tile gid="5293"/>
   <tile gid="5294"/>
   <tile/>
   <tile/>
   <tile/>
   <tile/>
   <tile/>
   <tile/>
   <tile/>
   <tile/>
   <tile/>
   <tile/>
   <tile/>
   <tile/>
   <tile/>
   <tile/>
   <tile/>
   <tile/>
   <tile/>
   <tile/>
   <tile/>
   <tile/>
   <tile/>
   <tile/>
   <tile/>
   <tile/>
   <tile/>
   <tile/>
   <tile/>
   <tile/>
   <tile/>
   <tile/>
   <tile/>
   <tile/>
   <tile/>
   <tile gid="5315"/>
   <tile gid="5316"/>
   <tile gid="5317"/>
   <tile gid="5318"/>
   <tile gid="5319"/>
   <tile gid="5320"/>
   <tile gid="5321"/>
   <tile gid="5322"/>
   <tile gid="5323"/>
   <tile gid="5324"/>
   <tile/>
   <tile/>
   <tile/>
   <tile/>
   <tile/>
   <tile/>
   <tile/>
   <tile/>
   <tile/>
   <tile/>
   <tile/>
   <tile/>
   <tile/>
   <tile/>
   <tile/>
   <tile/>
   <tile/>
   <tile/>
   <tile/>
   <tile/>
   <tile/>
   <tile/>
   <tile/>
   <tile/>
   <tile/>
   <tile/>
   <tile/>
   <tile/>
   <tile/>
   <tile/>
   <tile/>
   <tile/>
   <tile/>
   <tile/>
   <tile/>
   <tile/>
   <tile/>
   <tile/>
   <tile/>
   <tile/>
   <tile/>
   <tile/>
   <tile/>
   <tile/>
   <tile/>
   <tile/>
   <tile/>
   <tile/>
   <tile/>
   <tile/>
   <tile/>
   <tile/>
   <tile/>
   <tile/>
   <tile/>
   <tile/>
   <tile/>
   <tile/>
   <tile/>
   <tile/>
   <tile/>
   <tile/>
   <tile/>
   <tile/>
   <tile/>
  </data>
 </layer>
 <layer id="77" name="Fog1" width="43" height="21">
  <properties>
   <property name="Draw" type="bool" value="true"/>
  </properties>
  <data>
   <tile/>
   <tile/>
   <tile/>
   <tile/>
   <tile/>
   <tile/>
   <tile/>
   <tile/>
   <tile/>
   <tile/>
   <tile/>
   <tile/>
   <tile/>
   <tile/>
   <tile/>
   <tile/>
   <tile/>
   <tile/>
   <tile/>
   <tile/>
   <tile/>
   <tile/>
   <tile/>
   <tile/>
   <tile/>
   <tile/>
   <tile/>
   <tile/>
   <tile/>
   <tile/>
   <tile/>
   <tile/>
   <tile/>
   <tile/>
   <tile/>
   <tile/>
   <tile/>
   <tile/>
   <tile/>
   <tile/>
   <tile/>
   <tile/>
   <tile/>
   <tile/>
   <tile/>
   <tile/>
   <tile/>
   <tile/>
   <tile/>
   <tile/>
   <tile/>
   <tile/>
   <tile/>
   <tile/>
   <tile/>
   <tile/>
   <tile/>
   <tile/>
   <tile/>
   <tile/>
   <tile/>
   <tile/>
   <tile/>
   <tile/>
   <tile/>
   <tile/>
   <tile/>
   <tile/>
   <tile/>
   <tile/>
   <tile/>
   <tile/>
   <tile/>
   <tile/>
   <tile/>
   <tile/>
   <tile/>
   <tile/>
   <tile/>
   <tile/>
   <tile/>
   <tile/>
   <tile/>
   <tile/>
   <tile/>
   <tile/>
   <tile/>
   <tile/>
   <tile/>
   <tile/>
   <tile/>
   <tile/>
   <tile/>
   <tile/>
   <tile/>
   <tile/>
   <tile/>
   <tile/>
   <tile/>
   <tile/>
   <tile/>
   <tile/>
   <tile/>
   <tile/>
   <tile/>
   <tile/>
   <tile/>
   <tile/>
   <tile/>
   <tile/>
   <tile/>
   <tile/>
   <tile/>
   <tile/>
   <tile/>
   <tile/>
   <tile/>
   <tile/>
   <tile/>
   <tile/>
   <tile/>
   <tile/>
   <tile/>
   <tile/>
   <tile/>
   <tile/>
   <tile/>
   <tile/>
   <tile/>
   <tile/>
   <tile/>
   <tile/>
   <tile/>
   <tile/>
   <tile/>
   <tile/>
   <tile/>
   <tile/>
   <tile/>
   <tile/>
   <tile/>
   <tile/>
   <tile/>
   <tile/>
   <tile/>
   <tile/>
   <tile/>
   <tile/>
   <tile/>
   <tile/>
   <tile/>
   <tile/>
   <tile/>
   <tile/>
   <tile/>
   <tile/>
   <tile/>
   <tile/>
   <tile/>
   <tile/>
   <tile/>
   <tile/>
   <tile/>
   <tile/>
   <tile/>
   <tile/>
   <tile/>
   <tile/>
   <tile/>
   <tile/>
   <tile/>
   <tile/>
   <tile/>
   <tile/>
   <tile/>
   <tile/>
   <tile/>
   <tile/>
   <tile/>
   <tile/>
   <tile/>
   <tile/>
   <tile/>
   <tile/>
   <tile/>
   <tile/>
   <tile/>
   <tile/>
   <tile/>
   <tile/>
   <tile/>
   <tile/>
   <tile/>
   <tile/>
   <tile/>
   <tile/>
   <tile/>
   <tile/>
   <tile/>
   <tile/>
   <tile/>
   <tile/>
   <tile/>
   <tile/>
   <tile/>
   <tile/>
   <tile/>
   <tile/>
   <tile/>
   <tile/>
   <tile/>
   <tile/>
   <tile/>
   <tile/>
   <tile/>
   <tile/>
   <tile/>
   <tile/>
   <tile/>
   <tile/>
   <tile/>
   <tile/>
   <tile/>
   <tile/>
   <tile/>
   <tile/>
   <tile/>
   <tile/>
   <tile/>
   <tile/>
   <tile/>
   <tile/>
   <tile/>
   <tile/>
   <tile/>
   <tile/>
   <tile/>
   <tile/>
   <tile/>
   <tile/>
   <tile/>
   <tile/>
   <tile/>
   <tile/>
   <tile/>
   <tile/>
   <tile/>
   <tile/>
   <tile/>
   <tile/>
   <tile/>
   <tile/>
   <tile/>
   <tile/>
   <tile/>
   <tile/>
   <tile/>
   <tile/>
   <tile/>
   <tile/>
   <tile/>
   <tile/>
   <tile/>
   <tile/>
   <tile/>
   <tile/>
   <tile/>
   <tile/>
   <tile/>
   <tile/>
   <tile/>
   <tile/>
   <tile/>
   <tile/>
   <tile/>
   <tile/>
   <tile/>
   <tile/>
   <tile/>
   <tile/>
   <tile/>
   <tile/>
   <tile/>
   <tile/>
   <tile/>
   <tile/>
   <tile/>
   <tile/>
   <tile/>
   <tile/>
   <tile/>
   <tile/>
   <tile/>
   <tile/>
   <tile/>
   <tile/>
   <tile/>
   <tile/>
   <tile/>
   <tile/>
   <tile/>
   <tile/>
   <tile/>
   <tile/>
   <tile/>
   <tile/>
   <tile/>
   <tile/>
   <tile/>
   <tile/>
   <tile/>
   <tile/>
   <tile/>
   <tile/>
   <tile/>
   <tile/>
   <tile/>
   <tile/>
   <tile/>
   <tile/>
   <tile/>
   <tile/>
   <tile/>
   <tile/>
   <tile/>
   <tile/>
   <tile/>
   <tile/>
   <tile/>
   <tile/>
   <tile/>
   <tile/>
   <tile/>
   <tile/>
   <tile/>
   <tile/>
   <tile/>
   <tile/>
   <tile/>
   <tile/>
   <tile/>
   <tile/>
   <tile/>
   <tile/>
   <tile/>
   <tile/>
   <tile/>
   <tile/>
   <tile/>
   <tile/>
   <tile/>
   <tile/>
   <tile/>
   <tile/>
   <tile/>
   <tile/>
   <tile/>
   <tile/>
   <tile/>
   <tile/>
   <tile/>
   <tile/>
   <tile/>
   <tile/>
   <tile/>
   <tile/>
   <tile/>
   <tile/>
   <tile/>
   <tile/>
   <tile/>
   <tile/>
   <tile/>
   <tile/>
   <tile/>
   <tile/>
   <tile/>
   <tile/>
   <tile/>
   <tile/>
   <tile/>
   <tile/>
   <tile/>
   <tile/>
   <tile/>
   <tile/>
   <tile/>
   <tile/>
   <tile/>
   <tile/>
   <tile/>
   <tile/>
   <tile/>
   <tile/>
   <tile/>
   <tile/>
   <tile/>
   <tile/>
   <tile/>
   <tile/>
   <tile/>
   <tile/>
   <tile/>
   <tile/>
   <tile/>
   <tile/>
   <tile/>
   <tile/>
   <tile/>
   <tile/>
   <tile/>
   <tile/>
   <tile/>
   <tile/>
   <tile/>
   <tile/>
   <tile/>
   <tile/>
   <tile/>
   <tile/>
   <tile/>
   <tile/>
   <tile/>
   <tile/>
   <tile/>
   <tile/>
   <tile/>
   <tile/>
   <tile/>
   <tile/>
   <tile/>
   <tile/>
   <tile/>
   <tile/>
   <tile/>
   <tile/>
   <tile/>
   <tile/>
   <tile/>
   <tile/>
   <tile/>
   <tile/>
   <tile/>
   <tile/>
   <tile/>
   <tile/>
   <tile/>
   <tile/>
   <tile/>
   <tile/>
   <tile/>
   <tile/>
   <tile/>
   <tile/>
   <tile/>
   <tile/>
   <tile/>
   <tile/>
   <tile/>
   <tile/>
   <tile/>
   <tile/>
   <tile/>
   <tile/>
   <tile/>
   <tile/>
   <tile/>
   <tile/>
   <tile/>
   <tile/>
   <tile/>
   <tile/>
   <tile/>
   <tile/>
   <tile/>
   <tile/>
   <tile/>
   <tile/>
   <tile/>
   <tile/>
   <tile/>
   <tile/>
   <tile/>
   <tile/>
   <tile/>
   <tile/>
   <tile/>
   <tile/>
   <tile/>
   <tile/>
   <tile/>
   <tile/>
   <tile/>
   <tile/>
   <tile/>
   <tile/>
   <tile/>
   <tile/>
   <tile/>
   <tile/>
   <tile/>
   <tile/>
   <tile/>
   <tile/>
   <tile/>
   <tile/>
   <tile/>
   <tile/>
   <tile/>
   <tile/>
   <tile/>
   <tile/>
   <tile/>
   <tile/>
   <tile/>
   <tile/>
   <tile/>
   <tile/>
   <tile/>
   <tile/>
   <tile/>
   <tile/>
   <tile/>
   <tile/>
   <tile/>
   <tile/>
   <tile/>
   <tile/>
   <tile/>
   <tile/>
   <tile/>
   <tile/>
   <tile/>
   <tile/>
   <tile/>
   <tile/>
   <tile/>
   <tile/>
   <tile/>
   <tile/>
   <tile/>
   <tile/>
   <tile/>
   <tile/>
   <tile/>
   <tile/>
   <tile/>
   <tile/>
   <tile/>
   <tile/>
   <tile/>
   <tile/>
   <tile/>
   <tile/>
   <tile/>
   <tile/>
   <tile/>
   <tile/>
   <tile/>
   <tile/>
   <tile/>
   <tile/>
   <tile/>
   <tile/>
   <tile/>
   <tile/>
   <tile/>
   <tile/>
   <tile/>
   <tile/>
   <tile/>
   <tile/>
   <tile/>
   <tile/>
   <tile/>
   <tile/>
   <tile/>
   <tile/>
   <tile/>
   <tile/>
   <tile/>
   <tile/>
   <tile/>
   <tile/>
   <tile/>
   <tile/>
   <tile/>
   <tile/>
   <tile/>
   <tile/>
   <tile/>
   <tile/>
   <tile/>
   <tile/>
   <tile/>
   <tile/>
   <tile/>
   <tile/>
   <tile/>
   <tile/>
   <tile/>
   <tile/>
   <tile/>
   <tile/>
   <tile/>
   <tile/>
   <tile/>
   <tile/>
   <tile/>
   <tile/>
   <tile/>
   <tile/>
   <tile/>
   <tile/>
   <tile/>
   <tile/>
   <tile/>
   <tile/>
   <tile/>
   <tile/>
   <tile/>
   <tile/>
   <tile/>
   <tile/>
   <tile/>
   <tile/>
   <tile/>
   <tile/>
   <tile/>
   <tile/>
   <tile/>
   <tile/>
   <tile/>
   <tile/>
   <tile/>
   <tile/>
   <tile/>
   <tile/>
   <tile/>
   <tile/>
   <tile/>
   <tile/>
   <tile/>
   <tile/>
   <tile/>
   <tile/>
   <tile/>
   <tile/>
   <tile/>
   <tile/>
   <tile/>
   <tile/>
   <tile/>
   <tile/>
   <tile/>
   <tile/>
   <tile/>
   <tile/>
   <tile/>
   <tile/>
   <tile/>
   <tile/>
   <tile/>
   <tile/>
   <tile/>
   <tile/>
   <tile/>
   <tile/>
   <tile/>
   <tile/>
   <tile/>
   <tile/>
   <tile/>
   <tile/>
   <tile/>
   <tile/>
   <tile/>
   <tile/>
   <tile/>
   <tile/>
   <tile/>
   <tile/>
   <tile/>
   <tile/>
   <tile/>
   <tile/>
   <tile/>
   <tile/>
   <tile/>
   <tile/>
   <tile/>
   <tile/>
   <tile/>
   <tile/>
   <tile/>
   <tile/>
   <tile/>
   <tile/>
   <tile/>
   <tile/>
   <tile/>
   <tile/>
   <tile/>
   <tile/>
   <tile/>
   <tile/>
   <tile/>
   <tile/>
   <tile/>
   <tile/>
   <tile/>
   <tile/>
   <tile/>
   <tile/>
   <tile/>
   <tile/>
   <tile/>
   <tile/>
   <tile/>
   <tile/>
   <tile/>
   <tile/>
   <tile/>
   <tile/>
   <tile/>
   <tile/>
   <tile/>
   <tile/>
   <tile/>
   <tile/>
   <tile/>
   <tile/>
   <tile/>
   <tile/>
   <tile/>
   <tile/>
   <tile/>
   <tile/>
   <tile/>
   <tile/>
   <tile/>
   <tile/>
   <tile/>
   <tile/>
   <tile/>
   <tile/>
   <tile/>
   <tile/>
   <tile/>
   <tile/>
   <tile/>
   <tile/>
   <tile/>
   <tile/>
   <tile/>
   <tile/>
   <tile/>
   <tile/>
   <tile/>
   <tile/>
   <tile/>
   <tile/>
   <tile/>
   <tile/>
   <tile/>
   <tile/>
   <tile/>
   <tile/>
   <tile/>
   <tile/>
   <tile/>
   <tile/>
   <tile/>
   <tile/>
   <tile/>
   <tile/>
   <tile/>
   <tile/>
   <tile/>
   <tile/>
   <tile/>
   <tile/>
   <tile/>
   <tile/>
   <tile/>
   <tile/>
   <tile/>
   <tile/>
   <tile/>
   <tile/>
   <tile/>
   <tile/>
   <tile/>
   <tile/>
   <tile/>
   <tile/>
   <tile/>
   <tile/>
   <tile/>
   <tile/>
   <tile/>
   <tile/>
   <tile/>
   <tile/>
   <tile/>
   <tile/>
   <tile/>
   <tile/>
   <tile/>
   <tile/>
   <tile/>
   <tile/>
   <tile/>
   <tile/>
   <tile/>
   <tile/>
   <tile/>
   <tile/>
   <tile/>
   <tile/>
   <tile/>
   <tile/>
   <tile/>
   <tile/>
   <tile/>
   <tile/>
   <tile/>
   <tile/>
   <tile/>
   <tile/>
   <tile/>
   <tile/>
   <tile/>
   <tile/>
   <tile/>
   <tile/>
   <tile/>
   <tile/>
   <tile/>
   <tile/>
   <tile/>
   <tile/>
   <tile/>
   <tile/>
   <tile/>
   <tile/>
   <tile/>
   <tile/>
   <tile/>
   <tile/>
   <tile/>
   <tile/>
   <tile/>
   <tile/>
   <tile/>
   <tile/>
   <tile/>
   <tile/>
   <tile/>
   <tile/>
   <tile/>
   <tile/>
   <tile/>
   <tile/>
   <tile/>
   <tile/>
   <tile/>
   <tile/>
   <tile/>
   <tile/>
   <tile/>
   <tile/>
   <tile/>
   <tile/>
   <tile/>
   <tile/>
   <tile/>
   <tile/>
   <tile/>
   <tile/>
   <tile/>
   <tile/>
   <tile/>
   <tile/>
   <tile/>
   <tile/>
   <tile/>
   <tile/>
   <tile/>
   <tile/>
   <tile/>
   <tile/>
   <tile/>
   <tile/>
   <tile/>
   <tile/>
   <tile/>
   <tile/>
   <tile/>
   <tile/>
   <tile/>
   <tile/>
   <tile/>
  </data>
 </layer>
 <layer id="23" name="Platforms" width="43" height="21" parallaxx="0" parallaxy="0">
  <properties>
   <property name="Draw" type="bool" value="true"/>
   <property name="Forward" type="bool" value="false"/>
  </properties>
  <data>
   <tile gid="12"/>
   <tile gid="12"/>
   <tile gid="12"/>
   <tile gid="12"/>
   <tile gid="12"/>
   <tile gid="12"/>
   <tile gid="12"/>
   <tile gid="12"/>
   <tile gid="7818"/>
   <tile gid="7818"/>
   <tile gid="7818"/>
   <tile gid="7818"/>
   <tile gid="7818"/>
   <tile gid="7818"/>
   <tile gid="7818"/>
   <tile gid="7818"/>
   <tile gid="7818"/>
   <tile gid="7818"/>
   <tile gid="7818"/>
   <tile gid="7818"/>
   <tile gid="7818"/>
   <tile gid="7818"/>
   <tile gid="7818"/>
   <tile gid="7818"/>
   <tile gid="7818"/>
   <tile gid="7818"/>
   <tile gid="7818"/>
   <tile gid="7818"/>
   <tile gid="7818"/>
   <tile gid="7818"/>
   <tile gid="7818"/>
   <tile gid="7818"/>
   <tile gid="7818"/>
   <tile gid="7818"/>
   <tile gid="7818"/>
   <tile gid="7818"/>
   <tile gid="7818"/>
   <tile gid="7818"/>
   <tile gid="12"/>
   <tile gid="12"/>
   <tile gid="12"/>
   <tile gid="12"/>
   <tile gid="12"/>
   <tile gid="12"/>
   <tile gid="12"/>
   <tile gid="12"/>
   <tile gid="12"/>
   <tile gid="12"/>
   <tile gid="7818"/>
   <tile gid="7818"/>
   <tile gid="7818"/>
   <tile gid="7818"/>
   <tile gid="7818"/>
   <tile gid="7818"/>
   <tile gid="7818"/>
   <tile gid="7818"/>
   <tile gid="7818"/>
   <tile gid="7818"/>
   <tile gid="7818"/>
   <tile gid="7818"/>
   <tile gid="7818"/>
   <tile gid="7818"/>
   <tile gid="7818"/>
   <tile gid="7818"/>
   <tile gid="7818"/>
   <tile gid="7818"/>
   <tile gid="7818"/>
   <tile gid="7818"/>
   <tile gid="7818"/>
   <tile gid="7818"/>
   <tile gid="7818"/>
   <tile gid="7818"/>
   <tile gid="7818"/>
   <tile gid="7818"/>
   <tile gid="7818"/>
   <tile gid="7818"/>
   <tile gid="7818"/>
   <tile gid="7818"/>
   <tile gid="7818"/>
   <tile gid="7818"/>
   <tile gid="7818"/>
   <tile gid="12"/>
   <tile gid="12"/>
   <tile gid="12"/>
   <tile gid="12"/>
   <tile gid="12"/>
   <tile gid="12"/>
   <tile gid="12"/>
   <tile gid="12"/>
   <tile gid="12"/>
   <tile gid="7818"/>
   <tile gid="7810"/>
   <tile gid="7828"/>
   <tile gid="7828"/>
   <tile gid="7828"/>
   <tile gid="7828"/>
   <tile gid="7828"/>
   <tile gid="7828"/>
   <tile gid="7828"/>
   <tile gid="7828"/>
   <tile gid="7828"/>
   <tile gid="7828"/>
   <tile gid="7828"/>
   <tile gid="7828"/>
   <tile gid="7812"/>
   <tile gid="7810"/>
   <tile gid="7828"/>
   <tile gid="7828"/>
   <tile gid="7828"/>
   <tile gid="7828"/>
   <tile gid="7828"/>
   <tile gid="7828"/>
   <tile gid="7812"/>
   <tile gid="7810"/>
   <tile gid="7828"/>
   <tile gid="7828"/>
   <tile gid="7828"/>
   <tile gid="7828"/>
   <tile gid="7828"/>
   <tile gid="7828"/>
   <tile gid="7828"/>
   <tile gid="7828"/>
   <tile gid="7828"/>
   <tile gid="7828"/>
   <tile gid="7828"/>
   <tile gid="7828"/>
   <tile gid="7812"/>
   <tile gid="12"/>
   <tile gid="12"/>
   <tile gid="12"/>
   <tile gid="12"/>
   <tile gid="12"/>
   <tile gid="7819"/>
   <tile/>
   <tile/>
   <tile/>
   <tile/>
   <tile/>
   <tile/>
   <tile/>
   <tile/>
   <tile/>
   <tile/>
   <tile/>
   <tile/>
   <tile/>
   <tile/>
   <tile gid="7817"/>
   <tile gid="7819"/>
   <tile/>
   <tile/>
   <tile/>
   <tile/>
   <tile/>
   <tile/>
   <tile gid="7817"/>
   <tile gid="7819"/>
   <tile/>
   <tile/>
   <tile/>
   <tile/>
   <tile/>
   <tile/>
   <tile/>
   <tile/>
   <tile/>
   <tile gid="9145"/>
   <tile/>
   <tile/>
   <tile/>
   <tile/>
   <tile gid="12"/>
   <tile gid="12"/>
   <tile gid="12"/>
   <tile gid="12"/>
   <tile gid="7819"/>
   <tile/>
   <tile/>
   <tile/>
   <tile/>
   <tile/>
   <tile/>
   <tile/>
   <tile/>
   <tile/>
   <tile/>
   <tile/>
   <tile/>
   <tile/>
   <tile/>
   <tile gid="7817"/>
   <tile gid="7819"/>
   <tile/>
   <tile/>
   <tile/>
   <tile/>
   <tile/>
   <tile/>
   <tile gid="7817"/>
   <tile gid="7819"/>
   <tile/>
   <tile/>
   <tile/>
   <tile/>
   <tile/>
   <tile/>
   <tile/>
   <tile/>
   <tile/>
   <tile gid="9160"/>
   <tile/>
   <tile/>
   <tile/>
   <tile/>
   <tile gid="12"/>
   <tile gid="12"/>
   <tile gid="12"/>
   <tile gid="7818"/>
   <tile gid="7819"/>
   <tile/>
   <tile/>
   <tile/>
   <tile/>
   <tile/>
   <tile/>
   <tile/>
   <tile/>
   <tile/>
   <tile/>
   <tile/>
   <tile/>
   <tile/>
   <tile/>
   <tile gid="7817"/>
   <tile gid="7819"/>
   <tile/>
   <tile/>
   <tile/>
   <tile/>
   <tile/>
   <tile/>
   <tile gid="7817"/>
   <tile gid="7819"/>
   <tile/>
   <tile/>
   <tile/>
   <tile/>
   <tile/>
   <tile/>
   <tile/>
   <tile/>
   <tile/>
   <tile gid="9145"/>
   <tile/>
   <tile/>
   <tile/>
   <tile/>
   <tile gid="12"/>
   <tile gid="12"/>
   <tile gid="12"/>
   <tile gid="7818"/>
   <tile gid="2684362395"/>
   <tile gid="7838"/>
   <tile gid="7838"/>
   <tile gid="7838"/>
   <tile gid="7839"/>
   <tile/>
   <tile/>
   <tile/>
   <tile/>
   <tile/>
   <tile/>
   <tile/>
   <tile/>
   <tile/>
   <tile/>
   <tile gid="7817"/>
   <tile gid="7819"/>
   <tile/>
   <tile/>
   <tile/>
   <tile/>
   <tile/>
   <tile/>
   <tile gid="7817"/>
   <tile gid="7819"/>
   <tile/>
   <tile/>
   <tile/>
   <tile/>
   <tile/>
   <tile/>
   <tile/>
   <tile/>
   <tile/>
   <tile gid="9160"/>
   <tile/>
   <tile/>
   <tile/>
   <tile/>
   <tile gid="12"/>
   <tile gid="12"/>
   <tile gid="12"/>
   <tile gid="7818"/>
   <tile gid="7819"/>
   <tile/>
   <tile/>
   <tile/>
   <tile/>
   <tile/>
   <tile/>
   <tile/>
   <tile/>
   <tile/>
   <tile/>
   <tile/>
   <tile/>
   <tile/>
   <tile/>
   <tile gid="7817"/>
   <tile gid="7819"/>
   <tile/>
   <tile/>
   <tile/>
   <tile/>
   <tile/>
   <tile/>
   <tile gid="7817"/>
   <tile gid="7819"/>
   <tile/>
   <tile/>
   <tile/>
   <tile/>
   <tile/>
   <tile/>
   <tile/>
   <tile/>
   <tile/>
   <tile gid="9145"/>
   <tile/>
   <tile/>
   <tile/>
   <tile/>
   <tile gid="12"/>
   <tile gid="12"/>
   <tile gid="12"/>
   <tile gid="7818"/>
   <tile gid="7819"/>
   <tile/>
   <tile/>
   <tile/>
   <tile/>
   <tile/>
   <tile/>
   <tile/>
   <tile/>
   <tile/>
   <tile/>
   <tile/>
   <tile gid="7807"/>
   <tile gid="7808"/>
   <tile gid="7808"/>
   <tile gid="7832"/>
   <tile gid="7830"/>
   <tile gid="7808"/>
   <tile gid="7808"/>
   <tile gid="7808"/>
   <tile gid="7808"/>
   <tile gid="7808"/>
   <tile gid="7808"/>
   <tile gid="7832"/>
   <tile gid="7830"/>
   <tile gid="7808"/>
   <tile gid="7808"/>
   <tile gid="7809"/>
   <tile/>
   <tile/>
   <tile/>
   <tile/>
   <tile/>
   <tile/>
   <tile gid="9160"/>
   <tile/>
   <tile/>
   <tile/>
   <tile/>
   <tile gid="12"/>
   <tile gid="12"/>
   <tile gid="12"/>
   <tile gid="7818"/>
   <tile gid="7819"/>
   <tile/>
   <tile/>
   <tile/>
   <tile/>
   <tile/>
   <tile/>
   <tile/>
   <tile/>
   <tile/>
   <tile/>
   <tile/>
   <tile gid="7817"/>
   <tile gid="7810"/>
   <tile gid="7811"/>
   <tile gid="7811"/>
   <tile gid="7811"/>
   <tile gid="7811"/>
   <tile gid="7811"/>
   <tile gid="7811"/>
   <tile gid="7811"/>
   <tile gid="7811"/>
   <tile gid="7811"/>
   <tile gid="7811"/>
   <tile gid="7811"/>
   <tile gid="7811"/>
   <tile gid="7812"/>
   <tile gid="7819"/>
   <tile/>
   <tile/>
   <tile/>
   <tile/>
   <tile/>
   <tile/>
   <tile gid="9145"/>
   <tile/>
   <tile/>
   <tile/>
   <tile/>
   <tile gid="12"/>
   <tile gid="12"/>
   <tile gid="12"/>
   <tile gid="7818"/>
   <tile gid="7819"/>
   <tile/>
   <tile/>
   <tile/>
   <tile/>
   <tile/>
   <tile/>
   <tile/>
   <tile/>
   <tile/>
   <tile/>
   <tile/>
   <tile gid="7817"/>
   <tile gid="7820"/>
   <tile/>
   <tile/>
   <tile/>
   <tile/>
   <tile/>
   <tile/>
   <tile/>
   <tile/>
   <tile/>
   <tile/>
   <tile/>
   <tile/>
   <tile gid="7822"/>
   <tile gid="7819"/>
   <tile/>
   <tile/>
   <tile/>
   <tile/>
   <tile/>
   <tile/>
   <tile gid="9160"/>
   <tile/>
   <tile/>
   <tile/>
   <tile/>
   <tile gid="12"/>
   <tile gid="7828"/>
   <tile gid="12"/>
   <tile gid="12"/>
   <tile gid="7819"/>
   <tile/>
   <tile/>
   <tile/>
   <tile/>
   <tile/>
   <tile/>
   <tile/>
   <tile/>
   <tile/>
   <tile/>
   <tile/>
   <tile gid="7817"/>
   <tile gid="7820"/>
   <tile/>
   <tile/>
   <tile/>
   <tile/>
   <tile/>
   <tile/>
   <tile/>
   <tile/>
   <tile/>
   <tile/>
   <tile/>
   <tile/>
   <tile gid="7822"/>
   <tile gid="7819"/>
   <tile/>
   <tile/>
   <tile/>
   <tile/>
   <tile/>
   <tile/>
   <tile gid="9145"/>
   <tile/>
   <tile/>
   <tile/>
   <tile/>
   <tile gid="12"/>
   <tile gid="7828"/>
   <tile gid="7828"/>
   <tile gid="7828"/>
   <tile gid="7829"/>
   <tile/>
   <tile/>
   <tile/>
   <tile/>
   <tile/>
   <tile/>
   <tile/>
   <tile/>
   <tile/>
   <tile/>
   <tile/>
   <tile gid="7817"/>
   <tile gid="7830"/>
   <tile gid="7831"/>
   <tile gid="7831"/>
   <tile gid="7831"/>
   <tile gid="7831"/>
   <tile gid="7831"/>
   <tile gid="7831"/>
   <tile gid="7831"/>
   <tile gid="7831"/>
   <tile gid="7831"/>
   <tile gid="7831"/>
   <tile gid="7831"/>
   <tile gid="7831"/>
   <tile gid="7832"/>
   <tile gid="7819"/>
   <tile/>
   <tile/>
   <tile/>
   <tile/>
   <tile/>
   <tile/>
   <tile gid="9160"/>
   <tile/>
   <tile/>
   <tile/>
   <tile/>
   <tile gid="12"/>
   <tile/>
   <tile/>
   <tile/>
   <tile/>
   <tile/>
   <tile/>
   <tile/>
   <tile/>
   <tile/>
   <tile/>
   <tile/>
   <tile/>
   <tile/>
   <tile/>
   <tile/>
   <tile gid="7827"/>
   <tile gid="7828"/>
   <tile gid="7828"/>
   <tile gid="7828"/>
   <tile gid="7828"/>
   <tile gid="7828"/>
   <tile gid="7828"/>
   <tile gid="7828"/>
   <tile gid="7828"/>
   <tile gid="7828"/>
   <tile gid="7828"/>
   <tile gid="7828"/>
   <tile gid="7828"/>
   <tile gid="7828"/>
   <tile gid="7828"/>
   <tile gid="7829"/>
   <tile/>
   <tile/>
   <tile/>
   <tile/>
   <tile/>
   <tile/>
   <tile gid="9145"/>
   <tile/>
   <tile/>
   <tile/>
   <tile/>
   <tile gid="12"/>
   <tile/>
   <tile/>
   <tile/>
   <tile/>
   <tile/>
   <tile/>
   <tile/>
   <tile gid="3221233311"/>
   <tile gid="7839"/>
   <tile/>
   <tile/>
   <tile/>
   <tile/>
   <tile/>
   <tile/>
   <tile/>
   <tile/>
   <tile/>
   <tile/>
   <tile/>
   <tile/>
   <tile/>
   <tile/>
   <tile/>
   <tile/>
   <tile/>
   <tile/>
   <tile/>
   <tile/>
   <tile/>
   <tile/>
   <tile/>
   <tile/>
   <tile/>
   <tile/>
   <tile/>
   <tile/>
   <tile gid="9160"/>
   <tile/>
   <tile/>
   <tile/>
   <tile/>
   <tile gid="12"/>
   <tile/>
   <tile/>
   <tile/>
   <tile/>
   <tile/>
   <tile/>
   <tile/>
   <tile/>
   <tile/>
   <tile/>
   <tile/>
   <tile/>
   <tile/>
   <tile/>
   <tile/>
   <tile/>
   <tile/>
   <tile/>
   <tile/>
   <tile/>
   <tile/>
   <tile/>
   <tile/>
   <tile/>
   <tile/>
   <tile/>
   <tile/>
   <tile/>
   <tile/>
   <tile/>
   <tile/>
   <tile/>
   <tile/>
   <tile/>
   <tile/>
   <tile/>
   <tile/>
   <tile gid="9175"/>
   <tile/>
   <tile/>
   <tile/>
   <tile/>
   <tile gid="12"/>
   <tile gid="7854"/>
   <tile gid="7855"/>
   <tile gid="7856"/>
   <tile gid="2147491507"/>
   <tile/>
   <tile/>
   <tile/>
   <tile/>
   <tile/>
   <tile/>
   <tile/>
   <tile/>
   <tile/>
   <tile/>
   <tile/>
   <tile/>
   <tile/>
   <tile/>
   <tile/>
   <tile/>
   <tile/>
   <tile/>
   <tile/>
   <tile/>
   <tile/>
   <tile/>
   <tile/>
   <tile/>
   <tile/>
   <tile/>
   <tile/>
   <tile/>
   <tile/>
   <tile/>
   <tile/>
   <tile/>
   <tile/>
   <tile/>
   <tile/>
   <tile/>
   <tile/>
   <tile/>
   <tile gid="12"/>
   <tile gid="12"/>
   <tile gid="12"/>
   <tile gid="12"/>
   <tile gid="7820"/>
   <tile/>
   <tile/>
   <tile/>
   <tile/>
   <tile/>
   <tile/>
   <tile/>
   <tile/>
   <tile/>
   <tile/>
   <tile/>
   <tile/>
   <tile/>
   <tile/>
   <tile/>
   <tile/>
   <tile/>
   <tile/>
   <tile/>
   <tile/>
   <tile/>
   <tile/>
   <tile/>
   <tile/>
   <tile/>
   <tile/>
   <tile/>
   <tile/>
   <tile/>
   <tile/>
   <tile/>
   <tile/>
   <tile/>
   <tile/>
   <tile/>
   <tile/>
   <tile/>
   <tile/>
   <tile gid="12"/>
   <tile gid="12"/>
   <tile gid="12"/>
   <tile gid="12"/>
   <tile gid="7830"/>
   <tile gid="7808"/>
   <tile gid="7808"/>
   <tile gid="7808"/>
   <tile gid="7808"/>
   <tile gid="7808"/>
   <tile gid="7803"/>
   <tile gid="7804"/>
   <tile gid="7803"/>
   <tile gid="7804"/>
   <tile gid="7803"/>
   <tile gid="7804"/>
   <tile gid="7803"/>
   <tile gid="7804"/>
   <tile gid="7803"/>
   <tile gid="7804"/>
   <tile gid="7803"/>
   <tile gid="7804"/>
   <tile gid="7807"/>
   <tile gid="7808"/>
   <tile gid="7809"/>
   <tile gid="7803"/>
   <tile gid="7804"/>
   <tile gid="7803"/>
   <tile gid="7804"/>
   <tile gid="7803"/>
   <tile gid="7804"/>
   <tile gid="7803"/>
   <tile gid="7804"/>
   <tile gid="7803"/>
   <tile gid="7804"/>
   <tile gid="7803"/>
   <tile gid="7804"/>
   <tile gid="7808"/>
   <tile gid="7808"/>
   <tile gid="7808"/>
   <tile gid="7808"/>
   <tile gid="7832"/>
   <tile gid="12"/>
   <tile gid="12"/>
   <tile gid="12"/>
   <tile gid="12"/>
   <tile gid="12"/>
   <tile gid="12"/>
   <tile gid="12"/>
   <tile gid="7818"/>
   <tile gid="7818"/>
   <tile gid="7818"/>
   <tile gid="7818"/>
   <tile gid="7818"/>
   <tile gid="7818"/>
   <tile gid="7830"/>
   <tile gid="7808"/>
   <tile gid="7808"/>
   <tile gid="7808"/>
   <tile gid="7808"/>
   <tile gid="7808"/>
   <tile gid="7808"/>
   <tile gid="7808"/>
   <tile gid="7808"/>
   <tile gid="7808"/>
   <tile gid="7832"/>
   <tile gid="7818"/>
   <tile gid="7830"/>
   <tile gid="7808"/>
   <tile gid="7808"/>
   <tile gid="7808"/>
   <tile gid="7808"/>
   <tile gid="7808"/>
   <tile gid="7808"/>
   <tile gid="7808"/>
   <tile gid="7808"/>
   <tile gid="7808"/>
   <tile gid="7808"/>
   <tile gid="7832"/>
   <tile gid="7818"/>
   <tile gid="7818"/>
   <tile gid="7818"/>
   <tile gid="7818"/>
   <tile gid="7818"/>
   <tile gid="7818"/>
   <tile gid="12"/>
   <tile gid="12"/>
   <tile gid="12"/>
   <tile gid="12"/>
   <tile gid="12"/>
   <tile gid="12"/>
   <tile gid="12"/>
   <tile gid="12"/>
   <tile gid="12"/>
   <tile gid="12"/>
   <tile gid="12"/>
   <tile gid="12"/>
   <tile gid="12"/>
   <tile gid="12"/>
   <tile gid="12"/>
   <tile gid="12"/>
   <tile gid="12"/>
   <tile gid="12"/>
   <tile gid="12"/>
   <tile gid="12"/>
   <tile gid="12"/>
   <tile gid="12"/>
   <tile gid="12"/>
   <tile gid="12"/>
   <tile gid="12"/>
   <tile gid="12"/>
   <tile gid="12"/>
   <tile gid="12"/>
   <tile gid="12"/>
   <tile gid="12"/>
   <tile gid="12"/>
   <tile gid="12"/>
   <tile gid="12"/>
   <tile gid="7818"/>
   <tile gid="7818"/>
   <tile gid="7818"/>
   <tile gid="7818"/>
   <tile gid="7818"/>
   <tile gid="7818"/>
   <tile gid="7818"/>
   <tile gid="7818"/>
   <tile gid="7818"/>
   <tile gid="7818"/>
   <tile gid="12"/>
   <tile gid="12"/>
  </data>
 </layer>
 <layer id="54" name="Forward_Layer" width="43" height="21" parallaxx="0" parallaxy="0">
  <properties>
   <property name="Draw" type="bool" value="true"/>
   <property name="Forward" type="bool" value="true"/>
  </properties>
  <data>
   <tile/>
   <tile/>
   <tile/>
   <tile/>
   <tile/>
   <tile/>
   <tile/>
   <tile/>
   <tile/>
   <tile/>
   <tile/>
   <tile/>
   <tile/>
   <tile/>
   <tile/>
   <tile/>
   <tile/>
   <tile/>
   <tile/>
   <tile/>
   <tile/>
   <tile/>
   <tile/>
   <tile/>
   <tile/>
   <tile/>
   <tile/>
   <tile/>
   <tile/>
   <tile/>
   <tile/>
   <tile/>
   <tile/>
   <tile/>
   <tile/>
   <tile/>
   <tile/>
   <tile/>
   <tile/>
   <tile/>
   <tile/>
   <tile/>
   <tile/>
   <tile/>
   <tile/>
   <tile/>
   <tile/>
   <tile/>
   <tile/>
   <tile/>
   <tile/>
   <tile/>
   <tile/>
   <tile/>
   <tile/>
   <tile/>
   <tile/>
   <tile/>
   <tile/>
   <tile/>
   <tile/>
   <tile/>
   <tile/>
   <tile/>
   <tile/>
   <tile/>
   <tile/>
   <tile/>
   <tile/>
   <tile/>
   <tile/>
   <tile/>
   <tile/>
   <tile/>
   <tile/>
   <tile/>
   <tile/>
   <tile/>
   <tile/>
   <tile/>
   <tile/>
   <tile/>
   <tile/>
   <tile/>
   <tile/>
   <tile/>
   <tile/>
   <tile/>
   <tile/>
   <tile/>
   <tile/>
   <tile/>
   <tile/>
   <tile/>
   <tile/>
   <tile/>
   <tile/>
   <tile/>
   <tile/>
   <tile/>
   <tile/>
   <tile/>
   <tile/>
   <tile/>
   <tile/>
   <tile/>
   <tile/>
   <tile/>
   <tile/>
   <tile/>
   <tile/>
   <tile/>
   <tile/>
   <tile/>
   <tile/>
   <tile/>
   <tile/>
   <tile gid="3221229612"/>
   <tile gid="3221229611"/>
   <tile gid="3221229610"/>
   <tile gid="3221229609"/>
   <tile/>
   <tile/>
   <tile/>
   <tile/>
   <tile/>
   <tile/>
   <tile/>
   <tile/>
   <tile/>
   <tile/>
   <tile/>
   <tile/>
   <tile/>
   <tile/>
   <tile/>
   <tile/>
   <tile/>
   <tile/>
   <tile/>
   <tile/>
   <tile/>
   <tile/>
   <tile/>
   <tile/>
   <tile/>
   <tile/>
   <tile/>
   <tile/>
   <tile/>
   <tile/>
   <tile/>
   <tile/>
   <tile/>
   <tile/>
   <tile/>
   <tile/>
   <tile/>
   <tile/>
   <tile/>
   <tile gid="3221229582"/>
   <tile gid="3221229581"/>
   <tile gid="3221229580"/>
   <tile gid="3221229579"/>
   <tile/>
   <tile/>
   <tile/>
   <tile/>
   <tile/>
   <tile/>
   <tile/>
   <tile/>
   <tile/>
   <tile/>
   <tile/>
   <tile/>
   <tile/>
   <tile/>
   <tile/>
   <tile/>
   <tile/>
   <tile/>
   <tile/>
   <tile/>
   <tile/>
   <tile/>
   <tile/>
   <tile/>
   <tile/>
   <tile/>
   <tile/>
   <tile/>
   <tile/>
   <tile/>
   <tile/>
   <tile/>
   <tile/>
   <tile/>
   <tile/>
   <tile/>
   <tile/>
   <tile/>
   <tile/>
   <tile gid="3221229552"/>
   <tile gid="3221229551"/>
   <tile gid="3221229550"/>
   <tile gid="3221229549"/>
   <tile/>
   <tile/>
   <tile/>
   <tile/>
   <tile/>
   <tile/>
   <tile/>
   <tile/>
   <tile/>
   <tile/>
   <tile/>
   <tile/>
   <tile/>
   <tile/>
   <tile/>
   <tile/>
   <tile/>
   <tile/>
   <tile/>
   <tile/>
   <tile/>
   <tile/>
   <tile/>
   <tile/>
   <tile/>
   <tile/>
   <tile/>
   <tile/>
   <tile/>
   <tile/>
   <tile/>
   <tile/>
   <tile/>
   <tile/>
   <tile/>
   <tile/>
   <tile/>
   <tile/>
   <tile/>
   <tile gid="3221229522"/>
   <tile gid="3221229521"/>
   <tile gid="3221229520"/>
   <tile gid="3221229519"/>
   <tile/>
   <tile/>
   <tile/>
   <tile/>
   <tile/>
   <tile/>
   <tile/>
   <tile/>
   <tile/>
   <tile/>
   <tile/>
   <tile/>
   <tile/>
   <tile/>
   <tile/>
   <tile/>
   <tile/>
   <tile/>
   <tile/>
   <tile/>
   <tile/>
   <tile/>
   <tile/>
   <tile/>
   <tile/>
   <tile/>
   <tile/>
   <tile/>
   <tile/>
   <tile/>
   <tile/>
   <tile/>
   <tile/>
   <tile/>
   <tile/>
   <tile/>
   <tile/>
   <tile/>
   <tile/>
   <tile gid="3221229492"/>
   <tile gid="3221229491"/>
   <tile gid="3221229490"/>
   <tile gid="3221229489"/>
   <tile/>
   <tile/>
   <tile/>
   <tile/>
   <tile/>
   <tile/>
   <tile/>
   <tile/>
   <tile/>
   <tile/>
   <tile/>
   <tile/>
   <tile/>
   <tile/>
   <tile/>
   <tile/>
   <tile/>
   <tile/>
   <tile/>
   <tile/>
   <tile/>
   <tile/>
   <tile/>
   <tile/>
   <tile/>
   <tile/>
   <tile/>
   <tile/>
   <tile/>
   <tile/>
   <tile/>
   <tile/>
   <tile/>
   <tile/>
   <tile/>
   <tile/>
   <tile/>
   <tile/>
   <tile/>
   <tile gid="3221229462"/>
   <tile gid="3221229461"/>
   <tile gid="3221229460"/>
   <tile gid="3221229459"/>
   <tile/>
   <tile/>
   <tile/>
   <tile/>
   <tile/>
   <tile/>
   <tile/>
   <tile/>
   <tile/>
   <tile/>
   <tile/>
   <tile/>
   <tile/>
   <tile/>
   <tile/>
   <tile/>
   <tile/>
   <tile/>
   <tile/>
   <tile/>
   <tile/>
   <tile/>
   <tile/>
   <tile/>
   <tile/>
   <tile/>
   <tile/>
   <tile/>
   <tile/>
   <tile/>
   <tile/>
   <tile/>
   <tile/>
   <tile/>
   <tile/>
   <tile/>
   <tile/>
   <tile/>
   <tile/>
   <tile gid="3221229432"/>
   <tile gid="3221229431"/>
   <tile gid="3221229430"/>
   <tile gid="3221229429"/>
   <tile/>
   <tile/>
   <tile/>
   <tile/>
   <tile/>
   <tile/>
   <tile/>
   <tile/>
   <tile/>
   <tile/>
   <tile/>
   <tile/>
   <tile/>
   <tile/>
   <tile/>
   <tile/>
   <tile/>
   <tile/>
   <tile/>
   <tile/>
   <tile/>
   <tile/>
   <tile/>
   <tile/>
   <tile/>
   <tile/>
   <tile/>
   <tile/>
   <tile/>
   <tile/>
   <tile/>
   <tile/>
   <tile/>
   <tile/>
   <tile/>
   <tile/>
   <tile/>
   <tile/>
   <tile/>
   <tile/>
   <tile/>
   <tile/>
   <tile/>
   <tile/>
   <tile/>
   <tile/>
   <tile/>
   <tile/>
   <tile/>
   <tile/>
   <tile/>
   <tile/>
   <tile/>
   <tile/>
   <tile/>
   <tile/>
   <tile/>
   <tile/>
   <tile/>
   <tile/>
   <tile/>
   <tile/>
   <tile/>
   <tile/>
   <tile/>
   <tile/>
   <tile/>
   <tile/>
   <tile/>
   <tile/>
   <tile/>
   <tile/>
   <tile/>
   <tile/>
   <tile/>
   <tile/>
   <tile/>
   <tile/>
   <tile/>
   <tile/>
   <tile/>
   <tile/>
   <tile/>
   <tile/>
   <tile/>
   <tile/>
   <tile/>
   <tile/>
   <tile/>
   <tile/>
   <tile/>
   <tile/>
   <tile/>
   <tile/>
   <tile/>
   <tile/>
   <tile/>
   <tile/>
   <tile/>
   <tile/>
   <tile/>
   <tile/>
   <tile/>
   <tile/>
   <tile/>
   <tile/>
   <tile/>
   <tile/>
   <tile/>
   <tile/>
   <tile/>
   <tile/>
   <tile/>
   <tile/>
   <tile/>
   <tile/>
   <tile/>
   <tile/>
   <tile/>
   <tile/>
   <tile/>
   <tile/>
   <tile/>
   <tile/>
   <tile/>
   <tile/>
   <tile/>
   <tile/>
   <tile/>
   <tile/>
   <tile/>
   <tile/>
   <tile/>
   <tile/>
   <tile/>
   <tile/>
   <tile/>
   <tile/>
   <tile/>
   <tile/>
   <tile/>
   <tile/>
   <tile/>
   <tile/>
   <tile/>
   <tile/>
   <tile/>
   <tile/>
   <tile/>
   <tile/>
   <tile/>
   <tile/>
   <tile/>
   <tile/>
   <tile/>
   <tile/>
   <tile/>
   <tile/>
   <tile/>
   <tile/>
   <tile/>
   <tile/>
   <tile/>
   <tile/>
   <tile/>
   <tile/>
   <tile/>
   <tile/>
   <tile/>
   <tile/>
   <tile/>
   <tile/>
   <tile/>
   <tile/>
   <tile/>
   <tile/>
   <tile/>
   <tile/>
   <tile/>
   <tile/>
   <tile/>
   <tile/>
   <tile/>
   <tile/>
   <tile/>
   <tile/>
   <tile/>
   <tile/>
   <tile/>
   <tile/>
   <tile/>
   <tile/>
   <tile/>
   <tile/>
   <tile/>
   <tile/>
   <tile/>
   <tile/>
   <tile/>
   <tile/>
   <tile/>
   <tile/>
   <tile/>
   <tile/>
   <tile/>
   <tile/>
   <tile/>
   <tile/>
   <tile/>
   <tile/>
   <tile/>
   <tile/>
   <tile/>
   <tile/>
   <tile/>
   <tile/>
   <tile/>
   <tile/>
   <tile/>
   <tile/>
   <tile/>
   <tile/>
   <tile/>
   <tile/>
   <tile/>
   <tile/>
   <tile/>
   <tile/>
   <tile/>
   <tile/>
   <tile/>
   <tile/>
   <tile/>
   <tile/>
   <tile/>
   <tile/>
   <tile/>
   <tile/>
   <tile/>
   <tile/>
   <tile/>
   <tile/>
   <tile/>
   <tile/>
   <tile/>
   <tile/>
   <tile/>
   <tile/>
   <tile/>
   <tile/>
   <tile/>
   <tile/>
   <tile/>
   <tile/>
   <tile/>
   <tile/>
   <tile/>
   <tile/>
   <tile/>
   <tile/>
   <tile/>
   <tile/>
   <tile/>
   <tile/>
   <tile/>
   <tile/>
   <tile/>
   <tile/>
   <tile/>
   <tile/>
   <tile/>
   <tile/>
   <tile/>
   <tile/>
   <tile/>
   <tile/>
   <tile/>
   <tile/>
   <tile/>
   <tile/>
   <tile/>
   <tile/>
   <tile/>
   <tile/>
   <tile/>
   <tile/>
   <tile/>
   <tile/>
   <tile/>
   <tile/>
   <tile/>
   <tile/>
   <tile/>
   <tile/>
   <tile/>
   <tile/>
   <tile/>
   <tile/>
   <tile/>
   <tile/>
   <tile/>
   <tile/>
   <tile/>
   <tile/>
   <tile/>
   <tile/>
   <tile/>
   <tile/>
   <tile/>
   <tile/>
   <tile/>
   <tile/>
   <tile/>
   <tile/>
   <tile/>
   <tile/>
   <tile/>
   <tile/>
   <tile/>
   <tile/>
   <tile/>
   <tile/>
   <tile/>
   <tile/>
   <tile/>
   <tile/>
   <tile/>
   <tile/>
   <tile/>
   <tile/>
   <tile/>
   <tile/>
   <tile/>
   <tile/>
   <tile/>
   <tile/>
   <tile/>
   <tile/>
   <tile/>
   <tile/>
   <tile/>
   <tile/>
   <tile/>
   <tile/>
   <tile/>
   <tile/>
   <tile/>
   <tile/>
   <tile gid="2147487848"/>
   <tile gid="2147487847"/>
   <tile gid="2147487846"/>
   <tile/>
   <tile/>
   <tile/>
   <tile/>
   <tile/>
   <tile/>
   <tile/>
   <tile/>
   <tile/>
   <tile/>
   <tile/>
   <tile/>
   <tile/>
   <tile/>
   <tile/>
   <tile/>
   <tile/>
   <tile/>
   <tile/>
   <tile/>
   <tile/>
   <tile/>
   <tile/>
   <tile/>
   <tile/>
   <tile/>
   <tile/>
   <tile/>
   <tile/>
   <tile/>
   <tile/>
   <tile/>
   <tile/>
   <tile/>
   <tile/>
   <tile/>
   <tile/>
   <tile/>
   <tile/>
   <tile/>
   <tile gid="2147487878"/>
   <tile gid="2147487877"/>
   <tile gid="2147487876"/>
   <tile/>
   <tile/>
   <tile/>
   <tile/>
   <tile/>
   <tile/>
   <tile/>
   <tile/>
   <tile/>
   <tile/>
   <tile/>
   <tile/>
   <tile/>
   <tile/>
   <tile/>
   <tile/>
   <tile/>
   <tile/>
   <tile/>
   <tile/>
   <tile/>
   <tile/>
   <tile/>
   <tile/>
   <tile/>
   <tile/>
   <tile/>
   <tile/>
   <tile/>
   <tile/>
   <tile/>
   <tile/>
   <tile/>
   <tile/>
   <tile/>
   <tile/>
   <tile/>
   <tile/>
   <tile/>
   <tile/>
   <tile/>
   <tile/>
   <tile/>
   <tile/>
   <tile/>
   <tile/>
   <tile/>
   <tile/>
   <tile/>
   <tile/>
   <tile/>
   <tile/>
   <tile/>
   <tile/>
   <tile/>
   <tile/>
   <tile/>
   <tile/>
   <tile/>
   <tile/>
   <tile/>
   <tile/>
   <tile/>
   <tile/>
   <tile/>
   <tile/>
   <tile/>
   <tile/>
   <tile/>
   <tile/>
   <tile/>
   <tile/>
   <tile/>
   <tile/>
   <tile/>
   <tile/>
   <tile/>
   <tile/>
   <tile/>
   <tile/>
   <tile/>
   <tile/>
   <tile/>
   <tile/>
   <tile/>
   <tile/>
   <tile/>
   <tile/>
   <tile/>
   <tile/>
   <tile/>
   <tile/>
   <tile/>
   <tile/>
   <tile/>
   <tile/>
   <tile/>
   <tile/>
   <tile/>
   <tile/>
   <tile/>
   <tile/>
   <tile/>
   <tile/>
   <tile/>
   <tile/>
   <tile/>
   <tile/>
   <tile/>
   <tile/>
   <tile/>
   <tile/>
   <tile/>
   <tile/>
   <tile/>
   <tile/>
   <tile/>
   <tile/>
   <tile/>
   <tile/>
   <tile/>
   <tile/>
   <tile/>
   <tile/>
   <tile/>
   <tile/>
   <tile/>
   <tile/>
   <tile/>
   <tile/>
  </data>
 </layer>
 <layer id="81" name="Navigation" width="43" height="21" visible="0">
  <properties>
   <property name="Navigation" type="bool" value="true"/>
  </properties>
  <data>
   <tile gid="7785"/>
   <tile gid="7785"/>
   <tile gid="7785"/>
   <tile gid="7785"/>
   <tile gid="7785"/>
   <tile gid="7785"/>
   <tile gid="7785"/>
   <tile gid="7785"/>
   <tile gid="7785"/>
   <tile gid="7785"/>
   <tile gid="7785"/>
   <tile gid="7785"/>
   <tile gid="7785"/>
   <tile gid="7785"/>
   <tile gid="7785"/>
   <tile gid="7785"/>
   <tile gid="7785"/>
   <tile gid="7785"/>
   <tile gid="7785"/>
   <tile gid="7785"/>
   <tile gid="7785"/>
   <tile gid="7785"/>
   <tile gid="7785"/>
   <tile gid="7785"/>
   <tile gid="7785"/>
   <tile gid="7785"/>
   <tile gid="7785"/>
   <tile gid="7785"/>
   <tile gid="7785"/>
   <tile gid="7785"/>
   <tile gid="7785"/>
   <tile gid="7785"/>
   <tile gid="7785"/>
   <tile gid="7785"/>
   <tile gid="7785"/>
   <tile gid="7785"/>
   <tile gid="7785"/>
   <tile gid="7785"/>
   <tile gid="7785"/>
   <tile gid="7785"/>
   <tile gid="7785"/>
   <tile gid="7785"/>
   <tile gid="7785"/>
   <tile gid="7785"/>
   <tile gid="7785"/>
   <tile gid="7785"/>
   <tile gid="7785"/>
   <tile gid="7785"/>
   <tile gid="7785"/>
   <tile gid="7785"/>
   <tile gid="7785"/>
   <tile gid="7785"/>
   <tile gid="7785"/>
   <tile gid="7785"/>
   <tile gid="7785"/>
   <tile gid="7785"/>
   <tile gid="7785"/>
   <tile gid="7785"/>
   <tile gid="7785"/>
   <tile gid="7785"/>
   <tile gid="7785"/>
   <tile gid="7785"/>
   <tile gid="7785"/>
   <tile gid="7785"/>
   <tile gid="7785"/>
   <tile gid="7785"/>
   <tile gid="7785"/>
   <tile gid="7785"/>
   <tile gid="7785"/>
   <tile gid="7785"/>
   <tile gid="7785"/>
   <tile gid="7785"/>
   <tile gid="7785"/>
   <tile gid="7785"/>
   <tile gid="7785"/>
   <tile gid="7785"/>
   <tile gid="7785"/>
   <tile gid="7785"/>
   <tile gid="7785"/>
   <tile gid="7785"/>
   <tile gid="7785"/>
   <tile gid="7785"/>
   <tile gid="7785"/>
   <tile gid="7785"/>
   <tile gid="7785"/>
   <tile gid="7785"/>
   <tile gid="7785"/>
   <tile gid="7785"/>
   <tile gid="7785"/>
   <tile gid="7785"/>
   <tile gid="7785"/>
   <tile gid="7785"/>
   <tile gid="7785"/>
   <tile gid="7785"/>
   <tile gid="7785"/>
   <tile gid="7785"/>
   <tile gid="7785"/>
   <tile gid="7785"/>
   <tile gid="7785"/>
   <tile gid="7785"/>
   <tile gid="7785"/>
   <tile gid="7785"/>
   <tile gid="7785"/>
   <tile gid="7785"/>
   <tile gid="7785"/>
   <tile gid="7785"/>
   <tile gid="7785"/>
   <tile gid="7785"/>
   <tile gid="7785"/>
   <tile gid="7785"/>
   <tile gid="7785"/>
   <tile gid="7785"/>
   <tile gid="7785"/>
   <tile gid="7785"/>
   <tile gid="7785"/>
   <tile gid="7785"/>
   <tile gid="7785"/>
   <tile gid="7785"/>
   <tile gid="7785"/>
   <tile gid="7785"/>
   <tile gid="7785"/>
   <tile gid="7785"/>
   <tile gid="7785"/>
   <tile gid="7785"/>
   <tile gid="7785"/>
   <tile gid="7785"/>
   <tile gid="7785"/>
   <tile gid="7785"/>
   <tile gid="7785"/>
   <tile gid="7785"/>
   <tile gid="7785"/>
   <tile gid="7785"/>
   <tile gid="7785"/>
   <tile/>
   <tile/>
   <tile/>
   <tile/>
   <tile/>
   <tile/>
   <tile/>
   <tile/>
   <tile/>
   <tile/>
   <tile/>
   <tile/>
   <tile/>
   <tile/>
   <tile/>
   <tile/>
   <tile/>
   <tile/>
   <tile/>
   <tile/>
   <tile/>
   <tile/>
   <tile/>
   <tile/>
   <tile/>
   <tile/>
   <tile/>
   <tile/>
   <tile/>
   <tile/>
   <tile/>
   <tile/>
   <tile/>
   <tile/>
   <tile/>
   <tile/>
   <tile/>
   <tile/>
   <tile gid="7785"/>
   <tile gid="7785"/>
   <tile gid="7785"/>
   <tile gid="7785"/>
   <tile gid="7785"/>
   <tile/>
   <tile/>
   <tile/>
   <tile/>
   <tile/>
   <tile/>
   <tile/>
   <tile/>
   <tile/>
   <tile/>
   <tile/>
   <tile/>
   <tile/>
   <tile/>
   <tile/>
   <tile/>
   <tile/>
   <tile/>
   <tile/>
   <tile/>
   <tile/>
   <tile/>
   <tile/>
   <tile/>
   <tile/>
   <tile/>
   <tile/>
   <tile/>
   <tile/>
   <tile/>
   <tile/>
   <tile/>
   <tile/>
   <tile/>
   <tile/>
   <tile/>
   <tile/>
   <tile/>
   <tile gid="7785"/>
   <tile gid="7785"/>
   <tile gid="7785"/>
   <tile gid="7785"/>
   <tile gid="7785"/>
   <tile/>
   <tile/>
   <tile/>
   <tile/>
   <tile/>
   <tile/>
   <tile/>
   <tile/>
   <tile/>
   <tile/>
   <tile/>
   <tile/>
   <tile/>
   <tile/>
   <tile/>
   <tile/>
   <tile/>
   <tile/>
   <tile/>
   <tile/>
   <tile/>
   <tile/>
   <tile/>
   <tile/>
   <tile/>
   <tile/>
   <tile/>
   <tile/>
   <tile/>
   <tile/>
   <tile/>
   <tile/>
   <tile/>
   <tile/>
   <tile/>
   <tile/>
   <tile/>
   <tile/>
   <tile gid="7785"/>
   <tile gid="7785"/>
   <tile gid="7785"/>
   <tile gid="7785"/>
   <tile gid="7785"/>
   <tile/>
   <tile/>
   <tile/>
   <tile/>
   <tile/>
   <tile/>
   <tile/>
   <tile/>
   <tile/>
   <tile/>
   <tile/>
   <tile/>
   <tile/>
   <tile/>
   <tile/>
   <tile/>
   <tile/>
   <tile/>
   <tile/>
   <tile/>
   <tile/>
   <tile/>
   <tile/>
   <tile/>
   <tile/>
   <tile/>
   <tile/>
   <tile/>
   <tile/>
   <tile/>
   <tile/>
   <tile/>
   <tile/>
   <tile/>
   <tile/>
   <tile/>
   <tile/>
   <tile/>
   <tile gid="7785"/>
   <tile gid="7785"/>
   <tile gid="7785"/>
   <tile gid="7785"/>
   <tile gid="7785"/>
   <tile/>
   <tile/>
   <tile/>
   <tile/>
   <tile/>
   <tile/>
   <tile/>
   <tile/>
   <tile/>
   <tile/>
   <tile/>
   <tile/>
   <tile/>
   <tile/>
   <tile/>
   <tile/>
   <tile/>
   <tile/>
   <tile/>
   <tile/>
   <tile/>
   <tile/>
   <tile/>
   <tile/>
   <tile/>
   <tile/>
   <tile/>
   <tile/>
   <tile/>
   <tile/>
   <tile/>
   <tile/>
   <tile/>
   <tile/>
   <tile/>
   <tile/>
   <tile/>
   <tile/>
   <tile gid="7785"/>
   <tile gid="7785"/>
   <tile gid="7785"/>
   <tile gid="7785"/>
   <tile gid="7785"/>
   <tile/>
   <tile/>
   <tile/>
   <tile/>
   <tile/>
   <tile/>
   <tile/>
   <tile/>
   <tile/>
   <tile/>
   <tile/>
   <tile/>
   <tile/>
   <tile/>
   <tile/>
   <tile/>
   <tile/>
   <tile/>
   <tile/>
   <tile/>
   <tile/>
   <tile/>
   <tile/>
   <tile/>
   <tile/>
   <tile/>
   <tile/>
   <tile/>
   <tile/>
   <tile/>
   <tile/>
   <tile/>
   <tile/>
   <tile/>
   <tile/>
   <tile/>
   <tile/>
   <tile/>
   <tile gid="7785"/>
   <tile gid="7785"/>
   <tile gid="7785"/>
   <tile gid="7785"/>
   <tile gid="7785"/>
   <tile/>
   <tile/>
   <tile/>
   <tile/>
   <tile/>
   <tile/>
   <tile/>
   <tile/>
   <tile/>
   <tile/>
   <tile/>
   <tile/>
   <tile/>
   <tile/>
   <tile/>
   <tile/>
   <tile/>
   <tile/>
   <tile/>
   <tile/>
   <tile/>
   <tile/>
   <tile/>
   <tile/>
   <tile/>
   <tile/>
   <tile/>
   <tile/>
   <tile/>
   <tile/>
   <tile/>
   <tile/>
   <tile/>
   <tile/>
   <tile/>
   <tile/>
   <tile/>
   <tile/>
   <tile gid="7785"/>
   <tile gid="7785"/>
   <tile gid="7785"/>
   <tile gid="7785"/>
   <tile gid="7785"/>
   <tile/>
   <tile/>
   <tile/>
   <tile/>
   <tile/>
   <tile/>
   <tile/>
   <tile/>
   <tile/>
   <tile/>
   <tile/>
   <tile/>
   <tile/>
   <tile/>
   <tile/>
   <tile/>
   <tile/>
   <tile/>
   <tile/>
   <tile/>
   <tile/>
   <tile/>
   <tile/>
   <tile/>
   <tile/>
   <tile/>
   <tile/>
   <tile/>
   <tile/>
   <tile/>
   <tile/>
   <tile/>
   <tile/>
   <tile/>
   <tile/>
   <tile/>
   <tile/>
   <tile/>
   <tile gid="7785"/>
   <tile gid="7785"/>
   <tile gid="7785"/>
   <tile gid="7785"/>
   <tile gid="7785"/>
   <tile/>
   <tile/>
   <tile/>
   <tile/>
   <tile/>
   <tile/>
   <tile/>
   <tile/>
   <tile/>
   <tile/>
   <tile/>
   <tile/>
   <tile/>
   <tile/>
   <tile/>
   <tile/>
   <tile/>
   <tile/>
   <tile/>
   <tile/>
   <tile/>
   <tile/>
   <tile/>
   <tile/>
   <tile/>
   <tile/>
   <tile/>
   <tile/>
   <tile/>
   <tile/>
   <tile/>
   <tile/>
   <tile/>
   <tile/>
   <tile/>
   <tile/>
   <tile/>
   <tile/>
   <tile gid="7785"/>
   <tile gid="7785"/>
   <tile gid="7785"/>
   <tile gid="7785"/>
   <tile gid="7785"/>
   <tile/>
   <tile/>
   <tile/>
   <tile/>
   <tile/>
   <tile/>
   <tile/>
   <tile/>
   <tile/>
   <tile/>
   <tile/>
   <tile/>
   <tile/>
   <tile/>
   <tile/>
   <tile/>
   <tile/>
   <tile/>
   <tile/>
   <tile/>
   <tile/>
   <tile/>
   <tile/>
   <tile/>
   <tile/>
   <tile/>
   <tile/>
   <tile/>
   <tile/>
   <tile/>
   <tile/>
   <tile/>
   <tile/>
   <tile/>
   <tile/>
   <tile/>
   <tile/>
   <tile/>
   <tile gid="7785"/>
   <tile gid="7785"/>
   <tile gid="7785"/>
   <tile gid="7785"/>
   <tile gid="7785"/>
   <tile/>
   <tile/>
   <tile/>
   <tile/>
   <tile/>
   <tile/>
   <tile/>
   <tile/>
   <tile/>
   <tile/>
   <tile/>
   <tile/>
   <tile/>
   <tile/>
   <tile/>
   <tile/>
   <tile/>
   <tile/>
   <tile/>
   <tile/>
   <tile/>
   <tile/>
   <tile/>
   <tile/>
   <tile/>
   <tile/>
   <tile/>
   <tile/>
   <tile/>
   <tile/>
   <tile/>
   <tile/>
   <tile/>
   <tile/>
   <tile/>
   <tile/>
   <tile/>
   <tile/>
   <tile gid="7785"/>
   <tile gid="7785"/>
   <tile gid="7785"/>
   <tile gid="7785"/>
   <tile gid="7785"/>
   <tile/>
   <tile/>
   <tile/>
   <tile/>
   <tile/>
   <tile/>
   <tile/>
   <tile/>
   <tile/>
   <tile/>
   <tile/>
   <tile/>
   <tile/>
   <tile/>
   <tile/>
   <tile/>
   <tile/>
   <tile/>
   <tile/>
   <tile/>
   <tile/>
   <tile/>
   <tile/>
   <tile/>
   <tile/>
   <tile/>
   <tile/>
   <tile/>
   <tile/>
   <tile/>
   <tile/>
   <tile/>
   <tile/>
   <tile/>
   <tile/>
   <tile/>
   <tile/>
   <tile/>
   <tile gid="7785"/>
   <tile gid="7785"/>
   <tile gid="7785"/>
   <tile gid="7785"/>
   <tile gid="7785"/>
   <tile/>
   <tile/>
   <tile/>
   <tile/>
   <tile/>
   <tile/>
   <tile/>
   <tile/>
   <tile/>
   <tile/>
   <tile/>
   <tile/>
   <tile/>
   <tile/>
   <tile/>
   <tile/>
   <tile/>
   <tile/>
   <tile/>
   <tile/>
   <tile/>
   <tile/>
   <tile/>
   <tile/>
   <tile/>
   <tile/>
   <tile/>
   <tile/>
   <tile/>
   <tile/>
   <tile/>
   <tile/>
   <tile/>
   <tile/>
   <tile/>
   <tile/>
   <tile/>
   <tile/>
   <tile gid="7785"/>
   <tile gid="7785"/>
   <tile gid="7785"/>
   <tile gid="7785"/>
   <tile gid="7785"/>
   <tile/>
   <tile/>
   <tile/>
   <tile/>
   <tile/>
   <tile/>
   <tile/>
   <tile/>
   <tile/>
   <tile/>
   <tile/>
   <tile/>
   <tile/>
   <tile/>
   <tile/>
   <tile/>
   <tile/>
   <tile/>
   <tile/>
   <tile/>
   <tile/>
   <tile/>
   <tile/>
   <tile/>
   <tile/>
   <tile/>
   <tile/>
   <tile/>
   <tile/>
   <tile/>
   <tile/>
   <tile/>
   <tile/>
   <tile/>
   <tile/>
   <tile/>
   <tile/>
   <tile/>
   <tile gid="7785"/>
   <tile gid="7785"/>
   <tile gid="7785"/>
   <tile gid="7785"/>
   <tile gid="7785"/>
   <tile/>
   <tile/>
   <tile/>
   <tile/>
   <tile/>
   <tile/>
   <tile/>
   <tile/>
   <tile/>
   <tile/>
   <tile/>
   <tile/>
   <tile/>
   <tile/>
   <tile/>
   <tile/>
   <tile/>
   <tile/>
   <tile/>
   <tile/>
   <tile/>
   <tile/>
   <tile/>
   <tile/>
   <tile/>
   <tile/>
   <tile/>
   <tile/>
   <tile/>
   <tile/>
   <tile/>
   <tile/>
   <tile/>
   <tile/>
   <tile/>
   <tile/>
   <tile/>
   <tile/>
   <tile gid="7785"/>
   <tile gid="7785"/>
   <tile gid="7785"/>
   <tile gid="7785"/>
   <tile gid="7785"/>
   <tile gid="7785"/>
   <tile gid="7785"/>
   <tile gid="7785"/>
   <tile gid="7785"/>
   <tile gid="7785"/>
   <tile/>
   <tile/>
   <tile/>
   <tile/>
   <tile/>
   <tile/>
   <tile/>
   <tile/>
   <tile/>
   <tile/>
   <tile/>
   <tile/>
   <tile gid="7785"/>
   <tile gid="7785"/>
   <tile gid="7785"/>
   <tile/>
   <tile/>
   <tile/>
   <tile/>
   <tile/>
   <tile/>
   <tile/>
   <tile/>
   <tile/>
   <tile/>
   <tile/>
   <tile/>
   <tile/>
   <tile/>
   <tile/>
   <tile gid="7785"/>
   <tile gid="7785"/>
   <tile gid="7785"/>
   <tile gid="7785"/>
   <tile gid="7785"/>
   <tile gid="7785"/>
   <tile gid="7785"/>
   <tile gid="7785"/>
   <tile gid="7785"/>
   <tile gid="7785"/>
   <tile gid="7785"/>
   <tile gid="7785"/>
   <tile gid="7785"/>
   <tile gid="7785"/>
   <tile gid="7785"/>
   <tile gid="7785"/>
   <tile gid="7785"/>
   <tile gid="7785"/>
   <tile gid="7785"/>
   <tile gid="7785"/>
   <tile gid="7785"/>
   <tile gid="7785"/>
   <tile gid="7785"/>
   <tile gid="7785"/>
   <tile gid="7785"/>
   <tile gid="7785"/>
   <tile gid="7785"/>
   <tile gid="7785"/>
   <tile gid="7785"/>
   <tile gid="7785"/>
   <tile gid="7785"/>
   <tile gid="7785"/>
   <tile gid="7785"/>
   <tile gid="7785"/>
   <tile gid="7785"/>
   <tile gid="7785"/>
   <tile gid="7785"/>
   <tile gid="7785"/>
   <tile gid="7785"/>
   <tile gid="7785"/>
   <tile gid="7785"/>
   <tile gid="7785"/>
   <tile gid="7785"/>
   <tile gid="7785"/>
   <tile gid="7785"/>
   <tile gid="7785"/>
   <tile gid="7785"/>
   <tile gid="7785"/>
   <tile gid="7785"/>
   <tile gid="7785"/>
   <tile gid="7785"/>
   <tile gid="7785"/>
   <tile gid="7785"/>
   <tile gid="7785"/>
   <tile gid="7785"/>
   <tile gid="7785"/>
   <tile gid="7785"/>
   <tile gid="7785"/>
   <tile gid="7785"/>
   <tile gid="7785"/>
   <tile gid="7785"/>
   <tile gid="7785"/>
   <tile gid="7785"/>
   <tile gid="7785"/>
   <tile gid="7785"/>
   <tile gid="7785"/>
   <tile gid="7785"/>
   <tile gid="7785"/>
   <tile gid="7785"/>
   <tile gid="7785"/>
   <tile gid="7785"/>
   <tile gid="7785"/>
   <tile gid="7785"/>
   <tile gid="7785"/>
   <tile gid="7785"/>
   <tile gid="7785"/>
   <tile gid="7785"/>
   <tile gid="7785"/>
   <tile gid="7785"/>
   <tile gid="7785"/>
   <tile gid="7785"/>
   <tile gid="7785"/>
   <tile gid="7785"/>
   <tile gid="7785"/>
   <tile gid="7785"/>
   <tile gid="7785"/>
   <tile gid="7785"/>
   <tile gid="7785"/>
   <tile gid="7785"/>
   <tile gid="7785"/>
  </data>
 </layer>
 <layer id="87" name="Path1" width="43" height="21">
  <properties>
   <property name="Navigation" type="bool" value="true"/>
  </properties>
  <data>
   <tile/>
   <tile/>
   <tile/>
   <tile/>
   <tile/>
   <tile/>
   <tile/>
   <tile/>
   <tile/>
   <tile/>
   <tile/>
   <tile/>
   <tile/>
   <tile/>
   <tile/>
   <tile/>
   <tile/>
   <tile/>
   <tile/>
   <tile/>
   <tile/>
   <tile/>
   <tile/>
   <tile/>
   <tile/>
   <tile/>
   <tile/>
   <tile/>
   <tile/>
   <tile/>
   <tile/>
   <tile/>
   <tile/>
   <tile/>
   <tile/>
   <tile/>
   <tile/>
   <tile/>
   <tile/>
   <tile/>
   <tile/>
   <tile/>
   <tile/>
   <tile/>
   <tile/>
   <tile/>
   <tile/>
   <tile/>
   <tile/>
   <tile/>
   <tile/>
   <tile/>
   <tile/>
   <tile/>
   <tile/>
   <tile/>
   <tile/>
   <tile/>
   <tile/>
   <tile/>
   <tile/>
   <tile/>
   <tile/>
   <tile/>
   <tile/>
   <tile/>
   <tile/>
   <tile/>
   <tile/>
   <tile/>
   <tile/>
   <tile/>
   <tile/>
   <tile/>
   <tile/>
   <tile/>
   <tile/>
   <tile/>
   <tile/>
   <tile/>
   <tile/>
   <tile/>
   <tile/>
   <tile/>
   <tile/>
   <tile/>
   <tile/>
   <tile/>
   <tile/>
   <tile/>
   <tile/>
   <tile/>
   <tile/>
   <tile/>
   <tile/>
   <tile/>
   <tile/>
   <tile/>
   <tile/>
   <tile/>
   <tile/>
   <tile/>
   <tile/>
   <tile/>
   <tile/>
   <tile/>
   <tile/>
   <tile/>
   <tile/>
   <tile/>
   <tile/>
   <tile/>
   <tile/>
   <tile/>
   <tile/>
   <tile/>
   <tile/>
   <tile/>
   <tile/>
   <tile/>
   <tile/>
   <tile/>
   <tile/>
   <tile/>
   <tile/>
   <tile/>
   <tile/>
   <tile/>
   <tile/>
   <tile/>
   <tile/>
   <tile/>
   <tile/>
   <tile/>
   <tile/>
   <tile/>
   <tile/>
   <tile/>
   <tile/>
   <tile/>
   <tile/>
   <tile/>
   <tile/>
   <tile/>
   <tile/>
   <tile/>
   <tile/>
   <tile/>
   <tile/>
   <tile/>
   <tile/>
   <tile/>
   <tile/>
   <tile/>
   <tile/>
   <tile/>
   <tile/>
   <tile/>
   <tile/>
   <tile/>
   <tile/>
   <tile/>
   <tile/>
   <tile/>
   <tile/>
   <tile/>
   <tile/>
   <tile/>
   <tile/>
   <tile/>
   <tile/>
   <tile/>
   <tile/>
   <tile/>
   <tile/>
   <tile/>
   <tile/>
   <tile/>
   <tile/>
   <tile/>
   <tile/>
   <tile/>
   <tile/>
   <tile/>
   <tile/>
   <tile/>
   <tile/>
   <tile/>
   <tile/>
   <tile/>
   <tile/>
   <tile/>
   <tile/>
   <tile/>
   <tile/>
   <tile/>
   <tile/>
   <tile/>
   <tile/>
   <tile/>
   <tile/>
   <tile/>
   <tile/>
   <tile/>
   <tile/>
   <tile/>
   <tile/>
   <tile/>
   <tile/>
   <tile/>
   <tile/>
   <tile/>
   <tile/>
   <tile/>
   <tile/>
   <tile/>
   <tile/>
   <tile/>
   <tile/>
   <tile/>
   <tile/>
   <tile/>
   <tile/>
   <tile/>
   <tile/>
   <tile/>
   <tile/>
   <tile/>
   <tile/>
   <tile/>
   <tile/>
   <tile/>
   <tile/>
   <tile/>
   <tile/>
   <tile/>
   <tile/>
   <tile/>
   <tile/>
   <tile/>
   <tile/>
   <tile/>
   <tile/>
   <tile/>
   <tile/>
   <tile/>
   <tile/>
   <tile/>
   <tile/>
   <tile/>
   <tile/>
   <tile/>
   <tile/>
   <tile/>
   <tile/>
   <tile/>
   <tile/>
   <tile/>
   <tile/>
   <tile/>
   <tile/>
   <tile/>
   <tile/>
   <tile/>
   <tile/>
   <tile/>
   <tile/>
   <tile/>
   <tile/>
   <tile/>
   <tile/>
   <tile/>
   <tile/>
   <tile/>
   <tile/>
   <tile/>
   <tile/>
   <tile/>
   <tile/>
   <tile/>
   <tile/>
   <tile/>
   <tile/>
   <tile/>
   <tile/>
   <tile/>
   <tile/>
   <tile/>
   <tile/>
   <tile/>
   <tile/>
   <tile/>
   <tile/>
   <tile/>
   <tile/>
   <tile/>
   <tile/>
   <tile/>
   <tile/>
   <tile/>
   <tile/>
   <tile/>
   <tile/>
   <tile/>
   <tile/>
   <tile/>
   <tile/>
   <tile/>
   <tile/>
   <tile/>
   <tile/>
   <tile/>
   <tile/>
   <tile/>
   <tile/>
   <tile/>
   <tile/>
   <tile/>
   <tile/>
   <tile/>
   <tile/>
   <tile/>
   <tile/>
   <tile/>
   <tile/>
   <tile/>
   <tile/>
   <tile/>
   <tile/>
   <tile/>
   <tile/>
   <tile/>
   <tile/>
   <tile/>
   <tile/>
   <tile/>
   <tile/>
   <tile/>
   <tile/>
   <tile/>
   <tile/>
   <tile/>
   <tile/>
   <tile/>
   <tile/>
   <tile/>
   <tile/>
   <tile/>
   <tile/>
   <tile/>
   <tile/>
   <tile/>
   <tile/>
   <tile/>
   <tile/>
   <tile/>
   <tile/>
   <tile/>
   <tile/>
   <tile/>
   <tile/>
   <tile/>
   <tile/>
   <tile/>
   <tile/>
   <tile/>
   <tile/>
   <tile/>
   <tile/>
   <tile/>
   <tile/>
   <tile/>
   <tile/>
   <tile/>
   <tile/>
   <tile/>
   <tile/>
   <tile/>
   <tile/>
   <tile/>
   <tile/>
   <tile/>
   <tile/>
   <tile/>
   <tile/>
   <tile/>
   <tile/>
   <tile/>
   <tile/>
   <tile/>
   <tile/>
   <tile/>
   <tile/>
   <tile/>
   <tile/>
   <tile/>
   <tile/>
   <tile/>
   <tile/>
   <tile/>
   <tile/>
   <tile/>
   <tile/>
   <tile/>
   <tile/>
   <tile/>
   <tile/>
   <tile/>
   <tile/>
   <tile/>
   <tile/>
   <tile/>
   <tile/>
   <tile/>
   <tile/>
   <tile/>
   <tile/>
   <tile/>
   <tile/>
   <tile/>
   <tile/>
   <tile/>
   <tile/>
   <tile/>
   <tile/>
   <tile/>
   <tile/>
   <tile/>
   <tile/>
   <tile/>
   <tile/>
   <tile/>
   <tile/>
   <tile/>
   <tile/>
   <tile/>
   <tile/>
   <tile/>
   <tile/>
   <tile/>
   <tile/>
   <tile/>
   <tile/>
   <tile/>
   <tile/>
   <tile/>
   <tile/>
   <tile/>
   <tile/>
   <tile/>
   <tile/>
   <tile/>
   <tile/>
   <tile/>
   <tile/>
   <tile/>
   <tile/>
   <tile/>
   <tile/>
   <tile/>
   <tile/>
   <tile/>
   <tile/>
   <tile/>
   <tile/>
   <tile/>
   <tile/>
   <tile/>
   <tile/>
   <tile/>
   <tile/>
   <tile/>
   <tile/>
   <tile/>
   <tile/>
   <tile/>
   <tile/>
   <tile/>
   <tile/>
   <tile/>
   <tile/>
   <tile/>
   <tile/>
   <tile/>
   <tile/>
   <tile/>
   <tile/>
   <tile/>
   <tile/>
   <tile/>
   <tile/>
   <tile/>
   <tile/>
   <tile/>
   <tile/>
   <tile/>
   <tile/>
   <tile/>
   <tile/>
   <tile/>
   <tile/>
   <tile/>
   <tile/>
   <tile/>
   <tile/>
   <tile/>
   <tile/>
   <tile/>
   <tile/>
   <tile/>
   <tile/>
   <tile/>
   <tile/>
   <tile/>
   <tile/>
   <tile/>
   <tile/>
   <tile/>
   <tile/>
   <tile/>
   <tile/>
   <tile/>
   <tile/>
   <tile/>
   <tile/>
   <tile/>
   <tile/>
   <tile/>
   <tile/>
   <tile/>
   <tile/>
   <tile/>
   <tile/>
   <tile gid="7785"/>
   <tile gid="7785"/>
   <tile gid="7785"/>
   <tile gid="7785"/>
   <tile gid="7785"/>
   <tile gid="7785"/>
   <tile/>
   <tile/>
   <tile/>
   <tile/>
   <tile/>
   <tile/>
   <tile/>
   <tile/>
   <tile/>
   <tile/>
   <tile/>
   <tile/>
   <tile/>
   <tile/>
   <tile/>
   <tile/>
   <tile/>
   <tile/>
   <tile/>
   <tile/>
   <tile/>
   <tile/>
   <tile/>
   <tile/>
   <tile/>
   <tile/>
   <tile/>
   <tile/>
   <tile/>
   <tile/>
   <tile/>
   <tile/>
   <tile/>
   <tile/>
   <tile/>
   <tile/>
   <tile/>
   <tile/>
   <tile/>
   <tile/>
   <tile/>
   <tile/>
   <tile/>
   <tile/>
   <tile/>
   <tile/>
   <tile/>
   <tile/>
   <tile/>
   <tile/>
   <tile/>
   <tile/>
   <tile/>
   <tile/>
   <tile/>
   <tile/>
   <tile/>
   <tile/>
   <tile/>
   <tile/>
   <tile/>
   <tile/>
   <tile/>
   <tile/>
   <tile/>
   <tile/>
   <tile/>
   <tile/>
   <tile/>
   <tile/>
   <tile/>
   <tile/>
   <tile/>
   <tile/>
   <tile/>
   <tile/>
   <tile/>
   <tile/>
   <tile/>
   <tile/>
   <tile/>
   <tile/>
   <tile/>
   <tile/>
   <tile/>
   <tile/>
   <tile/>
   <tile/>
   <tile/>
   <tile/>
   <tile/>
   <tile/>
   <tile/>
   <tile/>
   <tile/>
   <tile/>
   <tile/>
   <tile/>
   <tile/>
   <tile/>
   <tile/>
   <tile/>
   <tile/>
   <tile/>
   <tile/>
   <tile/>
   <tile/>
   <tile/>
   <tile/>
   <tile/>
   <tile/>
   <tile/>
   <tile/>
   <tile/>
   <tile/>
   <tile/>
   <tile/>
   <tile/>
   <tile/>
   <tile/>
   <tile/>
   <tile/>
   <tile/>
   <tile/>
   <tile/>
   <tile/>
   <tile/>
   <tile/>
   <tile/>
   <tile/>
   <tile/>
   <tile/>
   <tile/>
   <tile/>
   <tile/>
   <tile/>
   <tile/>
   <tile/>
   <tile/>
   <tile/>
   <tile/>
   <tile/>
   <tile/>
   <tile/>
   <tile/>
   <tile/>
   <tile/>
   <tile/>
   <tile/>
   <tile/>
   <tile/>
   <tile/>
   <tile/>
   <tile/>
   <tile/>
   <tile/>
   <tile/>
   <tile/>
   <tile/>
   <tile/>
   <tile/>
   <tile/>
   <tile/>
   <tile/>
   <tile/>
   <tile/>
   <tile/>
   <tile/>
   <tile/>
   <tile/>
   <tile/>
   <tile/>
   <tile/>
   <tile/>
   <tile/>
   <tile/>
   <tile/>
   <tile/>
   <tile/>
   <tile/>
   <tile/>
   <tile/>
   <tile/>
   <tile/>
   <tile/>
   <tile/>
   <tile/>
   <tile/>
   <tile/>
   <tile/>
   <tile/>
   <tile/>
   <tile/>
   <tile/>
   <tile/>
   <tile/>
   <tile/>
   <tile/>
   <tile/>
   <tile/>
   <tile/>
   <tile/>
   <tile/>
   <tile/>
   <tile/>
   <tile/>
   <tile/>
   <tile/>
   <tile/>
   <tile/>
   <tile/>
   <tile/>
   <tile/>
   <tile/>
   <tile/>
   <tile/>
   <tile/>
   <tile/>
   <tile/>
   <tile/>
   <tile/>
   <tile/>
   <tile/>
   <tile/>
   <tile/>
   <tile/>
   <tile/>
   <tile/>
   <tile/>
   <tile/>
   <tile/>
   <tile/>
   <tile/>
   <tile/>
   <tile/>
   <tile/>
   <tile/>
   <tile/>
   <tile/>
   <tile/>
   <tile/>
   <tile/>
   <tile/>
   <tile/>
   <tile/>
   <tile/>
   <tile/>
   <tile/>
   <tile/>
   <tile/>
   <tile/>
   <tile/>
   <tile/>
   <tile/>
   <tile/>
   <tile/>
   <tile/>
   <tile/>
   <tile/>
   <tile/>
   <tile/>
   <tile/>
   <tile/>
   <tile/>
   <tile/>
   <tile/>
   <tile/>
   <tile/>
   <tile/>
   <tile/>
   <tile/>
   <tile/>
   <tile/>
   <tile/>
   <tile/>
   <tile/>
   <tile/>
   <tile/>
   <tile/>
   <tile/>
   <tile/>
   <tile/>
   <tile/>
   <tile/>
   <tile/>
   <tile/>
   <tile/>
   <tile/>
   <tile/>
   <tile/>
   <tile/>
   <tile/>
   <tile/>
   <tile/>
   <tile/>
   <tile/>
   <tile/>
   <tile/>
   <tile/>
   <tile/>
   <tile/>
   <tile/>
   <tile/>
   <tile/>
   <tile/>
   <tile/>
   <tile/>
   <tile/>
   <tile/>
   <tile/>
   <tile/>
   <tile/>
   <tile/>
   <tile/>
   <tile/>
   <tile/>
   <tile/>
   <tile/>
   <tile/>
   <tile/>
   <tile/>
   <tile/>
   <tile/>
   <tile/>
   <tile/>
   <tile/>
   <tile/>
   <tile/>
   <tile/>
   <tile/>
   <tile/>
   <tile/>
   <tile/>
   <tile/>
   <tile/>
   <tile/>
   <tile/>
   <tile/>
   <tile/>
   <tile/>
   <tile/>
   <tile/>
   <tile/>
   <tile/>
   <tile/>
   <tile/>
   <tile/>
   <tile/>
   <tile/>
   <tile/>
   <tile/>
   <tile/>
   <tile/>
   <tile/>
   <tile/>
   <tile/>
   <tile/>
   <tile/>
   <tile/>
   <tile/>
   <tile/>
   <tile/>
   <tile/>
   <tile/>
  </data>
 </layer>
 <layer id="88" name="Path2" width="43" height="21">
  <properties>
   <property name="Navigation" type="bool" value="true"/>
  </properties>
  <data>
   <tile/>
   <tile/>
   <tile/>
   <tile/>
   <tile/>
   <tile/>
   <tile/>
   <tile/>
   <tile/>
   <tile/>
   <tile/>
   <tile/>
   <tile/>
   <tile/>
   <tile/>
   <tile/>
   <tile/>
   <tile/>
   <tile/>
   <tile/>
   <tile/>
   <tile/>
   <tile/>
   <tile/>
   <tile/>
   <tile/>
   <tile/>
   <tile/>
   <tile/>
   <tile/>
   <tile/>
   <tile/>
   <tile/>
   <tile/>
   <tile/>
   <tile/>
   <tile/>
   <tile/>
   <tile/>
   <tile/>
   <tile/>
   <tile/>
   <tile/>
   <tile/>
   <tile/>
   <tile/>
   <tile/>
   <tile/>
   <tile/>
   <tile/>
   <tile/>
   <tile/>
   <tile/>
   <tile/>
   <tile/>
   <tile/>
   <tile/>
   <tile/>
   <tile/>
   <tile/>
   <tile/>
   <tile/>
   <tile/>
   <tile/>
   <tile/>
   <tile/>
   <tile/>
   <tile/>
   <tile/>
   <tile/>
   <tile/>
   <tile/>
   <tile/>
   <tile/>
   <tile/>
   <tile/>
   <tile/>
   <tile/>
   <tile/>
   <tile/>
   <tile/>
   <tile/>
   <tile/>
   <tile/>
   <tile/>
   <tile/>
   <tile/>
   <tile/>
   <tile/>
   <tile/>
   <tile/>
   <tile/>
   <tile/>
   <tile/>
   <tile/>
   <tile/>
   <tile/>
   <tile/>
   <tile/>
   <tile/>
   <tile/>
   <tile/>
   <tile/>
   <tile/>
   <tile/>
   <tile/>
   <tile/>
   <tile/>
   <tile/>
   <tile/>
   <tile/>
   <tile/>
   <tile/>
   <tile/>
   <tile/>
   <tile/>
   <tile/>
   <tile/>
   <tile/>
   <tile/>
   <tile/>
   <tile/>
   <tile/>
   <tile/>
   <tile/>
   <tile/>
   <tile/>
   <tile/>
   <tile/>
   <tile/>
   <tile/>
   <tile/>
   <tile/>
   <tile/>
   <tile/>
   <tile/>
   <tile/>
   <tile/>
   <tile/>
   <tile/>
   <tile/>
   <tile/>
   <tile/>
   <tile/>
   <tile/>
   <tile/>
   <tile/>
   <tile/>
   <tile/>
   <tile/>
   <tile/>
   <tile/>
   <tile/>
   <tile/>
   <tile/>
   <tile/>
   <tile/>
   <tile/>
   <tile/>
   <tile/>
   <tile/>
   <tile/>
   <tile/>
   <tile/>
   <tile/>
   <tile/>
   <tile/>
   <tile/>
   <tile/>
   <tile/>
   <tile/>
   <tile/>
   <tile/>
   <tile/>
   <tile/>
   <tile/>
   <tile/>
   <tile/>
   <tile/>
   <tile/>
   <tile/>
   <tile/>
   <tile/>
   <tile/>
   <tile/>
   <tile/>
   <tile/>
   <tile/>
   <tile/>
   <tile/>
   <tile/>
   <tile/>
   <tile/>
   <tile/>
   <tile/>
   <tile/>
   <tile/>
   <tile/>
   <tile/>
   <tile/>
   <tile/>
   <tile/>
   <tile/>
   <tile/>
   <tile/>
   <tile/>
   <tile/>
   <tile/>
   <tile/>
   <tile/>
   <tile/>
   <tile/>
   <tile/>
   <tile/>
   <tile/>
   <tile/>
   <tile/>
   <tile/>
   <tile/>
   <tile/>
   <tile/>
   <tile/>
   <tile/>
   <tile/>
   <tile/>
   <tile/>
   <tile/>
   <tile/>
   <tile/>
   <tile/>
   <tile/>
   <tile/>
   <tile/>
   <tile/>
   <tile/>
   <tile/>
   <tile/>
   <tile/>
   <tile/>
   <tile/>
   <tile/>
   <tile/>
   <tile/>
   <tile/>
   <tile/>
   <tile/>
   <tile/>
   <tile/>
   <tile/>
   <tile/>
   <tile/>
   <tile/>
   <tile/>
   <tile/>
   <tile/>
   <tile/>
   <tile/>
   <tile/>
   <tile/>
   <tile/>
   <tile/>
   <tile/>
   <tile/>
   <tile/>
   <tile/>
   <tile/>
   <tile/>
   <tile/>
   <tile/>
   <tile/>
   <tile/>
   <tile/>
   <tile/>
   <tile/>
   <tile/>
   <tile/>
   <tile/>
   <tile/>
   <tile/>
   <tile/>
   <tile/>
   <tile/>
   <tile/>
   <tile/>
   <tile/>
   <tile/>
   <tile/>
   <tile/>
   <tile/>
   <tile/>
   <tile/>
   <tile/>
   <tile/>
   <tile/>
   <tile/>
   <tile/>
   <tile/>
   <tile/>
   <tile/>
   <tile/>
   <tile/>
   <tile/>
   <tile/>
   <tile/>
   <tile/>
   <tile/>
   <tile/>
   <tile/>
   <tile/>
   <tile/>
   <tile/>
   <tile/>
   <tile/>
   <tile/>
   <tile/>
   <tile/>
   <tile/>
   <tile/>
   <tile/>
   <tile/>
   <tile/>
   <tile/>
   <tile/>
   <tile/>
   <tile/>
   <tile/>
   <tile/>
   <tile/>
   <tile/>
   <tile/>
   <tile/>
   <tile/>
   <tile/>
   <tile/>
   <tile/>
   <tile/>
   <tile/>
   <tile/>
   <tile/>
   <tile/>
   <tile/>
   <tile/>
   <tile/>
   <tile/>
   <tile/>
   <tile/>
   <tile/>
   <tile/>
   <tile/>
   <tile/>
   <tile/>
   <tile/>
   <tile/>
   <tile/>
   <tile/>
   <tile/>
   <tile/>
   <tile/>
   <tile/>
   <tile/>
   <tile/>
   <tile/>
   <tile/>
   <tile/>
   <tile/>
   <tile/>
   <tile/>
   <tile/>
   <tile/>
   <tile/>
   <tile/>
   <tile/>
   <tile/>
   <tile/>
   <tile/>
   <tile/>
   <tile/>
   <tile/>
   <tile/>
   <tile/>
   <tile/>
   <tile/>
   <tile/>
   <tile/>
   <tile/>
   <tile/>
   <tile/>
   <tile/>
   <tile/>
   <tile/>
   <tile/>
   <tile/>
   <tile/>
   <tile/>
   <tile/>
   <tile/>
   <tile/>
   <tile/>
   <tile/>
   <tile/>
   <tile/>
   <tile/>
   <tile/>
   <tile/>
   <tile/>
   <tile/>
   <tile/>
   <tile/>
   <tile/>
   <tile/>
   <tile/>
   <tile/>
   <tile/>
   <tile/>
   <tile/>
   <tile/>
   <tile/>
   <tile/>
   <tile/>
   <tile/>
   <tile/>
   <tile/>
   <tile/>
   <tile/>
   <tile/>
   <tile/>
   <tile/>
   <tile/>
   <tile/>
   <tile/>
   <tile/>
   <tile/>
   <tile/>
   <tile/>
   <tile/>
   <tile/>
   <tile/>
   <tile/>
   <tile/>
   <tile/>
   <tile/>
   <tile/>
   <tile/>
   <tile/>
   <tile/>
   <tile/>
   <tile/>
   <tile/>
   <tile/>
   <tile/>
   <tile/>
   <tile/>
   <tile/>
   <tile/>
   <tile/>
   <tile/>
   <tile/>
   <tile/>
   <tile/>
   <tile/>
   <tile/>
   <tile/>
   <tile/>
   <tile/>
   <tile/>
   <tile/>
   <tile/>
   <tile/>
   <tile/>
   <tile/>
   <tile/>
   <tile/>
   <tile/>
   <tile/>
   <tile/>
   <tile/>
   <tile/>
   <tile/>
   <tile/>
   <tile/>
   <tile/>
   <tile/>
   <tile/>
   <tile/>
   <tile/>
   <tile/>
   <tile/>
   <tile/>
   <tile/>
   <tile/>
   <tile/>
   <tile/>
   <tile/>
   <tile/>
   <tile/>
   <tile/>
   <tile/>
   <tile/>
   <tile/>
   <tile/>
   <tile/>
   <tile/>
   <tile/>
   <tile/>
   <tile/>
   <tile/>
   <tile/>
   <tile/>
   <tile/>
   <tile/>
   <tile/>
   <tile/>
   <tile/>
   <tile/>
   <tile/>
   <tile/>
   <tile/>
   <tile/>
   <tile/>
   <tile/>
   <tile/>
   <tile/>
   <tile/>
   <tile/>
   <tile/>
   <tile/>
   <tile/>
   <tile/>
   <tile/>
   <tile/>
   <tile/>
   <tile/>
   <tile/>
   <tile/>
   <tile/>
   <tile/>
   <tile/>
   <tile/>
   <tile/>
   <tile gid="7786"/>
   <tile gid="7786"/>
   <tile gid="7786"/>
   <tile gid="7786"/>
   <tile gid="7786"/>
   <tile gid="7786"/>
   <tile/>
   <tile/>
   <tile/>
   <tile/>
   <tile/>
   <tile/>
   <tile/>
   <tile/>
   <tile/>
   <tile/>
   <tile/>
   <tile/>
   <tile/>
   <tile/>
   <tile/>
   <tile/>
   <tile/>
   <tile/>
   <tile/>
   <tile/>
   <tile/>
   <tile/>
   <tile/>
   <tile/>
   <tile/>
   <tile/>
   <tile/>
   <tile/>
   <tile/>
   <tile/>
   <tile/>
   <tile/>
   <tile/>
   <tile/>
   <tile/>
   <tile/>
   <tile/>
   <tile/>
   <tile/>
   <tile/>
   <tile/>
   <tile/>
   <tile/>
   <tile/>
   <tile/>
   <tile/>
   <tile/>
   <tile/>
   <tile/>
   <tile/>
   <tile/>
   <tile/>
   <tile/>
   <tile/>
   <tile/>
   <tile/>
   <tile/>
   <tile/>
   <tile/>
   <tile/>
   <tile/>
   <tile/>
   <tile/>
   <tile/>
   <tile/>
   <tile/>
   <tile/>
   <tile/>
   <tile/>
   <tile/>
   <tile/>
   <tile/>
   <tile/>
   <tile/>
   <tile/>
   <tile/>
   <tile/>
   <tile/>
   <tile/>
   <tile/>
   <tile/>
   <tile/>
   <tile/>
   <tile/>
   <tile/>
   <tile/>
   <tile/>
   <tile/>
   <tile/>
   <tile/>
   <tile/>
   <tile/>
   <tile/>
   <tile/>
   <tile/>
   <tile/>
   <tile/>
   <tile/>
   <tile/>
   <tile/>
   <tile/>
   <tile/>
   <tile/>
   <tile/>
   <tile/>
   <tile/>
   <tile/>
   <tile/>
   <tile/>
   <tile/>
   <tile/>
   <tile/>
   <tile/>
   <tile/>
   <tile/>
   <tile/>
   <tile/>
   <tile/>
   <tile/>
   <tile/>
   <tile/>
   <tile/>
   <tile/>
   <tile/>
   <tile/>
   <tile/>
   <tile/>
   <tile/>
   <tile/>
   <tile/>
   <tile/>
   <tile/>
   <tile/>
   <tile/>
   <tile/>
   <tile/>
   <tile/>
   <tile/>
   <tile/>
   <tile/>
   <tile/>
   <tile/>
   <tile/>
   <tile/>
   <tile/>
   <tile/>
   <tile/>
   <tile/>
   <tile/>
   <tile/>
   <tile/>
   <tile/>
   <tile/>
   <tile/>
   <tile/>
   <tile/>
   <tile/>
   <tile/>
   <tile/>
   <tile/>
   <tile/>
   <tile/>
   <tile/>
   <tile/>
   <tile/>
   <tile/>
   <tile/>
   <tile/>
   <tile/>
   <tile/>
   <tile/>
   <tile/>
   <tile/>
   <tile/>
   <tile/>
   <tile/>
   <tile/>
   <tile/>
   <tile/>
   <tile/>
   <tile/>
   <tile/>
   <tile/>
   <tile/>
   <tile/>
   <tile/>
   <tile/>
   <tile/>
   <tile/>
   <tile/>
   <tile/>
   <tile/>
   <tile/>
   <tile/>
   <tile/>
   <tile/>
   <tile/>
   <tile/>
   <tile/>
   <tile/>
   <tile/>
   <tile/>
   <tile/>
   <tile/>
   <tile/>
   <tile/>
   <tile/>
   <tile/>
   <tile/>
   <tile/>
   <tile/>
   <tile/>
   <tile/>
   <tile/>
   <tile/>
   <tile/>
   <tile/>
   <tile/>
   <tile/>
   <tile/>
   <tile/>
   <tile/>
   <tile/>
   <tile/>
   <tile/>
   <tile/>
   <tile/>
   <tile/>
   <tile/>
   <tile/>
   <tile/>
   <tile/>
   <tile/>
   <tile/>
   <tile/>
   <tile/>
   <tile/>
   <tile/>
   <tile/>
   <tile/>
   <tile/>
   <tile/>
   <tile/>
   <tile/>
   <tile/>
   <tile/>
   <tile/>
   <tile/>
   <tile/>
   <tile/>
   <tile/>
   <tile/>
   <tile/>
   <tile/>
   <tile/>
   <tile/>
   <tile/>
   <tile/>
   <tile/>
   <tile/>
   <tile/>
   <tile/>
   <tile/>
   <tile/>
   <tile/>
   <tile/>
   <tile/>
   <tile/>
   <tile/>
   <tile/>
   <tile/>
   <tile/>
   <tile/>
   <tile/>
   <tile/>
   <tile/>
   <tile/>
   <tile/>
   <tile/>
   <tile/>
   <tile/>
   <tile/>
   <tile/>
   <tile/>
   <tile/>
   <tile/>
   <tile/>
   <tile/>
   <tile/>
   <tile/>
   <tile/>
   <tile/>
   <tile/>
   <tile/>
   <tile/>
   <tile/>
   <tile/>
   <tile/>
   <tile/>
   <tile/>
   <tile/>
   <tile/>
   <tile/>
   <tile/>
   <tile/>
   <tile/>
   <tile/>
   <tile/>
   <tile/>
   <tile/>
   <tile/>
   <tile/>
   <tile/>
   <tile/>
   <tile/>
   <tile/>
   <tile/>
   <tile/>
   <tile/>
   <tile/>
   <tile/>
   <tile/>
   <tile/>
   <tile/>
   <tile/>
   <tile/>
   <tile/>
   <tile/>
   <tile/>
   <tile/>
   <tile/>
   <tile/>
   <tile/>
   <tile/>
   <tile/>
   <tile/>
   <tile/>
   <tile/>
   <tile/>
   <tile/>
   <tile/>
   <tile/>
   <tile/>
   <tile/>
   <tile/>
   <tile/>
   <tile/>
   <tile/>
   <tile/>
   <tile/>
   <tile/>
   <tile/>
   <tile/>
   <tile/>
   <tile/>
   <tile/>
   <tile/>
   <tile/>
  </data>
 </layer>
 <objectgroup id="25" name="Doors">
  <properties>
   <property name="Doors" type="bool" value="true"/>
  </properties>
  <object id="1597" name="Map42" x="0" y="832" height="192">
   <properties>
    <property name="PlayerPosX" type="int" value="2624"/>
    <property name="PlayerPosY" type="int" value="2882"/>
    <property name="TargetScene" type="int" value="42"/>
   </properties>
  </object>
 </objectgroup>
 <objectgroup id="79" name="Props"/>
 <objectgroup id="26" name="Collisions">
  <object id="1600" x="-128" y="1024" width="384"/>
  <object id="1775" x="1088" y="768" width="768"/>
  <object id="1794" x="1088" y="640" width="768"/>
  <object id="1817" x="-128" y="832" width="384"/>
  <object id="1830" x="2688" y="192" height="960"/>
  <object id="1831" x="256" y="1152" width="320"/>
  <object id="1832" x="256" y="1024" height="128"/>
  <object id="1856" x="2304" y="1152" width="384"/>
  <object id="1861" x="1792" y="192" width="896"/>
  <object id="1792" x="1088" y="640" height="128"/>
  <object id="1841" x="960" y="512" width="192"/>
  <object id="1845" x="1792" y="512" width="192"/>
  <object id="1867" x="256" y="384" width="256"/>
  <object id="1876" x="448" y="896" width="128"/>
  <object id="1884" x="3154.55" y="793.939"/>
 </objectgroup>
 <objectgroup id="85" name="Wall">
  <object id="1617" x="256" y="192" width="896"/>
  <object id="1793" x="1856" y="640" height="128"/>
  <object id="1878" x="576" y="898" height="62"/>
  <object id="1879" x="448" y="960" width="128"/>
  <object id="1880" x="448" y="899" height="61"/>
  <object id="1872" x="576" y="1152" height="64"/>
  <object id="1881" x="512" y="384" height="64"/>
  <object id="1882" x="256" y="448" width="256"/>
  <object id="1890" x="960" y="512" height="384"/>
  <object id="1891" x="1152" y="192" height="320"/>
  <object id="1892" x="960" y="896" width="1024"/>
  <object id="1893" x="1984" y="512" height="384"/>
  <object id="1894" x="1792" y="192" height="320"/>
  <object id="1895" x="256" y="192" height="192"/>
  <object id="1896" x="256" y="448" height="384"/>
 </objectgroup>
 <objectgroup id="89" name="Liana"/>
 <objectgroup id="90" name="HookAnchors"/>
 <objectgroup id="84" name="Spikes"/>
 <objectgroup id="80" name="Enemies">
  <object id="1701" name="DungBeetle" x="1344" y="192" width="64" height="64"/>
  <object id="1783" name="Creebler" x="1408" y="704" width="64" height="64">
   <properties>
    <property name="navigationLayer" value="Path1"/>
   </properties>
  </object>
  <object id="1784" name="Creebler" x="1677.5" y="704" width="64" height="64">
   <properties>
    <property name="navigationLayer" value="Path2"/>
   </properties>
  </object>
 </objectgroup>
 <objectgroup id="82" name="PressureSystem">
  <object id="1605" name="Door" x="64" y="832" width="64" height="192">
   <properties>
    <property name="groupId" type="int" value="2"/>
    <property name="isOpen" type="bool" value="true"/>
   </properties>
  </object>
  <object id="1607" name="Plate" x="192" y="960" width="64" height="64">
   <properties>
    <property name="groupId" type="int" value="2"/>
    <property name="isInvisible" type="bool" value="true"/>
   </properties>
  </object>
  <object id="1781" name="Plate" x="1388.67" y="703.667" width="64" height="64">
   <properties>
    <property name="groupId" type="int" value="0"/>
   </properties>
  </object>
  <object id="1782" name="Plate" x="1512.67" y="704" width="64" height="64">
   <properties>
    <property name="groupId" type="int" value="1"/>
   </properties>
  </object>
  <object id="1862" name="Plate" x="1792" y="448" width="64" height="64">
   <properties>
    <property name="groupId" type="int" value="3"/>
   </properties>
  </object>
  <object id="1863" name="Door" x="768" y="832" width="192" height="64">
   <properties>
    <property name="groupId" type="int" value="0"/>
   </properties>
  </object>
  <object id="1864" name="Door" x="256" y="704" width="192" height="64">
   <properties>
    <property name="groupId" type="int" value="1"/>
   </properties>
  </object>
  <object id="1865" name="Door" x="768" y="576" width="192" height="64">
   <properties>
    <property name="groupId" type="int" value="0"/>
   </properties>
  </object>
  <object id="1868" name="Plate" x="256" y="320" width="64" height="64">
   <properties>
    <property name="groupId" type="int" value="3"/>
   </properties>
  </object>
  <object id="1900" name="Door" x="764" y="830" width="192" height="64">
   <properties>
    <property name="groupId" type="int" value="0"/>
   </properties>
  </object>
 </objectgroup>
 <objectgroup id="86" name="WallSlide"/>
 <objectgroup id="83" name="Props">
  <object id="1747" name="Box" x="1865.33" y="454.667" width="54.6667" height="54.6667"/>
  <object id="1780" name="Box" x="1491" y="703.667" width="64" height="64"/>
  <object id="1871" name="Box" x="394" y="328.667" width="54.6667" height="54.6667"/>
 </objectgroup>
 <objectgroup id="58" name="Wall"/>
</map>
